;FLAVOR:Marlin
;TIME:2392
;Filament used: 2.55627m
;Layer height: 0.24
;MINX:68.907
;MINY:90.907
;MINZ:0.3
;MAXX:141.093
;MAXY:119.093
;MAXZ:12.06
;Generated with Cura_SteamEngine 5.2.1
M140 S80
M105
M190 S80
M104 S235
M105
M109 S235
M82 ;absolute extrusion mode
G21 ;metric values
G90 ;absolute positioning
M82 ;set extruder to absolute mode
M107 ;start with the fan off
G28 X0 Y0 ;move X/Y to min endstops
G28 Z0 ;move Z to min endstops
G1 Z15.0 F150.0 ;move the platform down 15mm
G92 E0 ;zero the extruded length
G1 F200 E3 ;extrude 3mm of feed stock
G92 E0 ;zero the extruded length again
G1 F150.0
G0 Y20 F150.0
M117 Printing...
G5
G92 E0
G92 E0
G1 F2400 E-6
;LAYER_COUNT:50
;LAYER:0
M107
M204 S3000
M205 X10 Y10
G1 F600 Z0.375
G0 F3375 X71.628 Y99.977 Z0.375
M204 S1800
M205 X8 Y8
;TYPE:SKIRT
G1 F600 Z0.3
G1 F2400 E0
G1 X72.168 Y99.612 E0.03553
G1 X72.776 Y99.248 E0.07415
G1 X79.906 Y95.132 E0.52288
G1 X80.568 Y94.763 E0.56419
G1 X81.371 Y94.389 E0.61247
G1 X82.004 Y94.167 E0.64903
G1 X83.565 Y93.704 E0.73778
G1 X86.135 Y92.891 E0.8847
G1 X88.659 Y92.012 E1.03037
G1 X90.331 Y91.385 E1.1277
G1 X91.076 Y91.152 E1.17025
G1 X91.757 Y90.999 E1.20829
G1 X92.649 Y90.919 E1.2571
G1 X93.372 Y90.908 E1.29651
G1 X95.926 Y90.911 E1.43572
G1 X96.754 Y90.924 E1.48086
G1 X98.275 Y91.033 E1.56397
G1 X101.006 Y91.191 E1.71307
G1 X103.631 Y91.268 E1.85621
G1 X106.292 Y91.272 E2.00125
G1 X108.951 Y91.199 E2.14623
G1 X111.653 Y91.049 E2.29373
G1 X113.247 Y90.929 E2.38086
G1 X113.897 Y90.908 E2.4163
G1 X116.739 Y90.91 E2.57121
G1 X119.195 Y90.95 E2.70509
G1 X121.931 Y90.944 E2.85422
G1 X123.53 Y90.908 E2.94139
G1 X128.212 Y90.907 E3.19658
G1 X128.984 Y90.918 E3.23867
G1 X129.68 Y90.968 E3.2767
G1 X130.368 Y91.098 E3.31486
G1 X131.376 Y91.35 E3.3715
G1 X135.539 Y92.467 E3.60643
G1 X136.151 Y92.64 E3.64109
G1 X136.811 Y92.868 E3.67915
G1 X137.462 Y93.17 E3.71826
G1 X138.072 Y93.509 E3.7563
G1 X138.639 Y93.915 E3.79431
G1 X139.156 Y94.384 E3.83236
G1 X139.617 Y94.909 E3.87044
G1 X140.014 Y95.482 E3.90843
G1 X140.526 Y96.489 E3.97001
G1 X140.843 Y97.392 E4.02217
G1 X140.998 Y98.073 E4.06024
G1 X141.08 Y98.968 E4.10922
G1 X141.091 Y99.629 E4.14526
G1 X141.093 Y101.417 E4.24271
G1 X141.077 Y102.613 E4.30791
G1 X141.018 Y104.768 E4.42541
G1 X141.022 Y107.448 E4.57148
G1 X141.091 Y110.117 E4.717
G1 X141.093 Y112.258 E4.8337
G1 X141.082 Y113.075 E4.87823
G1 X141.033 Y113.771 E4.91626
G1 X140.904 Y114.457 E4.95431
G1 X140.698 Y115.123 E4.99231
G1 X140.416 Y115.762 E5.03038
G1 X140.064 Y116.364 E5.06839
G1 X139.645 Y116.923 E5.10646
G1 X139.165 Y117.429 E5.14448
G1 X138.63 Y117.877 E5.18251
G1 X138.047 Y118.261 E5.22056
G1 X137.424 Y118.577 E5.25864
G1 X136.77 Y118.818 E5.29663
G1 X136.092 Y118.984 E5.33467
G1 X135.056 Y119.093 E5.39145
G1 X75.628 Y119.092 E8.63058
G1 X74.93 Y119.083 E8.66862
G1 X74.234 Y119.035 E8.70665
G1 X73.548 Y118.906 E8.7447
G1 X72.881 Y118.7 E8.78275
G1 X72.243 Y118.42 E8.82072
G1 X71.64 Y118.068 E8.85878
G1 X71.081 Y117.649 E8.89685
G1 X70.575 Y117.17 E8.93483
G1 X70.126 Y116.635 E8.9729
G1 X69.741 Y116.053 E9.01094
G1 X69.426 Y115.43 E9.04899
G1 X69.183 Y114.776 E9.08701
G1 X69.017 Y114.098 E9.12506
G1 X68.918 Y113.156 E9.17669
G1 X68.907 Y112.655 E9.204
G1 X68.911 Y105.911 E9.57158
G1 X68.923 Y105.095 E9.61606
G1 X68.973 Y104.399 E9.6541
G1 X69.102 Y103.714 E9.69209
G1 X69.309 Y103.047 E9.73015
G1 X69.591 Y102.409 E9.76817
G1 X69.944 Y101.807 E9.80621
G1 X70.471 Y101.101 E9.85423
G1 X71.097 Y100.429 E9.90429
G1 X71.628 Y99.977 E9.94229
M204 S3000
M205 X10 Y10
G0 F3375 X71.931 Y100.296
M204 S1800
M205 X8 Y8
G1 F2400 X72.393 Y99.987 E9.97259
G1 X72.994 Y99.627 E10.01077
G1 X80.2 Y95.468 E10.46426
G1 X80.78 Y95.145 E10.50044
G1 X81.526 Y94.798 E10.54529
G1 X82.128 Y94.586 E10.58008
G1 X83.715 Y94.116 E10.67029
G1 X86.273 Y93.306 E10.81654
G1 X88.779 Y92.433 E10.96118
G1 X90.484 Y91.794 E11.06042
G1 X91.196 Y91.572 E11.10107
G1 X91.852 Y91.426 E11.1377
G1 X92.656 Y91.356 E11.18169
G1 X93.372 Y91.345 E11.22072
G1 X95.919 Y91.348 E11.35954
G1 X96.734 Y91.36 E11.40397
G1 X98.226 Y91.468 E11.4855
G1 X100.969 Y91.626 E11.63526
G1 X103.653 Y91.705 E11.78161
G1 X106.304 Y91.709 E11.92611
G1 X108.986 Y91.636 E12.07234
G1 X111.628 Y91.489 E12.21657
G1 X113.042 Y91.378 E12.29388
G1 X113.675 Y91.349 E12.32841
G1 X116.732 Y91.347 E12.49503
G1 X119.189 Y91.387 E12.62897
G1 X121.942 Y91.381 E12.77902
G1 X123.53 Y91.345 E12.8656
G1 X128.212 Y91.344 E13.12079
G1 X128.978 Y91.355 E13.16255
G1 X129.648 Y91.404 E13.19916
G1 X130.262 Y91.522 E13.23324
G1 X131.263 Y91.772 E13.28948
G1 X135.421 Y92.887 E13.52412
G1 X136.033 Y93.06 E13.55878
G1 X137.088 Y93.46 E13.62028
G1 X137.859 Y93.891 E13.66842
G1 X138.403 Y94.286 E13.70506
G1 X138.896 Y94.743 E13.74171
G1 X139.332 Y95.256 E13.7784
G1 X139.704 Y95.816 E13.81504
G1 X140.131 Y96.677 E13.86743
G1 X140.43 Y97.537 E13.91705
G1 X140.575 Y98.193 E13.95367
G1 X140.643 Y98.976 E13.99651
G1 X140.654 Y99.63 E14.03216
G1 X140.656 Y101.418 E14.12962
G1 X140.64 Y102.601 E14.1941
G1 X140.581 Y104.756 E14.3116
G1 X140.585 Y107.459 E14.45893
G1 X140.654 Y110.118 E14.60391
G1 X140.656 Y112.259 E14.7206
G1 X140.645 Y113.069 E14.76476
G1 X140.596 Y113.739 E14.80137
G1 X140.468 Y114.399 E14.83802
G1 X140.262 Y115.039 E14.87466
G1 X139.982 Y115.651 E14.91135
G1 X139.631 Y116.224 E14.94797
G1 X139.214 Y116.752 E14.98464
G1 X138.738 Y117.227 E15.02129
G1 X138.209 Y117.642 E15.05794
G1 X137.634 Y117.991 E15.0946
G1 X137.022 Y118.269 E15.13124
G1 X136.382 Y118.473 E15.16785
G1 X135.721 Y118.6 E15.20454
G1 X135.009 Y118.656 E15.24347
G1 X75.634 Y118.656 E18.4797
G1 X74.936 Y118.647 E18.51775
G1 X74.265 Y118.598 E18.55442
G1 X73.605 Y118.47 E18.59107
G1 X72.965 Y118.265 E18.62769
G1 X72.354 Y117.985 E18.66433
G1 X71.78 Y117.635 E18.70097
G1 X71.252 Y117.219 E18.73761
G1 X70.777 Y116.743 E18.77426
G1 X70.361 Y116.214 E18.81094
G1 X70.012 Y115.64 E18.84756
G1 X69.733 Y115.028 E18.88422
G1 X69.528 Y114.387 E18.9209
G1 X69.401 Y113.727 E18.95753
G1 X69.344 Y113.002 E18.99717
G1 X69.348 Y105.918 E19.38328
G1 X69.36 Y105.102 E19.42776
G1 X69.409 Y104.431 E19.46443
G1 X69.538 Y103.771 E19.50109
G1 X69.745 Y103.132 E19.5377
G1 X70.026 Y102.521 E19.57435
G1 X70.377 Y101.947 E19.61103
G1 X70.957 Y101.219 E19.66176
G1 X71.417 Y100.728 E19.69843
G1 X71.931 Y100.296 E19.73503
M204 S3000
M205 X10 Y10
G0 F3375 X72.337 Y100.53
M204 S1800
M205 X8 Y8
G1 F2400 X73.134 Y100.051 E19.78571
G1 X80.413 Y95.849 E20.24381
G1 X80.993 Y95.526 E20.28
G1 X81.681 Y95.206 E20.32136
G1 X82.252 Y95.005 E20.35435
G1 X83.816 Y94.541 E20.44327
G1 X86.411 Y93.72 E20.59162
G1 X88.951 Y92.835 E20.73822
G1 X90.638 Y92.203 E20.83642
G1 X91.316 Y91.992 E20.87512
G1 X91.946 Y91.854 E20.91027
G1 X92.663 Y91.793 E20.94949
G1 X93.371 Y91.782 E20.98809
G1 X95.913 Y91.785 E21.12664
G1 X96.715 Y91.797 E21.17036
G1 X98.23 Y91.907 E21.25315
G1 X100.931 Y92.063 E21.40061
G1 X103.64 Y92.142 E21.54833
G1 X106.315 Y92.146 E21.69413
G1 X108.986 Y92.073 E21.83977
G1 X111.686 Y91.923 E21.98716
G1 X113.076 Y91.814 E22.06315
G1 X113.692 Y91.786 E22.09676
G1 X116.725 Y91.784 E22.26208
G1 X119.182 Y91.824 E22.39601
G1 X121.906 Y91.818 E22.54448
G1 X123.409 Y91.783 E22.62643
G1 X128.212 Y91.781 E22.88822
G1 X128.972 Y91.792 E22.92964
G1 X129.615 Y91.841 E22.96479
G1 X130.157 Y91.946 E22.99488
G1 X131.15 Y92.194 E23.05067
G1 X135.302 Y93.308 E23.28498
G1 X135.914 Y93.481 E23.31964
G1 X136.901 Y93.855 E23.37717
G1 X137.645 Y94.273 E23.42368
G1 X138.165 Y94.657 E23.45892
G1 X138.633 Y95.101 E23.49408
G1 X139.043 Y95.6 E23.52928
G1 X139.388 Y96.146 E23.56448
G1 X139.736 Y96.868 E23.60817
G1 X140.017 Y97.68 E23.655
G1 X140.151 Y98.312 E23.69021
G1 X140.206 Y98.984 E23.72696
G1 X140.217 Y99.63 E23.76218
G1 X140.219 Y101.495 E23.86383
G1 X140.203 Y102.59 E23.92352
G1 X140.144 Y104.746 E24.04108
G1 X140.148 Y107.424 E24.18704
G1 X140.217 Y110.118 E24.33393
G1 X140.219 Y112.336 E24.45482
G1 X140.209 Y113.063 E24.49445
G1 X140.16 Y113.707 E24.52965
G1 X140.032 Y114.34 E24.56485
G1 X139.826 Y114.952 E24.60005
G1 X139.547 Y115.535 E24.63528
G1 X139.198 Y116.078 E24.67046
G1 X138.785 Y116.574 E24.70564
G1 X138.313 Y117.015 E24.74085
G1 X137.791 Y117.395 E24.77604
G1 X137.225 Y117.707 E24.81126
G1 X136.626 Y117.947 E24.84644
G1 X136.001 Y118.111 E24.88165
G1 X135.039 Y118.219 E24.93442
G1 X75.64 Y118.219 E28.17196
G1 X74.942 Y118.21 E28.21001
G1 X74.298 Y118.161 E28.24521
G1 X73.665 Y118.034 E28.2804
G1 X73.052 Y117.829 E28.31563
G1 X72.469 Y117.55 E28.35086
G1 X71.926 Y117.202 E28.38601
G1 X71.429 Y116.789 E28.42123
G1 X70.988 Y116.318 E28.4564
G1 X70.607 Y115.795 E28.49167
G1 X70.295 Y115.23 E28.52685
G1 X70.054 Y114.631 E28.56204
G1 X69.89 Y114.006 E28.59726
G1 X69.781 Y113.032 E28.65068
G1 X69.785 Y105.924 E29.0381
G1 X69.797 Y105.108 E29.08258
G1 X69.846 Y104.464 E29.11779
G1 X69.975 Y103.831 E29.153
G1 X70.18 Y103.219 E29.18818
G1 X70.46 Y102.637 E29.22338
G1 X71.107 Y101.696 E29.28562
G1 X71.736 Y101.028 E29.33563
G1 X72.337 Y100.53 E29.37817
M204 S3000
M205 X10 Y10
G1 F2400 E23.37817
;MESH:din mount 46mm.stl
G0 F3375 X75.506 Y103.941
G0 X76.224 Y105.183
G0 X75.878 Y106.283
G0 X92.267 Y107.685
G0 X93.163 Y108.442
G0 X95.791 Y107.969
G0 X96.114 Y106.869
G0 X96.914 Y108.129
G0 X111.081 Y109.552
G0 X113.833 Y107.048
G0 X117.775 Y109.709
G0 X120.448 Y111.483
M204 S1800
M205 X8 Y8
;TYPE:WALL-INNER
G1 F2400 E29.37817
G1 F932 X119.87 Y111.329 E29.40966
G1 F900 X119.351 Y111.017 E29.44266
G1 X118.95 Y110.587 E29.47471
G1 X118.652 Y110.087 E29.50644
G1 X118.5 Y109.532 E29.5378
G1 X116.218 Y109.53 E29.66218
G1 X115.853 Y109.486 E29.68222
G1 X115.518 Y109.36 E29.70173
G1 X114.963 Y109.033 E29.73684
G1 X114.748 Y108.814 E29.75356
G1 X114.456 Y108.405 E29.78096
G1 X114.254 Y107.874 E29.81192
G1 F743.5 X114.137 Y107.108 E29.86305
G1 F646.9 X114.226 Y106.725 E29.89287
G1 F664.4 X114.993 Y104.366 E30.07602
G1 F640.6 X115.208 Y103.622 E30.13533
G1 F731 X115.448 Y103.212 E30.16721
G1 F900 X116.264 Y100.698 E30.31127
G1 X116.32 Y100.35 E30.33049
G1 X116.32 Y98.531 E30.42963
G1 X114.533 Y98.531 E30.52703
G1 X114.531 Y103.067 E30.77427
G1 F731 X114.588 Y103.475 E30.80191
G1 F640.6 X114.431 Y104.183 E30.85745
G1 F655.5 X113.563 Y106.855 E31.06769
G1 F638.5 X113.53 Y106.99 E31.07837
G1 F743.5 X113.281 Y107.399 E31.10996
G1 F900 X113.013 Y107.915 E31.14165
G1 X112.622 Y108.408 E31.17595
G1 X112.217 Y108.771 E31.20559
G1 X111.658 Y109.13 E31.2418
G1 X111.386 Y109.256 E31.25814
G1 X110.779 Y109.447 E31.29283
G1 X110.141 Y109.524 E31.32785
G1 X99.859 Y109.529 E31.88827
G1 X99.403 Y109.481 E31.91327
G1 X98.733 Y109.303 E31.95105
G1 X98 Y108.947 E31.99547
G1 X97.426 Y108.457 E32.0366
G1 X97.003 Y107.931 E32.07339
G1 X96.716 Y107.41 E32.10581
G1 F742.1 X96.416 Y106.811 E32.1501
G1 F646.9 X96.263 Y106.299 E32.19062
G1 F664.4 X95.572 Y104.187 E32.3547
G1 F650.1 X95.414 Y103.559 E32.40356
G1 F731 X95.461 Y103.223 E32.42633
G1 F879.9 X95.471 Y98.533 E32.68781
G1 F900 X93.681 Y98.531 E32.78537
G1 X93.679 Y100.431 E32.88893
G1 X93.727 Y100.667 E32.90206
G1 F879.9 X94.611 Y103.357 E33.05992
G1 F731 X94.814 Y103.718 E33.08772
G1 F646.9 X94.948 Y104.173 E33.12368
G1 F661 X95.697 Y106.482 E33.30383
G1 F646.9 X95.811 Y106.952 E33.3405
G1 F742.1 X95.692 Y107.657 E33.38777
G1 F900 X95.486 Y108.259 E33.42245
G1 X95.167 Y108.732 E33.45354
G1 X94.838 Y109.037 E33.478
G1 X94.321 Y109.341 E33.51069
G1 X93.934 Y109.465 E33.53284
G1 X93.463 Y109.524 E33.55871
G1 X92.775 Y109.416 E33.59667
G1 X92.407 Y109.289 E33.61789
G1 X91.815 Y108.849 E33.65809
G1 X91.499 Y108.482 E33.68449
G1 X91.217 Y107.842 E33.7226
G1 X91.153 Y107.528 E33.74007
G1 X90.862 Y107.554 E33.756
G1 X76.531 Y107.554 E34.53711
G1 X76.53 Y111.471 E34.7506
G1 X119.844 Y111.47 E37.11143
G1 F932 X120.448 Y111.483 E37.14323
M204 S3000
M205 X10 Y10
G0 F3375 X123.533 Y111.479
M204 S1800
M205 X8 Y8
G1 F912.5 X122.967 Y111.338 E37.17459
G1 F885.8 X122.652 Y111.19 E37.19386
G1 X122.311 Y110.969 E37.21637
G1 X121.815 Y111.294 E37.2492
G1 F895.9 X121.265 Y111.469 E37.28081
G1 X122.946 Y111.468 E37.37285
G1 F912.5 X123.533 Y111.479 E37.40441
M204 S3000
M205 X10 Y10
G0 F3375 X124.522 Y111.467
M204 S1800
M205 X8 Y8
G1 F893.9 X130.864 Y111.47 E37.75245
G1 F828 X131.854 Y111.432 E37.81115
G1 F756.3 X132.421 Y111.426 E37.84793
G1 F675.8 X133.052 Y111.371 E37.8939
G1 F617.4 X133.371 Y111.371 E37.91925
G1 X133.371 Y110.539 E37.98535
G1 X133.318 Y110.514 E37.99001
G1 X132.897 Y110.774 E38.02932
G1 F675.8 X132.376 Y110.901 E38.06825
G1 F756.3 X131.854 Y110.918 E38.10212
G1 F828 X131.078 Y110.674 E38.15031
G1 F900 X130.856 Y110.545 E38.16431
G1 X130.359 Y110.117 E38.20006
G1 X130.041 Y109.485 E38.23862
G1 X127.692 Y100.73 E38.73269
G1 X126.636 Y100.73 E38.79025
G1 X126.635 Y108.845 E39.23255
G1 X126.572 Y109.415 E39.26381
G1 X126.366 Y110.007 E39.29798
G1 X126.166 Y110.354 E39.31981
G1 X125.708 Y110.868 E39.35733
G1 X125.119 Y111.256 E39.39577
G1 F893.9 X124.522 Y111.467 E39.43052
M204 S3000
M205 X10 Y10
G0 F3375 X126.393 Y106.354
G0 X126.53 Y100.623
G0 X127.803 Y100.583
G0 X130.714 Y109.489
G0 X131.616 Y110.225
G0 X132.967 Y109.859
G0 X132.925 Y108.68
G0 X130.799 Y100.787
G0 X131.899 Y98.918
M204 S1800
M205 X8 Y8
G1 F947.7 X130.873 Y98.644 E39.48549
G1 X131.046 Y99.289 E39.52006
G1 X131.281 Y99.11 E39.53535
G1 X131.751 Y98.936 E39.56129
G1 X131.899 Y98.918 E39.569
M204 S3000
M205 X10 Y10
G0 F3375 X130.666 Y100.238
G0 X132.925 Y108.68
G0 X132.967 Y109.859
G0 X131.616 Y110.225
G0 X130.714 Y109.489
G0 X128.523 Y99.787
G0 X125.995 Y100.548
G0 X125.994 Y108.904
G0 X125.725 Y109.866
G0 X124.98 Y110.613
G0 X123.963 Y110.888
G0 X120.401 Y110.844
G0 X115.351 Y108.54
G0 X113.768 Y103.893
G0 X112.739 Y107.051
G0 X112.152 Y107.973
G0 X111.252 Y108.621
G0 X110.207 Y108.883
G0 X99.907 Y108.889
G0 X97.144 Y107.69
G0 X96.047 Y106.454
G0 X92.863 Y108.987
M204 S1800
M205 X8 Y8
G1 F900 X92.6 Y108.897 E39.58416
G1 X92.096 Y108.514 E39.61866
G1 X91.871 Y108.253 E39.63744
G1 X91.645 Y107.75 E39.6675
G1 X91.583 Y107.466 E39.68334
G1 X91.56 Y106.934 E39.71236
G1 X91.009 Y107.117 E39.74401
G1 X76.349 Y107.117 E40.54305
G1 X76.096 Y107.045 E40.55739
G1 X76.093 Y111.908 E40.82245
G1 X133.908 Y111.908 E43.97366
G1 X133.908 Y110.197 E44.06692
G1 X133.333 Y109.917 E44.10178
G1 X133.227 Y109.832 E44.10918
G1 X133.041 Y110.048 E44.12472
G1 X132.636 Y110.305 E44.15086
G1 X132.293 Y110.426 E44.17069
G1 X131.852 Y110.443 E44.19474
G1 X131.298 Y110.296 E44.22598
G1 X131.076 Y110.167 E44.23998
G1 X130.664 Y109.77 E44.27116
G1 X130.463 Y109.371 E44.29551
G1 X128.027 Y100.293 E44.80781
G1 X126.199 Y100.293 E44.90745
G1 X126.198 Y108.845 E45.37358
G1 X126.142 Y109.338 E45.40062
G1 X125.962 Y109.84 E45.42969
G1 X125.819 Y110.088 E45.44529
G1 X125.44 Y110.523 E45.47674
G1 X124.952 Y110.852 E45.50882
G1 X124.447 Y111.033 E45.53805
G1 X123.953 Y111.088 E45.56515
G1 X123.58 Y111.054 E45.58556
G1 X123.108 Y110.921 E45.61229
G1 X122.569 Y110.613 E45.64613
G1 X122.293 Y110.35 E45.66691
G1 X122.147 Y110.526 E45.67937
G1 X121.64 Y110.89 E45.71339
G1 F902.1 X121.209 Y111.043 E45.73826
G1 X120.814 Y111.089 E45.75988
G1 F900 X120.493 Y111.062 E45.77744
G1 X120.026 Y110.921 E45.80403
G1 X119.608 Y110.664 E45.83078
G1 X119.322 Y110.356 E45.85368
G1 X119.047 Y109.9 E45.88271
G1 X118.957 Y109.612 E45.89916
G1 X118.909 Y109.094 E45.92751
G1 X116.219 Y109.093 E46.07413
G1 X115.958 Y109.061 E46.08846
G1 X115.719 Y108.971 E46.10238
G1 X115.242 Y108.696 E46.13239
G1 X115.088 Y108.54 E46.14434
G1 X114.758 Y108.031 E46.1774
G1 X114.645 Y107.563 E46.20364
G1 X114.676 Y107.006 E46.23405
