;FLAVOR:Marlin
;TIME:1188
;Filament used: 1.31181m
;Layer height: 0.24
;MINX:85.407
;MINY:85.407
;MINZ:0.3
;MAXX:124.593
;MAXY:124.593
;MAXZ:6.135
;Generated with Cura_SteamEngine 5.2.1
M140 S80
M105
M190 S80
M104 S235
M105
M109 S235
M82 ;absolute extrusion mode
G21 ;metric values
G90 ;absolute positioning
M82 ;set extruder to absolute mode
M107 ;start with the fan off
G28 X0 Y0 ;move X/Y to min endstops
G28 Z0 ;move Z to min endstops
G1 Z15.0 F150.0 ;move the platform down 15mm
G92 E0 ;zero the extruded length
G1 F200 E3 ;extrude 3mm of feed stock
G92 E0 ;zero the extruded length again
G1 F150.0
G0 Y20 F150.0
M117 Printing...
G5
G92 E0
G92 E0
G1 F2400 E-6
;LAYER_COUNT:25
;LAYER:0
M107
M204 S3000
M205 X10 Y10
G1 F600 Z0.375
G0 F3375 X87.333 Y87.072 Z0.375
M204 S1800
M205 X8 Y8
;TYPE:SKIRT
G1 F600 Z0.3
G1 F2400 E0
G1 X87.868 Y86.623 E0.03807
G1 X88.451 Y86.239 E0.07612
G1 X89.073 Y85.924 E0.11412
G1 X89.728 Y85.682 E0.15218
G1 X90.406 Y85.517 E0.19021
G1 X91.442 Y85.407 E0.247
G1 X117.793 Y85.407 E1.68326
G1 X118.578 Y85.418 E1.72605
G1 X119.274 Y85.468 E1.76408
G1 X119.96 Y85.597 E1.80213
G1 X120.627 Y85.804 E1.8402
G1 X121.265 Y86.085 E1.87819
G1 X121.867 Y86.438 E1.91623
G1 X122.425 Y86.857 E1.95426
G1 X122.931 Y87.338 E1.99232
G1 X123.379 Y87.873 E2.03035
G1 X123.763 Y88.456 E2.0684
G1 X124.078 Y89.079 E2.10645
G1 X124.319 Y89.734 E2.14449
G1 X124.484 Y90.412 E2.18252
G1 X124.593 Y91.443 E2.23903
G1 X124.593 Y117.839 E3.67775
G1 X124.584 Y118.566 E3.71737
G1 X124.535 Y119.263 E3.75546
G1 X124.407 Y119.949 E3.79349
G1 X124.202 Y120.616 E3.83153
G1 X123.921 Y121.255 E3.86958
G1 X123.57 Y121.858 E3.9076
G1 X123.151 Y122.416 E3.94564
G1 X122.672 Y122.923 E3.98365
G1 X122.138 Y123.372 E4.02168
G1 X121.555 Y123.757 E4.05976
G1 X120.933 Y124.073 E4.09779
G1 X120.279 Y124.316 E4.13582
G1 X119.601 Y124.482 E4.17386
G1 X118.559 Y124.593 E4.23098
G1 X92.128 Y124.592 E5.6716
G1 X91.43 Y124.583 E5.70965
G1 X90.734 Y124.535 E5.74767
G1 X90.048 Y124.406 E5.78572
G1 X89.381 Y124.2 E5.82377
G1 X88.743 Y123.92 E5.86174
G1 X88.14 Y123.568 E5.8998
G1 X87.581 Y123.149 E5.93788
G1 X87.075 Y122.67 E5.97585
G1 X86.626 Y122.135 E6.01392
G1 X86.241 Y121.553 E6.05196
G1 X85.926 Y120.93 E6.09001
G1 X85.683 Y120.276 E6.12804
G1 X85.517 Y119.598 E6.16608
G1 X85.407 Y118.551 E6.22346
G1 X85.408 Y92.092 E7.66561
G1 X85.417 Y91.427 E7.70186
G1 X85.466 Y90.73 E7.73994
G1 X85.595 Y90.044 E7.77799
G1 X85.801 Y89.378 E7.81599
G1 X86.082 Y88.739 E7.85404
G1 X86.434 Y88.137 E7.89204
G1 X86.853 Y87.578 E7.93012
G1 X87.333 Y87.072 E7.96814
M204 S3000
M205 X10 Y10
G0 F3375 X87.76 Y87.274
M204 S1800
M205 X8 Y8
G1 F2400 X88.289 Y86.859 E8.00478
G1 X88.863 Y86.51 E8.0414
G1 X89.475 Y86.231 E8.07806
G1 X90.116 Y86.027 E8.11472
G1 X90.776 Y85.901 E8.15135
G1 X91.487 Y85.844 E8.19022
G1 X117.793 Y85.844 E9.62403
G1 X118.572 Y85.855 E9.6665
G1 X119.243 Y85.904 E9.70317
G1 X119.902 Y86.033 E9.73977
G1 X120.542 Y86.239 E9.77641
G1 X121.153 Y86.52 E9.81307
G1 X121.727 Y86.871 E9.84974
G1 X122.254 Y87.288 E9.88637
G1 X122.729 Y87.764 E9.92302
G1 X123.143 Y88.294 E9.95968
G1 X123.492 Y88.868 E9.99629
G1 X123.77 Y89.481 E10.03298
G1 X123.974 Y90.121 E10.06959
G1 X124.1 Y90.782 E10.10627
G1 X124.156 Y91.49 E10.14498
G1 X124.156 Y117.834 E11.58086
G1 X124.147 Y118.561 E11.62049
G1 X124.098 Y119.232 E11.65716
G1 X123.971 Y119.892 E11.69379
G1 X123.766 Y120.532 E11.73042
G1 X123.486 Y121.144 E11.7671
G1 X123.136 Y121.718 E11.80375
G1 X122.721 Y122.246 E11.84035
G1 X122.245 Y122.722 E11.87704
G1 X121.716 Y123.137 E11.91369
G1 X121.142 Y123.487 E11.95033
G1 X120.531 Y123.766 E11.98694
G1 X119.89 Y123.971 E12.02362
G1 X119.23 Y124.099 E12.06027
G1 X118.511 Y124.156 E12.09958
G1 X92.134 Y124.156 E13.53726
G1 X91.436 Y124.147 E13.57531
G1 X90.765 Y124.098 E13.61198
G1 X90.105 Y123.97 E13.64862
G1 X89.465 Y123.765 E13.68525
G1 X88.854 Y123.485 E13.72188
G1 X88.28 Y123.135 E13.75853
G1 X87.752 Y122.719 E13.79516
G1 X87.277 Y122.243 E13.83182
G1 X86.861 Y121.714 E13.8685
G1 X86.512 Y121.14 E13.90511
G1 X86.233 Y120.528 E13.94177
G1 X86.028 Y119.887 E13.97845
G1 X85.901 Y119.227 E14.01508
G1 X85.844 Y118.504 E14.05461
G1 X85.845 Y92.097 E15.49393
G1 X85.854 Y91.432 E15.53018
G1 X85.903 Y90.762 E15.56679
G1 X86.031 Y90.102 E15.60344
G1 X86.237 Y89.462 E15.64008
G1 X86.517 Y88.851 E15.67672
G1 X86.867 Y88.277 E15.71336
G1 X87.284 Y87.749 E15.75003
G1 X87.76 Y87.274 E15.78668
M204 S3000
M205 X10 Y10
G0 F3375 X88.185 Y87.485
M204 S1800
M205 X8 Y8
G1 F2400 X88.707 Y87.106 E15.82184
G1 X89.273 Y86.793 E15.8571
G1 X89.872 Y86.553 E15.89227
G1 X90.497 Y86.389 E15.92749
G1 X91.461 Y86.281 E15.98036
G1 X117.793 Y86.281 E17.41559
G1 X118.566 Y86.292 E17.45772
G1 X119.21 Y86.341 E17.49292
G1 X119.843 Y86.469 E17.52812
G1 X120.455 Y86.675 E17.56332
G1 X121.037 Y86.954 E17.5985
G1 X121.58 Y87.304 E17.63371
G1 X122.076 Y87.717 E17.66889
G1 X122.517 Y88.189 E17.7041
G1 X122.897 Y88.712 E17.73933
G1 X123.208 Y89.278 E17.77453
G1 X123.448 Y89.877 E17.80971
G1 X123.612 Y90.502 E17.84493
G1 X123.719 Y91.462 E17.89757
G1 X123.719 Y117.829 E19.33471
G1 X123.71 Y118.556 E19.37434
G1 X123.662 Y119.2 E19.40954
G1 X123.535 Y119.833 E19.44472
G1 X123.33 Y120.446 E19.47996
G1 X123.052 Y121.028 E19.51511
G1 X122.703 Y121.572 E19.55034
G1 X122.291 Y122.069 E19.58552
G1 X121.82 Y122.511 E19.62073
G1 X121.298 Y122.891 E19.65592
G1 X120.733 Y123.204 E19.69113
G1 X120.133 Y123.445 E19.72637
G1 X119.509 Y123.61 E19.76155
G1 X118.539 Y123.719 E19.81475
G1 X92.14 Y123.719 E21.25363
G1 X91.442 Y123.71 E21.29168
G1 X90.798 Y123.661 E21.32688
G1 X90.165 Y123.534 E21.36207
G1 X89.552 Y123.329 E21.3973
G1 X88.969 Y123.05 E21.43253
G1 X88.426 Y122.702 E21.46768
G1 X87.929 Y122.289 E21.5029
G1 X87.488 Y121.818 E21.53807
G1 X87.107 Y121.295 E21.57334
G1 X86.795 Y120.73 E21.60852
G1 X86.554 Y120.131 E21.64371
G1 X86.39 Y119.506 E21.67893
G1 X86.281 Y118.534 E21.73224
G1 X86.281 Y92.103 E23.17286
G1 X86.29 Y91.438 E23.20911
G1 X86.339 Y90.794 E23.24432
G1 X86.467 Y90.161 E23.27952
G1 X86.672 Y89.549 E23.31469
G1 X86.951 Y88.966 E23.34992
G1 X87.3 Y88.423 E23.3851
G1 X87.714 Y87.927 E23.42032
G1 X88.185 Y87.485 E23.45552
M204 S3000
M205 X10 Y10
G1 F2400 E17.45552
;MESH:DIN_MountingOffset_6mm v1.stl
G0 F3375 X91.944 Y90.835
G0 X91.944 Y91.944
G0 X93.029 Y93.029
M204 S1800
M205 X8 Y8
;TYPE:WALL-INNER
G1 F2400 E23.45552
G1 F900 X93.03 Y116.97 E24.76043
G1 X116.971 Y116.971 E26.06533
G1 X116.971 Y98.107 E27.09352
G1 X116.971 Y93.029 E27.37029
G1 X93.029 Y93.029 E28.67525
M204 S3000
M205 X10 Y10
G1 F2400 E22.67525
G1 F600 Z0.375
G0 F3375 X92.938 Y92.938 Z0.375
G0 X100.63 Y106.728
M204 S1800
M205 X8 Y8
G1 F600 Z0.3
G1 F2400 E28.67525
G1 F900 X100.426 Y106.036 E28.71458
G1 X100.297 Y105.014 E28.77072
G1 X100.434 Y103.867 E28.83368
G1 X100.856 Y102.773 E28.89759
G1 X101.516 Y101.845 E28.95966
G1 X102.395 Y101.083 E29.02307
G1 X103.442 Y100.562 E29.08681
G1 X104.556 Y100.318 E29.14897
G1 X105.517 Y100.345 E29.20137
G1 X106.306 Y100.483 E29.24503
G1 X107.178 Y100.852 E29.29664
G1 X107.853 Y101.261 E29.33965
G1 X108.522 Y101.911 E29.39049
G1 X109.003 Y102.531 E29.43326
G1 X109.478 Y103.559 E29.49499
G1 X109.662 Y104.533 E29.54901
G1 X109.685 Y104.798 E29.56351
G1 X109.624 Y105.856 E29.62127
G1 X109.275 Y106.962 E29.68449
G1 X108.665 Y107.949 E29.74773
G1 X107.835 Y108.755 E29.81079
G1 X106.827 Y109.333 E29.87412
G1 X105.72 Y109.649 E29.93687
G1 X104.561 Y109.682 E30.00007
G1 X103.44 Y109.437 E30.06261
G1 X102.428 Y108.934 E30.1242
G1 X101.821 Y108.441 E30.16683
G1 X101.16 Y107.717 E30.22026
G1 X100.63 Y106.728 E30.28142
M204 S3000
M205 X10 Y10
G0 F3375 X101.081 Y104.027
G0 X101.442 Y103.091
G0 X102.009 Y102.289
G0 X102.768 Y101.634
G0 X103.657 Y101.191
G0 X106.179 Y100.904
M204 S1800
M205 X8 Y8
G1 F900 X107.008 Y101.255 E30.33049
G1 X107.581 Y101.608 E30.36717
G1 X108.217 Y102.225 E30.41547
G1 X108.629 Y102.763 E30.4524
G1 X109.059 Y103.697 E30.50844
G1 X109.231 Y104.609 E30.55903
G1 X109.248 Y104.798 E30.56937
G1 X109.19 Y105.782 E30.6231
G1 X108.876 Y106.778 E30.68002
G1 X108.32 Y107.677 E30.73763
G1 X107.572 Y108.402 E30.79441
G1 X106.66 Y108.926 E30.85174
G1 X105.658 Y109.213 E30.90855
G1 X104.609 Y109.245 E30.96575
G1 X103.587 Y109.022 E31.02277
G1 X102.667 Y108.565 E31.07876
G1 X102.135 Y108.136 E31.11601
G1 X101.519 Y107.46 E31.16586
G1 X101.037 Y106.563 E31.22136
G1 X100.857 Y105.96 E31.25566
G1 X100.737 Y105.011 E31.3078
G1 X100.861 Y103.974 E31.36472
G1 X101.245 Y102.979 E31.42285
G1 X101.856 Y102.127 E31.48
G1 X102.64 Y101.449 E31.53649
G1 X103.585 Y100.978 E31.59404
G1 X104.598 Y100.756 E31.65057
G1 X105.504 Y100.782 E31.69997
G1 X106.179 Y100.904 E31.73735
M204 S3000
M205 X10 Y10
G1 F2400 E25.73735
G1 F600 Z0.375
G0 F3375 X106.248 Y100.747 Z0.375
G0 X92.592 Y92.592
M204 S1800
M205 X8 Y8
G1 F600 Z0.3
G1 F2400 E31.73735
G1 F900 X92.593 Y117.407 E33.0899
G1 X117.408 Y117.408 E34.44244
G1 X117.408 Y98.107 E35.49444
G1 X117.408 Y92.592 E35.79504
G1 X92.592 Y92.592 E37.14763
M204 S3000
M205 X10 Y10
G0 F3375 X92.155 Y92.155
M204 S1800
M205 X8 Y8
G1 F900 X92.156 Y117.844 E38.54781
G1 X117.845 Y117.845 E39.94799
G1 X117.845 Y98.107 E41.02382
G1 X117.845 Y92.155 E41.34823
G1 X92.155 Y92.155 E42.74846
M204 S3000
M205 X10 Y10
G1 F2400 E36.74846
G1 F600 Z0.375
G0 F3375 X92.767 Y92.639 Z0.375
G0 X102.906 Y108.196
M204 S1800
M205 X8 Y8
G1 F600 Z0.3
G1 F2400 E42.74846
G1 F900 X102.458 Y107.841 E42.77962
G1 X101.867 Y107.186 E42.8277
G1 X101.474 Y106.453 E42.87304
G1 X101.287 Y105.885 E42.90563
G1 X101.177 Y105.011 E42.95364
G1 X101.294 Y104.081 E43.00473
G1 X101.63 Y103.193 E43.05648
G1 X102.18 Y102.423 E43.10806
G1 X102.887 Y101.814 E43.15892
G1 X103.731 Y101.399 E43.21018
G1 X104.633 Y101.195 E43.26059
G1 X105.492 Y101.219 E43.30742
G1 X106.061 Y101.328 E43.339
G1 X106.838 Y101.657 E43.38499
G1 X107.314 Y101.957 E43.41566
G1 X107.913 Y102.539 E43.46118
G1 X108.252 Y102.989 E43.49189
G1 X108.634 Y103.829 E43.54219
G1 X108.801 Y104.684 E43.58967
G1 X108.811 Y104.798 E43.59591
G1 X108.753 Y105.717 E43.64609
G1 X108.47 Y106.594 E43.69632
G1 X107.99 Y107.38 E43.74652
G1 X107.303 Y108.047 E43.79871
G1 X106.49 Y108.52 E43.84998
G1 X105.588 Y108.773 E43.90104
G1 X104.642 Y108.806 E43.95263
G1 X103.732 Y108.601 E44.00347
G1 X102.906 Y108.196 E44.05362
M204 S3000
M205 X10 Y10
G0 F3375 X102.741 Y108.412
G0 X103.658 Y108.809
G0 X105.714 Y109.026
G0 X105.52 Y108.341
M204 S1800
M205 X8 Y8
;TYPE:WALL-OUTER
G1 F900 X104.685 Y108.367 E44.09915
G1 X103.878 Y108.189 E44.14419
G1 X103.161 Y107.835 E44.18778
G1 X102.781 Y107.547 E44.21376
G1 X102.239 Y106.951 E44.25767
G1 X101.859 Y106.247 E44.30128
G1 X101.716 Y105.798 E44.32696
G1 X101.618 Y105.01 E44.37024
G1 X101.718 Y104.187 E44.41543
G1 X102.022 Y103.4 E44.46141
G1 X102.493 Y102.734 E44.50588
G1 X103.13 Y102.183 E44.55178
G1 X103.874 Y101.81 E44.59714
G1 X104.676 Y101.634 E44.6419
G1 X105.519 Y101.66 E44.68787
G1 X105.912 Y101.744 E44.70977
G1 X106.703 Y102.078 E44.75657
G1 X107.057 Y102.317 E44.77985
G1 X107.608 Y102.852 E44.82171
G1 X107.863 Y103.2 E44.84523
G1 X108.218 Y103.963 E44.89109
G1 X108.374 Y104.798 E44.93739
G1 X108.323 Y105.62 E44.98228
G1 X108.073 Y106.412 E45.02755
G1 X107.633 Y107.123 E45.07312
G1 X107.038 Y107.701 E45.11834
G1 X106.32 Y108.114 E45.16348
G1 X105.52 Y108.341 E45.20881
M204 S3000
M205 X10 Y10
G0 F3375 X104.92 Y108.359
G1 F2400 E39.20881
G1 F600 Z0.375
G0 F3375 X104.952 Y109.41 Z0.375
G0 X91.718 Y91.718
M204 S1800
M205 X8 Y8
G1 F600 Z0.3
G1 F2400 E45.20881
G1 F900 X91.719 Y118.281 E46.65663
G1 X118.282 Y118.282 E48.10445
G1 X118.282 Y98.107 E49.20408
G1 X118.282 Y91.718 E49.55232
G1 X91.718 Y91.718 E51.00019
M204 S3000
M205 X10 Y10
G0 F3375 X91.718 Y92.318
G0 X92.4 Y92.4
G0 X93.147 Y93.373
G0 X93.373 Y93.373
M204 S1800
M205 X8 Y8
;TYPE:SKIN
G1 F900 X93.374 Y116.626 E52.2676
G1 X116.627 Y116.626 E53.535
G1 X116.627 Y98.107 E54.54438
G1 X116.627 Y93.373 E54.80241
G1 X93.373 Y93.373 E56.06987
M204 S3000
M205 X10 Y10
G1 F2400 E50.06987
G1 F600 Z0.375
G0 F3375 X93.373 Y92.81 Z0.375
G0 X106.396 Y100.148
M204 S1800
M205 X8 Y8
G1 F600 Z0.3
G1 F2400 E56.06987
G1 F900 X107.338 Y100.548 E56.12565
G1 X108.061 Y100.984 E56.17167
G1 X108.775 Y101.68 E56.22601
G1 X109.314 Y102.379 E56.27412
G1 X109.813 Y103.463 E56.33917
G1 X110.035 Y104.68 E56.40659
G1 X109.964 Y105.915 E56.47402
G1 X109.585 Y107.119 E56.54282
G1 X108.931 Y108.175 E56.61052
G1 X108.037 Y109.039 E56.67828
G1 X106.966 Y109.652 E56.74554
G1 X105.784 Y109.989 E56.81254
G1 X104.692 Y110.022 E56.87208
G1 X104.369 Y109.993 E56.88976
G1 X103.336 Y109.77 E56.94736
G1 X102.264 Y109.238 E57.01259
G1 X101.561 Y108.669 E57.06188
G1 X100.878 Y107.919 E57.11717
G1 X100.322 Y106.883 E57.18126
G1 X100.093 Y106.122 E57.22457
G1 X99.95 Y105.02 E57.28514
G1 X100.095 Y103.788 E57.35276
G1 X100.547 Y102.617 E57.42117
G1 X101.249 Y101.621 E57.48759
G1 X102.206 Y100.791 E57.55663
G1 X103.325 Y100.235 E57.62474
G1 X104.504 Y99.978 E57.69051
G1 X105.556 Y100.004 E57.74787
G1 X106.396 Y100.148 E57.79432
M204 S3000
M205 X10 Y10
G1 F2400 E51.79432
G1 F600 Z0.375
G0 F3375 X106.22 Y100.703 Z0.375
G0 X116.408 Y94.159
M204 S1800
M205 X8 Y8
G1 F600 Z0.3
G1 F2400 E57.79432
G1 F900 X115.839 Y93.591 E57.83814
M204 S3000
M205 X10 Y10
G0 F3375 X115.221 Y93.591
M204 S1800
M205 X8 Y8
G1 F900 X116.408 Y94.777 E57.9296
M204 S3000
M205 X10 Y10
G0 F3375 X116.408 Y95.395
M204 S1800
M205 X8 Y8
G1 F900 X114.603 Y93.591 E58.06869
M204 S3000
M205 X10 Y10
G0 F3375 X113.985 Y93.591
M204 S1800
M205 X8 Y8
G1 F900 X116.408 Y96.013 E58.25542
M204 S3000
M205 X10 Y10
G0 F3375 X116.408 Y96.631
M204 S1800
M205 X8 Y8
G1 F900 X113.367 Y93.591 E58.48979
M204 S3000
M205 X10 Y10
G0 F3375 X112.749 Y93.591
M204 S1800
M205 X8 Y8
G1 F900 X116.408 Y97.249 E58.77179
M204 S3000
M205 X10 Y10
G0 F3375 X116.408 Y97.867
M204 S1800
M205 X8 Y8
G1 F900 X112.131 Y93.591 E59.10143
M204 S3000
M205 X10 Y10
G0 F3375 X111.513 Y93.591
M204 S1800
M205 X8 Y8
G1 F900 X116.408 Y98.485 E59.47871
M204 S3000
M205 X10 Y10
G0 F3375 X116.408 Y99.103
M204 S1800
M205 X8 Y8
G1 F900 X110.895 Y93.591 E59.90362
M204 S3000
M205 X10 Y10
G0 F3375 X110.277 Y93.591
M204 S1800
M205 X8 Y8
G1 F900 X116.408 Y99.721 E60.37617
M204 S3000
M205 X10 Y10
G0 F3375 X116.408 Y100.339
M204 S1800
M205 X8 Y8
G1 F900 X109.659 Y93.591 E60.89636
M204 S3000
M205 X10 Y10
G0 F3375 X109.041 Y93.591
M204 S1800
M205 X8 Y8
G1 F900 X116.408 Y100.957 E61.46418
M204 S3000
M205 X10 Y10
G0 F3375 X116.408 Y101.575
M204 S1800
M205 X8 Y8
G1 F900 X108.423 Y93.591 E62.07964
M204 S3000
M205 X10 Y10
G0 F3375 X107.805 Y93.591
M204 S1800
M205 X8 Y8
G1 F900 X116.408 Y102.193 E62.74274
M204 S3000
M205 X10 Y10
G0 F3375 X116.408 Y102.811
M204 S1800
M205 X8 Y8
G1 F900 X107.187 Y93.591 E63.45347
M204 S3000
M205 X10 Y10
G0 F3375 X106.569 Y93.591
M204 S1800
M205 X8 Y8
G1 F900 X116.408 Y103.429 E64.21184
M204 S3000
M205 X10 Y10
G0 F3375 X116.408 Y104.047
M204 S1800
M205 X8 Y8
G1 F900 X105.951 Y93.591 E65.01784
M204 S3000
M205 X10 Y10
G0 F3375 X105.333 Y93.591
M204 S1800
M205 X8 Y8
G1 F900 X116.408 Y104.665 E65.87149
M204 S3000
M205 X10 Y10
G0 F3375 X116.408 Y105.283
M204 S1800
M205 X8 Y8
G1 F900 X104.715 Y93.591 E66.77276
M204 S3000
M205 X10 Y10
G0 F3375 X104.097 Y93.591
M204 S1800
M205 X8 Y8
G1 F900 X116.408 Y105.901 E67.72168
M204 S3000
M205 X10 Y10
G0 F3375 X116.408 Y106.519
M204 S1800
M205 X8 Y8
G1 F900 X103.479 Y93.591 E68.71823
M204 S3000
M205 X10 Y10
G0 F3375 X102.861 Y93.591
M204 S1800
M205 X8 Y8
