;FLAVOR:Marlin
;TIME:3120
;Filament used: 3.0564m
;Layer height: 0.24
;MINX:92.911
;MINY:35.424
;MINZ:0.3
;MAXX:117.089
;MAXY:174.575
;MAXZ:23.82
;Generated with Cura_SteamEngine 5.2.1
M140 S80
M105
M190 S80
M104 S235
M105
M109 S235
M82 ;absolute extrusion mode
G21 ;metric values
G90 ;absolute positioning
M82 ;set extruder to absolute mode
M107 ;start with the fan off
G28 X0 Y0 ;move X/Y to min endstops
G28 Z0 ;move Z to min endstops
G1 Z15.0 F150.0 ;move the platform down 15mm
G92 E0 ;zero the extruded length
G1 F200 E3 ;extrude 3mm of feed stock
G92 E0 ;zero the extruded length again
G1 F150.0
G0 Y20 F150.0
M117 Printing...
G5
G92 E0
G92 E0
G1 F2400 E-6
;LAYER_COUNT:99
;LAYER:0
M107
M204 S3000
M205 X10 Y10
G1 F600 Z0.375
G0 F3375 X93.309 Y39.598 Z0.375
M204 S1800
M205 X8 Y8
;TYPE:SKIRT
G1 F600 Z0.3
G1 F2400 E0
G1 X93.591 Y38.959 E0.03807
G1 X94.047 Y38.191 E0.08675
G1 X94.555 Y37.534 E0.13202
G1 X95.041 Y37.034 E0.17002
G1 X95.582 Y36.593 E0.20807
G1 X96.17 Y36.217 E0.24611
G1 X96.797 Y35.91 E0.28416
G1 X97.455 Y35.677 E0.3222
G1 X98.135 Y35.521 E0.36023
G1 X98.967 Y35.438 E0.4058
G1 X99.478 Y35.425 E0.43367
G1 X110.137 Y35.424 E1.01463
G1 X110.93 Y35.435 E1.05786
G1 X111.626 Y35.484 E1.09589
G1 X112.312 Y35.614 E1.13395
G1 X112.979 Y35.82 E1.172
G1 X113.617 Y36.102 E1.21002
G1 X114.22 Y36.455 E1.2481
G1 X114.777 Y36.874 E1.28609
G1 X115.284 Y37.354 E1.32414
G1 X115.946 Y38.18 E1.38184
G1 X116.38 Y38.902 E1.42776
G1 X116.668 Y39.538 E1.46581
G1 X116.882 Y40.202 E1.50383
G1 X117.019 Y40.886 E1.54186
G1 X117.074 Y41.523 E1.5767
G1 X117.089 Y42.051 E1.60549
G1 X117.088 Y167.542 E8.44539
G1 X117.077 Y168.347 E8.48927
G1 X117.028 Y169.043 E8.5273
G1 X116.899 Y169.729 E8.56534
G1 X116.693 Y170.396 E8.60339
G1 X116.412 Y171.035 E8.64144
G1 X115.988 Y171.756 E8.68703
G1 X115.492 Y172.414 E8.73194
G1 X115.01 Y172.92 E8.77003
G1 X114.474 Y173.367 E8.80807
G1 X113.891 Y173.75 E8.84609
G1 X113.267 Y174.063 E8.88414
G1 X112.612 Y174.303 E8.92216
G1 X111.934 Y174.467 E8.96018
G1 X111.033 Y174.562 E9.00957
G1 X110.522 Y174.575 E9.03743
G1 X99.776 Y174.575 E9.62314
G1 X99.07 Y174.565 E9.66162
G1 X98.374 Y174.516 E9.69965
G1 X97.688 Y174.386 E9.73771
G1 X97.021 Y174.18 E9.77576
G1 X96.383 Y173.898 E9.81378
G1 X95.78 Y173.545 E9.85186
G1 X95.223 Y173.126 E9.88985
G1 X94.716 Y172.646 E9.9279
G1 X94.032 Y171.787 E9.98775
G1 X93.601 Y171.059 E10.03387
G1 X93.317 Y170.421 E10.07193
G1 X93.108 Y169.756 E10.10992
G1 X92.976 Y169.07 E10.148
G1 X92.926 Y168.476 E10.18049
G1 X92.911 Y167.949 E10.20923
G1 X92.912 Y42.408 E17.05185
G1 X92.923 Y41.646 E17.09338
G1 X92.973 Y40.95 E17.13142
G1 X93.102 Y40.264 E17.16946
G1 X93.309 Y39.598 E17.20747
M204 S3000
M205 X10 Y10
G0 F3375 X93.744 Y39.682
M204 S1800
M205 X8 Y8
G1 F2400 X94.025 Y39.071 E17.24413
G1 X94.416 Y38.427 E17.28519
G1 X94.901 Y37.802 E17.32831
G1 X95.373 Y37.323 E17.36497
G1 X95.899 Y36.904 E17.40162
G1 X96.47 Y36.55 E17.43824
G1 X97.08 Y36.267 E17.47489
G1 X97.719 Y36.058 E17.51154
G1 X98.378 Y35.926 E17.54817
G1 X99.134 Y35.862 E17.58952
G1 X110.137 Y35.861 E18.18924
G1 X110.924 Y35.872 E18.23214
G1 X111.595 Y35.921 E18.26881
G1 X112.255 Y36.05 E18.30546
G1 X112.895 Y36.256 E18.34211
G1 X113.506 Y36.536 E18.37874
G1 X114.079 Y36.888 E18.4154
G1 X114.607 Y37.304 E18.45203
G1 X115.081 Y37.781 E18.48869
G1 X115.594 Y38.439 E18.53416
G1 X116.004 Y39.127 E18.57782
G1 X116.278 Y39.741 E18.61446
G1 X116.477 Y40.383 E18.6511
G1 X116.629 Y41.208 E18.69682
G1 X116.652 Y42.051 E18.74279
G1 X116.651 Y167.536 E25.58235
G1 X116.64 Y168.341 E25.62623
G1 X116.591 Y169.012 E25.6629
G1 X116.463 Y169.672 E25.69955
G1 X116.257 Y170.312 E25.73619
G1 X115.977 Y170.923 E25.77283
G1 X115.618 Y171.525 E25.81103
G1 X115.142 Y172.15 E25.85385
G1 X114.676 Y172.634 E25.89047
G1 X114.155 Y173.059 E25.92712
G1 X113.587 Y173.42 E25.9638
G1 X112.98 Y173.71 E26.00047
G1 X112.344 Y173.926 E26.03708
G1 X111.686 Y174.065 E26.07373
G1 X110.876 Y174.138 E26.11806
G1 X99.782 Y174.138 E26.72274
G1 X99.076 Y174.128 E26.76122
G1 X98.405 Y174.079 E26.79789
G1 X97.745 Y173.95 E26.83455
G1 X97.105 Y173.744 E26.87119
G1 X96.494 Y173.464 E26.90783
G1 X95.921 Y173.112 E26.94448
G1 X95.393 Y172.696 E26.98112
G1 X94.919 Y172.219 E27.01777
G1 X94.387 Y171.532 E27.06513
G1 X93.978 Y170.836 E27.10913
G1 X93.709 Y170.22 E27.14577
G1 X93.514 Y169.577 E27.18239
G1 X93.37 Y168.764 E27.22739
G1 X93.348 Y167.949 E27.27183
G1 X93.349 Y42.414 E34.11412
G1 X93.36 Y41.652 E34.15566
G1 X93.409 Y40.982 E34.19227
G1 X93.538 Y40.322 E34.22893
G1 X93.744 Y39.682 E34.26557
M204 S3000
M205 X10 Y10
G0 F3375 X94.18 Y39.77
M204 S1800
M205 X8 Y8
G1 F2400 X94.46 Y39.187 E34.30083
G1 X94.849 Y38.58 E34.34012
G1 X95.246 Y38.071 E34.3753
G1 X95.703 Y37.614 E34.41053
G1 X96.213 Y37.218 E34.44572
G1 X96.768 Y36.887 E34.48095
G1 X97.359 Y36.628 E34.51612
G1 X97.978 Y36.444 E34.55131
G1 X98.615 Y36.337 E34.58652
G1 X99.317 Y36.301 E34.62483
G1 X110.138 Y36.298 E35.21463
G1 X110.918 Y36.309 E35.25715
G1 X111.562 Y36.358 E35.29235
G1 X112.195 Y36.486 E35.32755
G1 X112.807 Y36.691 E35.36273
G1 X113.389 Y36.971 E35.39793
G1 X113.933 Y37.32 E35.43316
G1 X114.429 Y37.734 E35.46838
G1 X114.87 Y38.206 E35.50358
G1 X115.298 Y38.796 E35.54331
G1 X115.628 Y39.351 E35.57851
G1 X115.887 Y39.943 E35.61373
G1 X116.071 Y40.562 E35.64892
G1 X116.177 Y41.199 E35.68412
G1 X116.215 Y42.051 E35.73061
G1 X116.215 Y167.53 E42.56984
G1 X116.204 Y168.335 E42.61372
G1 X116.155 Y168.979 E42.64893
G1 X116.027 Y169.612 E42.68413
G1 X115.822 Y170.225 E42.71936
G1 X115.542 Y170.807 E42.75456
G1 X115.185 Y171.372 E42.79099
G1 X114.794 Y171.886 E42.82619
G1 X114.342 Y172.347 E42.86138
G1 X113.837 Y172.749 E42.89656
G1 X113.285 Y173.086 E42.93181
G1 X112.697 Y173.352 E42.96698
G1 X112.08 Y173.543 E43.00219
G1 X111.444 Y173.657 E43.03741
G1 X110.521 Y173.701 E43.08777
G1 X99.788 Y173.701 E43.67277
G1 X99.082 Y173.691 E43.71126
G1 X98.438 Y173.642 E43.74646
G1 X97.805 Y173.514 E43.78166
G1 X97.193 Y173.309 E43.81684
G1 X96.611 Y173.029 E43.85204
G1 X96.067 Y172.68 E43.88727
G1 X95.571 Y172.266 E43.92249
G1 X95.13 Y171.794 E43.95769
G1 X94.739 Y171.269 E43.99337
G1 X94.356 Y170.615 E44.03468
G1 X94.101 Y170.021 E44.06991
G1 X93.922 Y169.401 E44.10509
G1 X93.785 Y168.337 E44.16356
G1 X93.786 Y42.421 E51.02662
G1 X93.797 Y41.659 E51.06815
G1 X93.846 Y41.015 E51.10336
G1 X93.974 Y40.382 E51.13856
G1 X94.18 Y39.77 E51.17375
M204 S3000
M205 X10 Y10
G1 F2400 E45.17375
G1 F600 Z0.375
;MESH:LRS-350 v6.stl
G0 F3375 X106.014 Y85.008 Z0.375
M204 S1800
M205 X8 Y8
;TYPE:WALL-INNER
G1 F600 Z0.3
G1 F2400 E51.17375
G1 F900 X105.628 Y85.111 E51.19553
G1 X105 Y85.179 E51.22996
G1 X104.372 Y85.111 E51.26439
G1 X103.986 Y85.008 E51.28616
G1 X103.589 Y84.844 E51.30957
G1 X103.241 Y84.643 E51.33148
G1 X102.9 Y84.381 E51.35492
G1 X102.619 Y84.1 E51.37658
G1 X102.357 Y83.759 E51.40002
G1 X102.156 Y83.412 E51.42187
G1 X101.899 Y82.694 E51.46344
G1 X101.815 Y82.059 E51.49835
G1 X101.889 Y81.372 E51.53601
G1 X101.992 Y80.985 E51.55784
G1 X102.156 Y80.588 E51.58125
G1 X102.357 Y80.241 E51.60311
G1 X102.619 Y79.9 E51.62655
G1 X102.9 Y79.619 E51.64821
G1 X103.241 Y79.357 E51.67165
G1 X103.589 Y79.156 E51.69355
G1 X103.986 Y78.992 E51.71696
G1 X104.372 Y78.889 E51.73874
G1 X105 Y78.821 E51.77317
G1 X105.628 Y78.889 E51.8076
G1 X106.014 Y78.992 E51.82937
G1 X106.412 Y79.156 E51.85284
G1 X106.76 Y79.357 E51.87474
G1 X107.1 Y79.619 E51.89814
G1 X107.381 Y79.9 E51.9198
G1 X107.643 Y80.241 E51.94323
G1 X107.844 Y80.589 E51.96514
G1 X108.008 Y80.985 E51.9885
G1 X108.11 Y81.372 E52.01031
G1 X108.187 Y82.059 E52.04799
G1 X108.102 Y82.695 E52.08297
G1 X107.844 Y83.411 E52.12445
G1 X107.643 Y83.759 E52.14635
G1 X107.381 Y84.1 E52.16979
G1 X107.1 Y84.381 E52.19145
G1 X106.759 Y84.643 E52.21489
G1 X106.412 Y84.844 E52.23675
G1 X106.014 Y85.008 E52.26021
M204 S3000
M205 X10 Y10
G1 F2400 E46.26021
G1 F600 Z0.375
G0 F3375 X105.957 Y84.794 Z0.375
G0 X103.986 Y131.008
M204 S1800
M205 X8 Y8
G1 F600 Z0.3
G1 F2400 E52.26021
G1 F900 X103.588 Y130.844 E52.28367
G1 X103.241 Y130.643 E52.30553
G1 X102.9 Y130.382 E52.32894
G1 X102.619 Y130.1 E52.35063
G1 X102.357 Y129.759 E52.37407
G1 X102.156 Y129.411 E52.39598
G1 X101.899 Y128.694 E52.43749
G1 X101.815 Y128.059 E52.4724
G1 X101.889 Y127.372 E52.51007
G1 X101.992 Y126.985 E52.53189
G1 X102.156 Y126.589 E52.55525
G1 X102.357 Y126.241 E52.57716
G1 X102.619 Y125.9 E52.6006
G1 X102.9 Y125.618 E52.6223
G1 X103.241 Y125.357 E52.6457
G1 X103.588 Y125.156 E52.66756
G1 X103.986 Y124.992 E52.69102
G1 X104.372 Y124.889 E52.7128
G1 X105 Y124.82 E52.74723
G1 X105.628 Y124.889 E52.78167
G1 X106.014 Y124.992 E52.80344
G1 X106.411 Y125.156 E52.82685
G1 X106.759 Y125.357 E52.84876
G1 X107.1 Y125.619 E52.8722
G1 X107.382 Y125.899 E52.89386
G1 X107.644 Y126.24 E52.9173
G1 X107.844 Y126.589 E52.93922
G1 X108.009 Y126.985 E52.9626
G1 X108.111 Y127.372 E52.98442
G1 X108.181 Y128 E53.01886
G1 X108.167 Y128.198 E53.02968
G1 X108.103 Y128.695 E53.05699
G1 X107.844 Y129.411 E53.09849
G1 X107.644 Y129.76 E53.12041
G1 X107.382 Y130.101 E53.14385
G1 X107.1 Y130.381 E53.16551
G1 X106.759 Y130.643 E53.18895
G1 X106.411 Y130.844 E53.21086
G1 X106.014 Y131.008 E53.23427
G1 X105.628 Y131.111 E53.25604
G1 X105 Y131.18 E53.29048
G1 X104.372 Y131.111 E53.32491
G1 X103.986 Y131.008 E53.34669
M204 S3000
M205 X10 Y10
G1 F2400 E47.34669
G1 F600 Z0.375
G0 F3375 X104.045 Y130.795 Z0.375
G0 X100.531 Y166.954
M204 S1800
M205 X8 Y8
G1 F600 Z0.3
G1 F2400 E53.34669
G1 F900 X109.467 Y166.953 E53.83375
G1 X109.468 Y43.047 E60.58725
G1 X100.533 Y43.047 E61.07425
G1 X100.531 Y166.954 E67.82781
M204 S3000
M205 X10 Y10
G0 F3375 X100.094 Y167.391
M204 S1800
M205 X8 Y8
G1 F900 X109.904 Y167.39 E68.3625
G1 X109.905 Y42.61 E75.16364
G1 X100.096 Y42.61 E75.69828
G1 X100.094 Y167.391 E82.49948
M204 S3000
M205 X10 Y10
G1 F2400 E76.49948
G1 F600 Z0.375
G0 F3375 X100.269 Y167.215 Z0.375
G0 X102.396 Y127.152
M204 S1800
M205 X8 Y8
G1 F600 Z0.3
G1 F2400 E82.49948
G1 F900 X102.703 Y126.507 E82.53841
G1 X103.166 Y125.965 E82.57726
G1 X103.755 Y125.56 E82.61622
G1 X104.428 Y125.323 E82.65511
G1 X105 Y125.257 E82.6865
G1 X105.572 Y125.322 E82.71788
G1 X106.244 Y125.56 E82.75673
G1 X106.493 Y125.704 E82.77241
G1 X107.035 Y126.166 E82.81123
G1 X107.297 Y126.507 E82.83467
G1 X107.604 Y127.152 E82.8736
G1 X107.678 Y127.429 E82.88923
G1 X107.744 Y128 E82.92056
G1 X107.672 Y128.619 E82.95452
G1 X107.44 Y129.244 E82.99086
G1 X107.035 Y129.834 E83.02987
G1 X106.493 Y130.296 E83.06868
G1 X106.244 Y130.44 E83.08436
G1 X105.572 Y130.678 E83.12322
G1 X105 Y130.743 E83.1546
G1 X104.428 Y130.677 E83.18598
G1 X103.755 Y130.44 E83.22487
G1 X103.166 Y130.035 E83.26383
G1 X102.703 Y129.493 E83.30268
G1 X102.56 Y129.244 E83.31833
G1 X102.33 Y128.619 E83.35463
G1 X102.258 Y128 E83.3886
G1 X102.322 Y127.428 E83.41997
G1 X102.396 Y127.152 E83.43555
M204 S3000
M205 X10 Y10
G1 F2400 E77.43555
G1 F600 Z0.375
G0 F3375 X102.237 Y127.086 Z0.375
G0 X106.245 Y84.44
M204 S1800
M205 X8 Y8
G1 F600 Z0.3
G1 F2400 E83.43555
G1 F900 X105.572 Y84.677 E83.47444
G1 X105 Y84.742 E83.50581
G1 X104.428 Y84.677 E83.53719
G1 X103.756 Y84.44 E83.57603
G1 X103.507 Y84.296 E83.59171
G1 X102.965 Y83.834 E83.63053
G1 X102.56 Y83.245 E83.66949
G1 X102.33 Y82.619 E83.70584
G1 X102.258 Y82 E83.7398
G1 X102.322 Y81.429 E83.77112
G1 X102.56 Y80.755 E83.81008
G1 X102.965 Y80.166 E83.84904
G1 X103.507 Y79.704 E83.88786
G1 X103.756 Y79.56 E83.90353
G1 X104.428 Y79.323 E83.94237
G1 X105 Y79.258 E83.97375
G1 X105.572 Y79.323 E84.00513
G1 X106.245 Y79.56 E84.04402
G1 X106.493 Y79.703 E84.05962
G1 X107.035 Y80.166 E84.09847
G1 X107.297 Y80.507 E84.12191
G1 X107.604 Y81.152 E84.16085
G1 X107.677 Y81.428 E84.17641
G1 X107.743 Y82 E84.20779
G1 X107.671 Y82.619 E84.24176
G1 X107.44 Y83.244 E84.27808
G1 X107.297 Y83.493 E84.29373
G1 X106.834 Y84.035 E84.33258
G1 X106.245 Y84.44 E84.37154
M204 S3000
M205 X10 Y10
G0 F3375 X105 Y84.527
G0 X103.608 Y84.165
G0 X103.773 Y83.95
M204 S1800
M205 X8 Y8
G1 F900 X103.312 Y83.568 E84.40417
G1 X102.964 Y83.078 E84.43693
G1 X102.76 Y82.544 E84.46809
G1 X102.7 Y82.085 E84.49332
G1 X102.764 Y81.397 E84.53098
G1 X103.05 Y80.773 E84.56839
G1 X103.432 Y80.312 E84.60103
G1 X103.922 Y79.964 E84.63378
G1 X104.485 Y79.756 E84.6665
G1 X105.085 Y79.7 E84.69934
G1 X105.515 Y79.756 E84.72298
G1 X105.681 Y79.8 E84.73234
G1 X106.227 Y80.05 E84.76507
G1 X106.688 Y80.432 E84.7977
G1 X107.036 Y80.922 E84.83046
G1 X107.244 Y81.485 E84.86317
G1 X107.306 Y82 E84.89145
G1 X107.24 Y82.544 E84.92131
G1 X107.036 Y83.078 E84.95247
G1 X106.688 Y83.568 E84.98523
G1 X106.158 Y84.007 E85.02274
G1 X105.515 Y84.244 E85.06009
G1 X104.915 Y84.3 E85.09294
G1 X104.319 Y84.2 E85.12587
G1 X103.773 Y83.95 E85.15861
M204 S3000
M205 X10 Y10
G1 F2400 E79.15861
G1 F600 Z0.375
G0 F3375 X103.403 Y84.433 Z0.375
G0 X107.004 Y129.162
M204 S1800
M205 X8 Y8
G1 F600 Z0.3
G1 F2400 E85.15861
G1 F900 X106.568 Y129.688 E85.19584
G1 X106.078 Y130.036 E85.2286
G1 X105.515 Y130.244 E85.26132
G1 X105 Y130.306 E85.28959
G1 X104.39 Y130.233 E85.32307
G1 X103.773 Y129.95 E85.36007
G1 X103.312 Y129.568 E85.3927
G1 X102.964 Y129.078 E85.42546
G1 X102.76 Y128.544 E85.45662
G1 X102.7 Y128.085 E85.48185
G1 X102.764 Y127.397 E85.51951
G1 X103.05 Y126.773 E85.55692
G1 X103.432 Y126.312 E85.58956
G1 X103.922 Y125.964 E85.62231
G1 X104.485 Y125.756 E85.65503
G1 X105 Y125.694 E85.6833
G1 X105.61 Y125.767 E85.71679
G1 X106.227 Y126.05 E85.75378
G1 X106.688 Y126.432 E85.78642
G1 X107.036 Y126.922 E85.81917
G1 X107.244 Y127.485 E85.85189
G1 X107.306 Y128 E85.88016
G1 X107.241 Y128.544 E85.91002
G1 X107.004 Y129.162 E85.9461
M204 S3000
M205 X10 Y10
G1 F2400 E79.9461
G1 F600 Z0.375
G0 F3375 X107.484 Y129.53 Z0.375
G0 X99.657 Y167.828
M204 S1800
M205 X8 Y8
G1 F600 Z0.3
G1 F2400 E85.9461
G1 F900 X110.341 Y167.827 E86.52843
G1 X110.342 Y42.173 E93.37721
G1 X99.659 Y42.173 E93.95948
G1 X99.657 Y167.828 E100.80832
M204 S3000
M205 X10 Y10
G0 F3375 X99.267 Y168.265
M204 S1800
M205 X8 Y8
;TYPE:WALL-OUTER
G1 F900 X110.733 Y168.263 E101.43327
G1 X110.778 Y168.149 E101.43995
G1 X110.779 Y41.873 E108.32263
G1 X110.733 Y41.735 E108.33056
G1 X99.266 Y41.736 E108.95557
G1 X99.222 Y41.851 E108.96228
G1 X99.22 Y168.144 E115.84589
G1 X99.267 Y168.265 E115.85296
M204 S3000
M205 X10 Y10
G0 F3375 X99.867 Y168.265
G1 F2400 E109.85296
G1 F600 Z0.375
G0 F3375 X100.269 Y167.215 Z0.375
G0 X103.133 Y127.971
M204 S1800
M205 X8 Y8
G1 F600 Z0.3
G1 F2400 E115.85296
G1 F900 X103.189 Y127.541 E115.8766
G1 X103.368 Y127.089 E115.90309
G1 X103.699 Y126.659 E115.93267
G1 X104.089 Y126.368 E115.95919
G1 X104.541 Y126.189 E115.98569
G1 X105 Y126.131 E116.01091
G1 X105.459 Y126.189 E116.03612
G1 X105.911 Y126.368 E116.06262
G1 X106.341 Y126.699 E116.0922
G1 X106.632 Y127.089 E116.11872
G1 X106.811 Y127.541 E116.14522
G1 X106.869 Y128 E116.17044
G1 X106.81 Y128.468 E116.19615
G1 X106.632 Y128.911 E116.22217
G1 X106.301 Y129.341 E116.25174
G1 X105.911 Y129.632 E116.27827
G1 X105.459 Y129.811 E116.30476
G1 X105 Y129.869 E116.32998
G1 X104.541 Y129.811 E116.3552
G1 X104.089 Y129.632 E116.3817
G1 X103.659 Y129.301 E116.41127
G1 X103.368 Y128.911 E116.43779
G1 X103.189 Y128.459 E116.46429
G1 X103.133 Y127.971 E116.49107
M204 S3000
M205 X10 Y10
G0 F3375 X103.189 Y127.541
G0 X103.25 Y127.386
G1 F2400 E110.49107
G1 F600 Z0.375
G0 F3375 X102.28 Y126.983 Z0.375
G0 X103.133 Y81.971
M204 S1800
M205 X8 Y8
G1 F600 Z0.3
G1 F2400 E116.49107
G1 F900 X103.189 Y81.541 E116.5147
G1 X103.368 Y81.089 E116.5412
