;FLAVOR:Marlin
;TIME:1721
;Filament used: 2.053m
;Layer height: 0.24
;MINX:88.856
;MINY:69.757
;MINZ:0.3
;MAXX:121.143
;MAXY:141.843
;MAXZ:7.98
;Generated with Cura_SteamEngine 5.2.1
M140 S80
M105
M190 S80
M104 S235
M105
M109 S235
M82 ;absolute extrusion mode
G21 ;metric values
G90 ;absolute positioning
M82 ;set extruder to absolute mode
M107 ;start with the fan off
G28 X0 Y0 ;move X/Y to min endstops
G28 Z0 ;move Z to min endstops
G1 Z15.0 F150.0 ;move the platform down 15mm
G92 E0 ;zero the extruded length
G1 F200 E3 ;extrude 3mm of feed stock
G92 E0 ;zero the extruded length again
G1 F150.0
G0 Y20 F150.0
M117 Printing...
G5
G92 E0
G92 E0
G1 F2400 E-6
;LAYER_COUNT:33
;LAYER:0
M107
M204 S3000
M205 X10 Y10
G1 F600 Z0.375
G0 F3375 X97.56 Y73.626 Z0.375
M204 S1800
M205 X8 Y8
;TYPE:SKIRT
G1 F600 Z0.3
G1 F2400 E0
G1 X98.147 Y72.895 E0.0511
G1 X99.095 Y71.943 E0.12433
G1 X99.565 Y71.487 E0.16002
G1 X100.093 Y71.03 E0.19808
G1 X100.67 Y70.637 E0.23613
G1 X101.288 Y70.313 E0.27417
G1 X101.938 Y70.061 E0.31216
G1 X102.614 Y69.885 E0.35024
G1 X103.414 Y69.773 E0.39427
G1 X104.366 Y69.757 E0.44616
G1 X114.28 Y69.758 E0.98652
G1 X114.982 Y69.768 E1.02479
G1 X115.678 Y69.818 E1.06282
G1 X116.364 Y69.947 E1.10087
G1 X117.03 Y70.153 E1.13887
G1 X117.669 Y70.435 E1.17694
G1 X118.271 Y70.788 E1.21497
G1 X118.829 Y71.207 E1.25301
G1 X119.335 Y71.687 E1.29102
G1 X119.934 Y72.419 E1.34258
G1 X120.377 Y73.125 E1.388
G1 X120.678 Y73.755 E1.42606
G1 X120.906 Y74.415 E1.46412
G1 X121.056 Y75.096 E1.50213
G1 X121.132 Y75.948 E1.54875
G1 X121.143 Y76.589 E1.58369
G1 X121.142 Y133.281 E4.67369
G1 X121.132 Y134.017 E4.71381
G1 X121.083 Y134.713 E4.75184
G1 X120.954 Y135.399 E4.78989
G1 X120.748 Y136.066 E4.82794
G1 X120.467 Y136.704 E4.86593
G1 X119.975 Y137.523 E4.91801
G1 X119.458 Y138.179 E4.96353
G1 X118.966 Y138.674 E5.00157
G1 X118.421 Y139.11 E5.03962
G1 X117.83 Y139.48 E5.07762
G1 X117.2 Y139.781 E5.11568
G1 X116.539 Y140.007 E5.15375
G1 X115.972 Y140.137 E5.18546
G1 X114.854 Y140.338 E5.24737
G1 X112.177 Y140.856 E5.39599
G1 X109.517 Y141.45 E5.54454
G1 X108.596 Y141.668 E5.59613
G1 X107.909 Y141.79 E5.63416
G1 X107.298 Y141.832 E5.66754
G1 X106.628 Y141.843 E5.70406
G1 X104.983 Y141.843 E5.79373
G1 X104.318 Y141.833 E5.82998
G1 X103.622 Y141.783 E5.86801
G1 X102.937 Y141.653 E5.90601
G1 X102.27 Y141.446 E5.94408
G1 X101.632 Y141.164 E5.9821
G1 X101.03 Y140.811 E6.02013
G1 X100.206 Y140.165 E6.0772
G1 X98.66 Y138.624 E6.19618
G1 X98.011 Y137.948 E6.24726
G1 X96.301 Y136.034 E6.38715
G1 X94.469 Y134.094 E6.53258
G1 X92.609 Y132.234 E6.67596
G1 X92.177 Y131.822 E6.70849
G1 X91.163 Y130.827 E6.78593
G1 X90.584 Y130.232 E6.83118
G1 X90.127 Y129.704 E6.86924
G1 X89.735 Y129.127 E6.90726
G1 X89.41 Y128.509 E6.94532
G1 X89.159 Y127.858 E6.98335
G1 X88.984 Y127.183 E7.02135
G1 X88.872 Y126.383 E7.06538
G1 X88.856 Y125.439 E7.11684
G1 X88.858 Y123.685 E7.21244
G1 X88.868 Y123.015 E7.24897
G1 X88.918 Y122.319 E7.287
G1 X89.005 Y121.817 E7.31477
G1 X89.228 Y120.787 E7.37221
G1 X89.401 Y120.036 E7.41422
G1 X89.923 Y117.446 E7.55822
G1 X90.38 Y114.792 E7.70501
G1 X90.749 Y112.218 E7.84674
G1 X91.053 Y109.556 E7.99277
G1 X91.282 Y106.896 E8.13829
G1 X91.435 Y104.234 E8.28363
G1 X91.511 Y101.616 E8.42638
G1 X91.513 Y98.954 E8.57147
G1 X91.439 Y96.291 E8.71668
G1 X91.292 Y93.641 E8.86134
G1 X90.971 Y90.037 E9.05855
G1 X90.91 Y89.47 E9.08963
G1 X90.876 Y88.93 E9.11912
G1 X90.857 Y87.85 E9.178
G1 X90.857 Y85.177 E9.32369
G1 X90.867 Y84.515 E9.35978
G1 X90.917 Y83.819 E9.39781
G1 X91.047 Y83.133 E9.43587
G1 X91.254 Y82.467 E9.47388
G1 X91.536 Y81.829 E9.5119
G1 X91.96 Y81.108 E9.55749
G1 X92.507 Y80.41 E9.60582
G1 X93.587 Y79.071 E9.69959
G1 X95.211 Y76.935 E9.84584
G1 X96.771 Y74.758 E9.99181
G1 X97.56 Y73.626 E10.06702
M204 S3000
M205 X10 Y10
G0 F3375 X97.919 Y73.876
M204 S1800
M205 X8 Y8
G1 F2400 X98.473 Y73.186 E10.11525
G1 X99.329 Y72.326 E10.18139
G1 X99.87 Y71.801 E10.22248
G1 X100.379 Y71.362 E10.25911
G1 X100.937 Y70.987 E10.29576
G1 X101.536 Y70.681 E10.33242
G1 X102.166 Y70.447 E10.36905
G1 X102.82 Y70.291 E10.4057
G1 X103.707 Y70.205 E10.45427
G1 X104.366 Y70.194 E10.49019
G1 X114.193 Y70.194 E11.02581
G1 X114.976 Y70.205 E11.0685
G1 X115.646 Y70.254 E11.10511
G1 X116.306 Y70.383 E11.14177
G1 X116.946 Y70.589 E11.17841
G1 X117.557 Y70.87 E11.21507
G1 X118.13 Y71.221 E11.25169
G1 X118.658 Y71.637 E11.28833
G1 X119.133 Y72.114 E11.32502
G1 X119.588 Y72.687 E11.3649
G1 X120.006 Y73.357 E11.40794
G1 X120.292 Y73.966 E11.44462
G1 X120.504 Y74.604 E11.48126
G1 X120.639 Y75.263 E11.51792
G1 X120.695 Y75.956 E11.55582
G1 X120.706 Y76.589 E11.59033
G1 X120.705 Y133.275 E14.68
G1 X120.695 Y134.011 E14.72012
G1 X120.646 Y134.681 E14.75674
G1 X120.518 Y135.341 E14.79338
G1 X120.312 Y135.982 E14.83008
G1 X120.032 Y136.593 E14.86671
G1 X119.611 Y137.281 E14.91067
G1 X119.114 Y137.908 E14.95428
G1 X118.637 Y138.382 E14.99093
G1 X118.108 Y138.796 E15.02755
G1 X117.533 Y139.144 E15.06418
G1 X116.92 Y139.421 E15.10084
G1 X116.177 Y139.656 E15.14332
G1 X114.766 Y139.91 E15.22146
G1 X112.064 Y140.433 E15.37147
G1 X109.461 Y141.014 E15.51684
G1 X108.496 Y141.243 E15.57089
G1 X107.833 Y141.359 E15.60758
G1 X107.29 Y141.395 E15.63724
G1 X106.628 Y141.406 E15.67333
G1 X104.99 Y141.406 E15.76261
G1 X104.325 Y141.396 E15.79886
G1 X103.654 Y141.346 E15.83553
G1 X102.995 Y141.217 E15.87213
G1 X102.355 Y141.01 E15.9088
G1 X101.744 Y140.729 E15.94545
G1 X101.171 Y140.378 E15.98208
G1 X100.488 Y139.83 E16.0298
G1 X98.973 Y138.319 E16.14643
G1 X98.337 Y137.657 E16.19647
G1 X96.636 Y135.753 E16.33563
G1 X94.768 Y133.776 E16.48387
G1 X92.93 Y131.937 E16.62559
G1 X92.547 Y131.573 E16.65439
G1 X91.368 Y130.414 E16.7445
G1 X90.897 Y129.928 E16.78139
G1 X90.459 Y129.418 E16.81803
G1 X90.084 Y128.86 E16.85467
G1 X89.778 Y128.261 E16.89134
G1 X89.546 Y127.631 E16.92793
G1 X89.389 Y126.977 E16.96459
G1 X89.304 Y126.095 E17.01288
G1 X89.293 Y125.44 E17.04859
G1 X89.295 Y123.692 E17.14386
G1 X89.305 Y123.022 E17.18039
G1 X89.365 Y122.221 E17.22417
G1 X89.654 Y120.885 E17.29867
G1 X89.832 Y120.114 E17.3418
G1 X90.352 Y117.534 E17.48525
G1 X90.807 Y114.891 E17.63143
G1 X91.188 Y112.227 E17.77811
G1 X91.488 Y109.603 E17.92206
G1 X91.715 Y106.96 E18.06665
G1 X91.87 Y104.271 E18.21345
G1 X91.948 Y101.594 E18.35943
G1 X91.95 Y98.942 E18.50397
G1 X91.876 Y96.255 E18.65048
G1 X91.73 Y93.637 E18.7934
G1 X91.401 Y89.941 E18.99565
G1 X91.345 Y89.423 E19.02404
G1 X91.313 Y88.922 E19.05141
G1 X91.294 Y87.85 E19.10985
G1 X91.294 Y85.184 E19.25516
G1 X91.304 Y84.522 E19.29124
G1 X91.354 Y83.851 E19.32792
G1 X91.483 Y83.191 E19.36457
G1 X91.69 Y82.551 E19.40123
G1 X91.971 Y81.941 E19.43784
G1 X92.507 Y81.118 E19.49137
G1 X92.901 Y80.617 E19.52611
G1 X93.934 Y79.336 E19.61581
G1 X95.557 Y77.203 E19.76189
G1 X97.172 Y74.948 E19.91307
G1 X97.919 Y73.876 E19.98429
M204 S3000
M205 X10 Y10
G0 F3375 X98.277 Y74.126
M204 S1800
M205 X8 Y8
G1 F2400 X98.792 Y73.485 E20.02911
G1 X99.704 Y72.57 E20.09952
G1 X100.174 Y72.114 E20.13521
G1 X100.664 Y71.694 E20.17039
G1 X101.203 Y71.338 E20.2056
G1 X101.781 Y71.051 E20.24077
G1 X102.391 Y70.837 E20.27601
G1 X103.022 Y70.7 E20.3112
G1 X103.714 Y70.642 E20.34905
G1 X104.366 Y70.631 E20.38459
G1 X114.193 Y70.631 E20.92021
G1 X114.969 Y70.642 E20.96251
G1 X115.613 Y70.691 E20.99772
G1 X116.246 Y70.819 E21.03292
G1 X116.859 Y71.024 E21.06815
G1 X117.441 Y71.304 E21.10335
G1 X117.984 Y71.653 E21.13853
G1 X118.48 Y72.067 E21.17374
G1 X118.921 Y72.539 E21.20895
G1 X119.294 Y73.04 E21.243
G1 X119.635 Y73.589 E21.27822
G1 X119.905 Y74.175 E21.31339
G1 X120.101 Y74.791 E21.34862
G1 X120.22 Y75.426 E21.38384
G1 X120.258 Y75.965 E21.41329
G1 X120.269 Y76.589 E21.4473
G1 X120.269 Y133.269 E24.53665
G1 X120.259 Y134.005 E24.57677
G1 X120.21 Y134.649 E24.61197
G1 X120.082 Y135.282 E24.64717
G1 X119.877 Y135.894 E24.68235
G1 X119.598 Y136.477 E24.71758
G1 X119.244 Y137.042 E24.75392
G1 X118.771 Y137.636 E24.79531
G1 X118.31 Y138.087 E24.83046
G1 X117.796 Y138.479 E24.86569
G1 X117.238 Y138.804 E24.90089
G1 X116.644 Y139.057 E24.93608
G1 X115.817 Y139.277 E24.98272
G1 X114.696 Y139.478 E25.0448
G1 X111.992 Y140.002 E25.19492
G1 X109.335 Y140.595 E25.3433
G1 X108.395 Y140.818 E25.39596
G1 X107.617 Y140.952 E25.43899
G1 X106.627 Y140.969 E25.49296
G1 X104.997 Y140.969 E25.5818
G1 X104.332 Y140.959 E25.61805
G1 X103.688 Y140.91 E25.65325
G1 X103.055 Y140.781 E25.68846
G1 X102.443 Y140.575 E25.72366
G1 X101.861 Y140.295 E25.75886
G1 X101.318 Y139.945 E25.79407
G1 X100.777 Y139.501 E25.83222
G1 X99.287 Y138.015 E25.94692
G1 X98.663 Y137.366 E25.99599
G1 X96.953 Y135.452 E26.13588
G1 X95.086 Y133.476 E26.28405
G1 X93.231 Y131.62 E26.42708
G1 X92.848 Y131.256 E26.45588
G1 X91.682 Y130.11 E26.54499
G1 X91.211 Y129.624 E26.58188
G1 X90.791 Y129.133 E26.61709
G1 X90.435 Y128.595 E26.65226
G1 X90.148 Y128.016 E26.68748
G1 X89.935 Y127.406 E26.7227
G1 X89.799 Y126.775 E26.75788
G1 X89.741 Y126.087 E26.79551
G1 X89.73 Y125.44 E26.83078
G1 X89.732 Y123.698 E26.92573
G1 X89.742 Y123.028 E26.96225
G1 X89.799 Y122.279 E27.00319
G1 X90.08 Y120.983 E27.07547
G1 X90.254 Y120.227 E27.11776
G1 X90.786 Y117.588 E27.26449
G1 X91.24 Y114.955 E27.41012
G1 X91.62 Y112.302 E27.5562
G1 X91.922 Y109.657 E27.7013
G1 X92.154 Y106.951 E27.84933
G1 X92.307 Y104.308 E27.99363
G1 X92.385 Y101.607 E28.14091
G1 X92.387 Y98.931 E28.28676
G1 X92.313 Y96.255 E28.43267
G1 X92.164 Y93.573 E28.57908
G1 X91.846 Y89.998 E28.77471
G1 X91.754 Y89.145 E28.82147
G1 X91.731 Y87.85 E28.89206
G1 X91.731 Y85.19 E29.03705
G1 X91.741 Y84.528 E29.07313
G1 X91.79 Y83.884 E29.10834
G1 X91.919 Y83.251 E29.14355
G1 X92.125 Y82.639 E29.17874
G1 X92.405 Y82.057 E29.21395
G1 X92.851 Y81.388 E29.25777
G1 X93.241 Y80.891 E29.2922
G1 X94.295 Y79.585 E29.38368
G1 X95.902 Y77.472 E29.52837
G1 X97.502 Y75.237 E29.67819
G1 X98.277 Y74.126 E29.75202
M204 S3000
M205 X10 Y10
G1 F2400 E23.75202
;MESH:octopus-pro-clip-3mm.stl
G0 F3375 X98.278 Y83.085
G0 X98.279 Y84.18
G0 X100.007 Y86.793
G0 X103.016 Y95.203
G0 X104.164 Y109.709
M204 S1800
M205 X8 Y8
;TYPE:WALL-INNER
G1 F2400 E29.75202
G1 F927.6 X104.068 Y109.365 E29.77091
G1 F923.2 X104.079 Y110.352 E29.82335
G1 F900 X104.08 Y114.604 E30.05511
G1 X103.975 Y115.169 E30.08643
G1 X103.631 Y115.685 E30.12023
G1 X101.08 Y118.239 E30.31698
G1 X101.079 Y119.217 E30.37029
G1 F1029.6 X101.024 Y119.896 E30.40275
G1 F1202.8 X101.023 Y120.277 E30.41829
G1 X101.351 Y120.276 E30.43166
G1 X101.351 Y119.896 E30.44716
G1 F1029.6 X101.421 Y119.288 E30.47632
G1 F900 X101.744 Y118.814 E30.50758
G1 X105.704 Y114.856 E30.81275
G1 X106.146 Y114.548 E30.84211
G1 X106.55 Y114.426 E30.86512
G1 X107.049 Y114.43 E30.89232
G1 X107.371 Y114.526 E30.91063
G1 X108.461 Y114.98 E30.97499
G1 X108.976 Y115.379 E31.0105
G1 X109.09 Y115.693 E31.0287
G1 X110.551 Y114.231 E31.14136
G1 X110.835 Y114.044 E31.15989
G1 X111.127 Y113.926 E31.17706
G1 X111.43 Y113.872 E31.19383
G1 X111.874 Y113.902 E31.21809
G1 X112.26 Y114.042 E31.24047
G1 X112.652 Y114.336 E31.26718
G1 X112.96 Y114.804 E31.29771
G1 F897.9 X113.079 Y115.397 E31.33075
G1 F895.9 X113.08 Y132.62 E32.27379
G1 X113.52 Y132.62 E32.29788
G1 X113.52 Y109.104 E33.58549
G1 F897.9 X113.521 Y77.379 E35.31862
G1 F900 X104.439 Y77.379 E35.81363
G1 X104.079 Y77.739 E35.84138
G1 X104.079 Y83.004 E36.12835
G1 F883.8 X104.002 Y83.511 E36.15682
G1 F777.3 X103.903 Y83.778 E36.17479
G1 F654.4 X103.393 Y84.469 E36.23917
G1 F697.3 X102.66 Y84.963 E36.30135
G1 F872.1 X102.067 Y85.244 E36.33826
G1 F923.2 X101.803 Y85.278 E36.3524
G1 F897.9 X98.48 Y85.28 E36.53394
G1 F895.9 X98.48 Y85.72 E36.55803
G1 X99.55 Y85.721 E36.61661
G1 F897.9 X100.204 Y85.869 E36.65325
G1 F900 X100.694 Y86.237 E36.68665
G1 X100.961 Y86.656 E36.71373
G1 F943.2 X101.06 Y87.251 E36.7451
G1 X101.217 Y86.668 E36.7765
G1 F900 X101.483 Y86.312 E36.80072
G1 F912.5 X102.199 Y85.598 E36.85508
G1 F1043.2 X102.746 Y85.287 E36.88467
G1 F1077.5 X103.049 Y85.162 E36.89959
G1 F753.4 X103.62 Y85.019 E36.93791
G1 F611.7 X103.932 Y85.018 E36.96294
G1 X103.94 Y84.729 E36.98612
G1 F679.3 X104.082 Y84.381 E37.01326
G1 F810.9 X104.344 Y83.937 E37.04445
G1 F881.8 X104.937 Y83.359 E37.09051
G1 F900 X106.128 Y82.168 E37.18232
G1 X106.487 Y81.902 E37.20667
G1 X106.841 Y81.765 E37.22736
G1 X107.211 Y81.721 E37.24767
G1 X110.089 Y81.722 E37.40454
G1 X110.435 Y81.817 E37.42409
G1 X110.713 Y81.952 E37.44094
G1 X110.984 Y82.169 E37.45986
G1 X112.631 Y83.814 E37.58674
G1 X112.954 Y84.287 E37.61796
G1 F897.9 X113.08 Y84.896 E37.65193
G1 F889.8 X113.08 Y109.319 E38.99834
G1 F891.8 X112.954 Y109.712 E39.02104
G1 F900 X112.631 Y110.186 E39.0523
G1 X110.984 Y111.832 E39.17922
G1 X110.537 Y112.142 E39.20887
G1 X110.2 Y112.249 E39.22814
G1 X109.903 Y112.278 E39.2444
G1 X107.211 Y112.278 E39.39113
G1 X106.732 Y112.202 E39.41756
G1 X106.354 Y112.016 E39.44053
G1 X106.129 Y111.831 E39.4564
G1 X104.483 Y110.185 E39.58328
G1 F906.2 X104.164 Y109.709 E39.6143
M204 S3000
M205 X10 Y10
G0 F3375 X102.193 Y116.785
G0 X100.874 Y118.152
G0 X101.163 Y119.53
G0 X106.677 Y115.392
G0 X108.262 Y116.05
G0 X108.264 Y122.297
G0 X107.506 Y123.604
G0 X102.416 Y124.231
M204 S1800
M205 X8 Y8
G1 F1143.3 X102.952 Y124.452 E39.63917
G1 X103.23 Y124.731 E39.65607
G1 X103.296 Y124.494 E39.66663
G1 X103.56 Y124.231 E39.68262
G1 X102.416 Y124.231 E39.7317
M204 S3000
M205 X10 Y10
G0 F3375 X97.167 Y124.001
M204 S1800
M205 X8 Y8
G1 F1043.2 X96.781 Y123.688 E39.75507
G1 X96.698 Y123.478 E39.76569
G1 X96.45 Y123.727 E39.78221
G1 X96.449 Y124 E39.79505
G1 X97.167 Y124.001 E39.82881
M204 S3000
M205 X10 Y10
G0 F3375 X102.262 Y124.635
G0 X103.472 Y125.736
M204 S1800
M205 X8 Y8
G1 F900 X103.472 Y125.264 E39.85453
G1 X103.63 Y124.697 E39.88662
G1 X103.995 Y124.331 E39.91479
G1 F952.3 X104.412 Y124.199 E39.93732
G1 F1011.1 X107.177 Y124.205 E40.07147
G1 F877.9 X107.551 Y124.26 E40.0926
G1 F772.7 X107.922 Y124.59 E40.12412
G1 X107.922 Y123.566 E40.18913
G1 F819.4 X107.548 Y123.815 E40.21603
G1 F932 X104.346 Y123.819 E40.38456
G1 F947.7 X103.857 Y123.841 E40.4099
G1 F900 X103.043 Y123.842 E40.45427
G1 F838.6 X101.903 Y123.874 E40.52098
G1 F785 X97.951 Y123.874 E40.76793
G1 F838.6 X97.457 Y123.724 E40.79813
G1 F900 X97.098 Y123.433 E40.82332
G1 X96.846 Y122.793 E40.86081
G1 X96.808 Y122.793 E40.86288
G1 X96.043 Y123.559 E40.92188
G1 X96.041 Y124.567 E40.97683
G1 X96.426 Y124.408 E40.99953
G1 X97.294 Y124.408 E41.04684
G1 F838.6 X97.951 Y124.376 E41.08532
G1 F785 X101.903 Y124.377 E41.33227
G1 F838.6 X102.676 Y124.728 E41.38193
G1 F900 X103.322 Y125.374 E41.43172
G1 X103.472 Y125.736 E41.45308
M204 S3000
M205 X10 Y10
G0 F3375 X104.798 Y123.639
G0 X107.506 Y123.604
G0 X108.264 Y122.297
G0 X108.262 Y116.05
G0 X106.617 Y114.858
M204 S1800
M205 X8 Y8
G1 F900 X107.042 Y114.862 E41.47625
G1 X108.272 Y115.374 E41.54886
G1 X108.64 Y115.659 E41.57423
G1 X108.892 Y116.359 E41.61478
G1 X108.892 Y116.508 E41.62291
G1 X110.837 Y114.563 E41.77283
G1 X111.096 Y114.402 E41.78945
G1 X111.464 Y114.307 E41.81017
G1 X111.781 Y114.329 E41.82749
G1 X112.057 Y114.429 E41.84349
G1 X112.337 Y114.639 E41.86256
G1 X112.557 Y114.973 E41.88436
G1 X112.641 Y115.397 E41.90792
G1 X112.642 Y133.058 E42.87054
G1 X113.958 Y133.058 E42.94226
G1 X113.958 Y76.942 E46.00087
G1 X104.258 Y76.942 E46.52957
G1 X103.642 Y77.558 E46.57705
G1 X103.642 Y83.004 E46.87389
G1 X103.581 Y83.364 E46.89379
G1 X103.398 Y83.701 E46.91469
G1 X102.575 Y84.523 E46.97809
G1 X102.221 Y84.758 E47.00125
G1 F902.1 X101.939 Y84.841 E47.01723
G1 X98.257 Y84.842 E47.21746
G1 F900 X98.041 Y85.057 E47.23407
