;FLAVOR:Marlin
;TIME:13157
;Filament used: 13.4498m
;Layer height: 0.24
;MINX:47.035
;MINY:17.039
;MINZ:0.3
;MAXX:162.966
;MAXY:192.961
;MAXZ:12.06
;Generated with Cura_SteamEngine 5.2.1
M140 S80
M105
M190 S80
M104 S235
M105
M109 S235
M82 ;absolute extrusion mode
G21 ;metric values
G90 ;absolute positioning
M82 ;set extruder to absolute mode
M107 ;start with the fan off
G28 X0 Y0 ;move X/Y to min endstops
G28 Z0 ;move Z to min endstops
G1 Z15.0 F150.0 ;move the platform down 15mm
G92 E0 ;zero the extruded length
G1 F200 E3 ;extrude 3mm of feed stock
G92 E0 ;zero the extruded length again
G1 F150.0
G0 Y20 F150.0
M117 Printing...
G5
G92 E0
G92 E0
G1 F2400 E-6
;LAYER_COUNT:50
;LAYER:0
M107
M204 S3000
M205 X10 Y10
G1 F600 Z0.375
G0 F3375 X48.346 Y24.333 Z0.375
M204 S1800
M205 X8 Y8
;TYPE:SKIRT
G1 F600 Z0.3
G1 F2400 E0
G1 X48.722 Y23.609 E0.04447
G1 X49.051 Y23.072 E0.07879
G1 X49.479 Y22.433 E0.12071
G1 X49.789 Y22.023 E0.14873
G1 X50.236 Y21.473 E0.18736
G1 X50.656 Y21.022 E0.22095
G1 X51.239 Y20.45 E0.26546
G1 X51.617 Y20.119 E0.29285
G1 X52.062 Y19.755 E0.32418
G1 X52.55 Y19.395 E0.35724
G1 X53.127 Y19.012 E0.39498
G1 X53.663 Y18.694 E0.42895
G1 X54.397 Y18.308 E0.47416
G1 X54.955 Y18.064 E0.50735
G1 X55.922 Y17.69 E0.56386
G1 X56.965 Y17.402 E0.62284
G1 X57.486 Y17.288 E0.65191
G1 X58.278 Y17.155 E0.69568
G1 X58.776 Y17.1 E0.72299
G1 X59.58 Y17.047 E0.7669
G1 X60.087 Y17.043 E0.79454
G1 X61.115 Y17.079 E0.8506
G1 X62.2 Y17.227 E0.91029
G1 X62.692 Y17.324 E0.93762
G1 X63.462 Y17.511 E0.98081
G1 X63.965 Y17.664 E1.00947
G1 X64.5 Y17.846 E1.04027
G1 X65.074 Y18.074 E1.07393
G1 X65.909 Y18.456 E1.12398
G1 X68.343 Y19.528 E1.26894
G1 X70.839 Y20.542 E1.41579
G1 X73.308 Y21.467 E1.55949
G1 X75.82 Y22.327 E1.70421
G1 X78.362 Y23.119 E1.84933
G1 X80.919 Y23.835 E1.99406
G1 X83.48 Y24.477 E2.13797
G1 X86.102 Y25.055 E2.28431
G1 X88.685 Y25.547 E2.42763
G1 X91.299 Y25.969 E2.57195
G1 X93.963 Y26.324 E2.71844
G1 X96.568 Y26.595 E2.86119
G1 X99.256 Y26.798 E3.00812
G1 X101.876 Y26.921 E3.15108
G1 X104.538 Y26.972 E3.29619
G1 X107.199 Y26.947 E3.44124
G1 X109.851 Y26.847 E3.58589
G1 X112.515 Y26.671 E3.73141
G1 X115.167 Y26.42 E3.8766
G1 X117.763 Y26.101 E4.01916
G1 X120.428 Y25.696 E4.16608
G1 X122.994 Y25.232 E4.30821
G1 X125.638 Y24.676 E4.45548
G1 X128.169 Y24.068 E4.59735
G1 X130.795 Y23.358 E4.74562
G1 X133.299 Y22.606 E4.88812
G1 X135.823 Y21.767 E5.0331
G1 X138.333 Y20.855 E5.17865
G1 X140.811 Y19.873 E5.32394
G1 X143.253 Y18.825 E5.46878
G1 X144.558 Y18.236 E5.54682
G1 X145.312 Y17.914 E5.5915
G1 X146.193 Y17.606 E5.64237
G1 X146.953 Y17.404 E5.68523
G1 X147.871 Y17.211 E5.73636
G1 X148.525 Y17.126 E5.77231
G1 X149.573 Y17.039 E5.82963
G1 X150.838 Y17.061 E5.89859
G1 X151.735 Y17.156 E5.94775
G1 X152.357 Y17.255 E5.98208
G1 X153.121 Y17.417 E6.02465
G1 X153.989 Y17.665 E6.07385
G1 X154.806 Y17.961 E6.12121
G1 X155.503 Y18.266 E6.16268
G1 X156.056 Y18.542 E6.19637
G1 X156.662 Y18.884 E6.2343
G1 X157.172 Y19.206 E6.26717
G1 X157.824 Y19.665 E6.31063
G1 X158.32 Y20.066 E6.3454
G1 X158.739 Y20.428 E6.37558
G1 X159.191 Y20.861 E6.40969
G1 X159.749 Y21.454 E6.45407
G1 X160.152 Y21.948 E6.48882
G1 X160.505 Y22.409 E6.52047
G1 X160.867 Y22.937 E6.55536
G1 X161.27 Y23.596 E6.59747
G1 X161.549 Y24.128 E6.63021
G1 X161.806 Y24.656 E6.66221
G1 X162.053 Y25.237 E6.69662
G1 X162.292 Y25.893 E6.73468
G1 X162.475 Y26.489 E6.76866
G1 X162.671 Y27.266 E6.81234
G1 X162.785 Y27.885 E6.84664
G1 X162.923 Y28.908 E6.90291
G1 X162.966 Y30.235 E6.97527
G1 X162.88 Y31.502 E7.04449
G1 X162.735 Y32.415 E7.09488
G1 X162.621 Y33.042 E7.12961
G1 X154.601 Y73.94 E9.40122
G1 X154.114 Y76.621 E9.54973
G1 X153.71 Y79.276 E9.69611
G1 X153.386 Y81.896 E9.84
G1 X153.136 Y84.533 E9.98438
G1 X152.959 Y87.197 E10.1299
G1 X152.858 Y89.85 E10.27461
G1 X152.83 Y92.164 E10.40074
G1 X152.829 Y117.884 E11.80261
G1 X152.866 Y120.509 E11.9457
G1 X152.981 Y123.206 E12.09283
G1 X153.167 Y125.849 E12.23725
G1 X153.428 Y128.47 E12.38081
G1 X153.767 Y131.119 E12.52637
G1 X154.181 Y133.764 E12.67229
G1 X154.588 Y135.982 E12.7952
G1 X162.615 Y176.937 E15.06993
G1 X162.808 Y178.035 E15.13069
G1 X162.904 Y178.753 E15.17018
G1 X162.945 Y179.407 E15.20589
G1 X162.958 Y180.206 E15.24945
G1 X162.938 Y180.718 E15.27737
G1 X162.871 Y181.52 E15.32124
G1 X162.794 Y182.059 E15.35092
G1 X162.647 Y182.83 E15.3937
G1 X162.465 Y183.565 E15.43497
G1 X162.226 Y184.298 E15.47699
G1 X161.916 Y185.096 E15.52365
G1 X161.659 Y185.658 E15.55733
G1 X161.28 Y186.386 E15.60207
G1 X160.943 Y186.937 E15.63727
G1 X160.641 Y187.397 E15.66727
G1 X160.282 Y187.888 E15.70042
G1 X159.763 Y188.528 E15.74533
G1 X159.344 Y188.978 E15.77884
G1 X158.761 Y189.55 E15.82336
G1 X158.383 Y189.881 E15.85075
G1 X157.604 Y190.503 E15.90508
G1 X156.887 Y190.98 E15.95202
G1 X156.348 Y191.3 E15.98618
G1 X155.605 Y191.691 E16.03195
G1 X155.045 Y191.936 E16.06526
G1 X154.078 Y192.31 E16.12177
G1 X153.035 Y192.598 E16.18075
G1 X152.514 Y192.712 E16.20982
G1 X151.722 Y192.845 E16.25359
G1 X151.224 Y192.9 E16.2809
G1 X150.42 Y192.953 E16.32482
G1 X149.913 Y192.957 E16.35245
G1 X149.118 Y192.929 E16.39581
G1 X148.617 Y192.884 E16.42323
G1 X147.817 Y192.775 E16.46723
G1 X147.308 Y192.676 E16.4955
G1 X146.545 Y192.491 E16.53829
G1 X146.03 Y192.335 E16.56762
G1 X145.502 Y192.155 E16.59802
G1 X144.941 Y191.932 E16.63093
G1 X144.1 Y191.549 E16.6813
G1 X141.651 Y190.47 E16.82716
G1 X139.166 Y189.46 E16.97337
G1 X136.692 Y188.533 E17.11737
G1 X134.18 Y187.673 E17.26209
G1 X131.638 Y186.881 E17.40721
G1 X129.081 Y186.165 E17.55194
G1 X126.52 Y185.523 E17.69584
G1 X123.898 Y184.945 E17.84219
G1 X121.315 Y184.453 E17.9855
G1 X118.701 Y184.031 E18.12982
G1 X116.037 Y183.676 E18.27631
G1 X113.432 Y183.405 E18.41906
G1 X110.744 Y183.202 E18.56599
G1 X108.124 Y183.079 E18.70895
G1 X105.462 Y183.028 E18.85407
G1 X102.801 Y183.053 E18.99911
G1 X100.149 Y183.153 E19.14376
G1 X97.485 Y183.329 E19.28928
G1 X94.833 Y183.58 E19.43447
G1 X92.237 Y183.899 E19.57703
G1 X89.572 Y184.304 E19.72396
G1 X87.006 Y184.768 E19.86609
G1 X84.362 Y185.324 E20.01335
G1 X81.831 Y185.932 E20.15523
G1 X79.205 Y186.642 E20.30349
G1 X76.701 Y187.394 E20.446
G1 X74.177 Y188.233 E20.59097
G1 X71.667 Y189.145 E20.73653
G1 X69.189 Y190.127 E20.88181
G1 X66.747 Y191.175 E21.02665
G1 X65.442 Y191.764 E21.10469
G1 X64.854 Y192.015 E21.13954
G1 X64.193 Y192.266 E21.17807
G1 X63.268 Y192.541 E21.23067
G1 X62.754 Y192.662 E21.25945
G1 X61.749 Y192.851 E21.31519
G1 X60.428 Y192.961 E21.38744
G1 X59.162 Y192.939 E21.45646
G1 X58.275 Y192.845 E21.50507
G1 X57.664 Y192.748 E21.53879
G1 X56.88 Y192.583 E21.58246
G1 X56.012 Y192.336 E21.63165
G1 X55.183 Y192.035 E21.67972
G1 X54.491 Y191.731 E21.72092
G1 X53.96 Y191.466 E21.75326
G1 X53.352 Y191.125 E21.79126
G1 X52.819 Y190.789 E21.8256
G1 X52.164 Y190.327 E21.86929
G1 X51.673 Y189.927 E21.90381
G1 X51.253 Y189.563 E21.9341
G1 X50.814 Y189.144 E21.96718
G1 X50.253 Y188.55 E22.01171
G1 X49.853 Y188.058 E22.04627
G1 X49.373 Y187.418 E22.08987
G1 X49.089 Y186.99 E22.11787
G1 X48.581 Y186.14 E22.17184
G1 X48.195 Y185.347 E22.21991
G1 X47.957 Y184.789 E22.25298
G1 X47.672 Y184.016 E22.29788
G1 X47.502 Y183.42 E22.33166
G1 X47.327 Y182.728 E22.37057
G1 X47.214 Y182.107 E22.40497
G1 X47.076 Y181.087 E22.46107
G1 X47.035 Y179.76 E22.53344
G1 X47.122 Y178.481 E22.60331
G1 X47.305 Y177.36 E22.66522
G1 X55.407 Y136.023 E24.96116
G1 X55.886 Y133.384 E25.10735
G1 X56.29 Y130.73 E25.25367
G1 X56.614 Y128.11 E25.39757
G1 X56.864 Y125.472 E25.54199
G1 X57.041 Y122.809 E25.68746
G1 X57.142 Y120.154 E25.83228
G1 X57.17 Y117.839 E25.95847
G1 X57.171 Y92.108 E27.36093
G1 X57.134 Y89.483 E27.50402
G1 X57.019 Y86.785 E27.65121
G1 X56.833 Y84.142 E27.79563
G1 X56.572 Y81.518 E27.93935
G1 X56.23 Y78.848 E28.08607
G1 X55.826 Y76.268 E28.22841
G1 X55.403 Y73.968 E28.35587
G1 X47.391 Y33.092 E30.62621
G1 X47.203 Y32.063 E30.68323
G1 X47.105 Y31.299 E30.72521
G1 X47.057 Y30.673 E30.75943
G1 X47.037 Y29.874 E30.80299
G1 X47.064 Y29.251 E30.83698
G1 X47.151 Y28.237 E30.89245
G1 X47.356 Y27.155 E30.95248
G1 X47.48 Y26.662 E30.98019
G1 X47.644 Y26.09 E31.01262
G1 X47.847 Y25.498 E31.04673
G1 X48.1 Y24.868 E31.08373
G1 X48.346 Y24.333 E31.11583
M204 S3000
M205 X10 Y10
G0 F3375 X48.734 Y24.534
M204 S1800
M205 X8 Y8
G1 F2400 X49.098 Y23.833 E31.15888
G1 X49.416 Y23.311 E31.1922
G1 X49.936 Y22.536 E31.24306
G1 X50.563 Y21.764 E31.29727
G1 X50.967 Y21.329 E31.32963
G1 X51.652 Y20.655 E31.38201
G1 X52.339 Y20.093 E31.43039
G1 X52.792 Y19.759 E31.46106
G1 X53.369 Y19.376 E31.49881
G1 X53.866 Y19.081 E31.53031
G1 X54.594 Y18.698 E31.57515
G1 X55.118 Y18.469 E31.60632
G1 X56.045 Y18.109 E31.66052
G1 X57.063 Y17.828 E31.71808
G1 X57.565 Y17.718 E31.74609
G1 X58.524 Y17.555 E31.79911
G1 X59.793 Y17.47 E31.86843
G1 X61.063 Y17.513 E31.93769
G1 X62.323 Y17.685 E32.00701
G1 X63.34 Y17.93 E32.06403
G1 X63.825 Y18.077 E32.09165
G1 X64.36 Y18.259 E32.12245
G1 X64.893 Y18.471 E32.15371
G1 X65.747 Y18.862 E32.20491
G1 X68.17 Y19.929 E32.34921
G1 X70.671 Y20.946 E32.49637
G1 X73.162 Y21.878 E32.64133
G1 X75.686 Y22.743 E32.78676
G1 X78.244 Y23.54 E32.93279
G1 X80.776 Y24.249 E33.07611
G1 X83.419 Y24.911 E33.22461
G1 X85.998 Y25.48 E33.36856
G1 X88.606 Y25.977 E33.51327
G1 X91.243 Y26.403 E33.65886
G1 X93.893 Y26.755 E33.80457
G1 X96.561 Y27.033 E33.95078
G1 X99.201 Y27.232 E34.09508
G1 X101.883 Y27.359 E34.24143
G1 X104.534 Y27.409 E34.38594
G1 X107.219 Y27.384 E34.5323
G1 X109.862 Y27.285 E34.67645
G1 X112.549 Y27.107 E34.82323
G1 X115.19 Y26.857 E34.96782
G1 X117.844 Y26.531 E35.11357
G1 X120.506 Y26.126 E35.26033
G1 X123.09 Y25.658 E35.40346
G1 X125.724 Y25.105 E35.55016
G1 X128.279 Y24.491 E35.69338
G1 X130.886 Y23.786 E35.84058
G1 X133.465 Y23.011 E35.98736
G1 X135.961 Y22.182 E36.13071
G1 X138.505 Y21.257 E36.27825
G1 X140.964 Y20.283 E36.42241
G1 X143.407 Y19.234 E36.56732
G1 X144.738 Y18.634 E36.6469
G1 X145.312 Y18.389 E36.68092
G1 X145.815 Y18.197 E36.71026
G1 X146.566 Y17.959 E36.7532
G1 X147.06 Y17.828 E36.78106
G1 X147.795 Y17.674 E36.82199
G1 X148.566 Y17.561 E36.86446
G1 X149.57 Y17.477 E36.91938
G1 X150.798 Y17.496 E36.98632
G1 X151.689 Y17.591 E37.03515
G1 X152.266 Y17.682 E37.06699
G1 X153.002 Y17.838 E37.108
G1 X153.85 Y18.079 E37.15605
G1 X154.535 Y18.327 E37.19576
G1 X155.328 Y18.666 E37.24276
G1 X155.841 Y18.922 E37.27401
G1 X156.447 Y19.264 E37.31194
G1 X156.921 Y19.564 E37.34252
G1 X157.572 Y20.022 E37.3859
G1 X158.035 Y20.397 E37.41837
G1 X158.454 Y20.759 E37.44856
G1 X158.872 Y21.16 E37.48013
G1 X159.416 Y21.738 E37.52339
G1 X159.805 Y22.213 E37.55685
G1 X160.158 Y22.674 E37.5885
G1 X160.494 Y23.165 E37.62093
G1 X161.031 Y24.061 E37.67787
G1 X161.414 Y24.848 E37.72557
G1 X161.642 Y25.387 E37.75747
G1 X161.881 Y26.043 E37.79552
G1 X162.051 Y26.596 E37.82706
G1 X162.315 Y27.682 E37.88797
G1 X162.486 Y28.922 E37.9562
G1 X162.53 Y30.199 E38.02584
G1 X162.447 Y31.445 E38.09391
G1 X162.255 Y32.639 E38.15982
G1 X154.171 Y73.862 E40.44948
G1 X153.683 Y76.549 E40.59833
G1 X153.275 Y79.228 E40.74603
G1 X152.953 Y81.834 E40.88915
G1 X152.697 Y84.535 E41.03703
G1 X152.523 Y87.151 E41.17993
G1 X152.421 Y89.829 E41.326
G1 X152.393 Y92.159 E41.45301
G1 X152.392 Y117.884 E42.85515
G1 X152.43 Y120.533 E42.99955
G1 X152.544 Y123.222 E43.14624
G1 X152.732 Y125.887 E43.29186
G1 X152.995 Y128.536 E43.43696
G1 X153.332 Y131.165 E43.58142
G1 X153.751 Y133.838 E43.72889
G1 X154.159 Y136.066 E43.85235
G1 X162.185 Y177.015 E46.12674
G1 X162.333 Y177.832 E46.172
G1 X162.444 Y178.617 E46.21521
G1 X162.508 Y179.419 E46.25906
G1 X162.525 Y180.415 E46.31336
G1 X162.437 Y181.464 E46.37073
G1 X162.363 Y181.981 E46.3992
G1 X162.181 Y182.942 E46.45251
G1 X161.832 Y184.126 E46.51979
G1 X161.51 Y184.935 E46.56725
G1 X161.271 Y185.457 E46.59854
G1 X160.902 Y186.167 E46.64215
G1 X160.578 Y186.697 E46.67601
G1 X160.276 Y187.157 E46.706
G1 X159.943 Y187.613 E46.73678
G1 X159.435 Y188.24 E46.78076
G1 X159.033 Y188.671 E46.81289
G1 X158.324 Y189.368 E46.86708
G1 X157.356 Y190.143 E46.93467
G1 X156.645 Y190.616 E46.98121
G1 X156.144 Y190.913 E47.01296
G1 X155.401 Y191.304 E47.05872
G1 X154.882 Y191.531 E47.08959
G1 X153.955 Y191.891 E47.1438
G1 X152.937 Y192.172 E47.20136
G1 X152.435 Y192.282 E47.22937
G1 X151.476 Y192.445 E47.28239
G1 X150.207 Y192.53 E47.35171
G1 X148.944 Y192.487 E47.42059
G1 X147.676 Y192.315 E47.49034
G1 X146.666 Y192.071 E47.54697
G1 X146.171 Y191.921 E47.57516
G1 X145.643 Y191.741 E47.60557
G1 X145.122 Y191.535 E47.6361
G1 X144.262 Y191.143 E47.68762
G1 X141.824 Y190.069 E47.83282
G1 X139.334 Y189.056 E47.97934
G1 X136.838 Y188.122 E48.1246
G1 X134.314 Y187.257 E48.27002
G1 X131.756 Y186.46 E48.41606
G1 X129.224 Y185.751 E48.55937
G1 X126.581 Y185.089 E48.70788
G1 X124.002 Y184.52 E48.85183
G1 X121.394 Y184.023 E48.99654
G1 X118.757 Y183.597 E49.14213
G1 X116.107 Y183.245 E49.28784
G1 X113.439 Y182.967 E49.43404
G1 X110.799 Y182.768 E49.57835
G1 X108.117 Y182.641 E49.72469
G1 X105.466 Y182.591 E49.86921
G1 X102.781 Y182.616 E50.01556
G1 X100.138 Y182.715 E50.15972
G1 X97.451 Y182.893 E50.3065
G1 X94.81 Y183.143 E50.45109
G1 X92.156 Y183.469 E50.59683
G1 X89.494 Y183.874 E50.74359
G1 X86.91 Y184.342 E50.88673
G1 X84.276 Y184.895 E51.03342
G1 X81.721 Y185.509 E51.17665
G1 X79.114 Y186.214 E51.32385
G1 X76.535 Y186.989 E51.47062
G1 X74.039 Y187.818 E51.61398
G1 X71.495 Y188.743 E51.76152
G1 X69.036 Y189.717 E51.90568
G1 X66.593 Y190.766 E52.05059
G1 X65.262 Y191.366 E52.13017
G1 X64.683 Y191.612 E52.16446
G1 X64.186 Y191.802 E52.19346
G1 X63.293 Y192.086 E52.24453
G1 X62.669 Y192.234 E52.27949
G1 X61.694 Y192.417 E52.33356
G1 X60.43 Y192.523 E52.40269
G1 X59.201 Y192.504 E52.46969
G1 X58.321 Y192.41 E52.51792
G1 X57.754 Y192.321 E52.54921
G1 X57.001 Y192.162 E52.59115
G1 X56.153 Y191.922 E52.63919
G1 X55.355 Y191.633 E52.68545
G1 X54.667 Y191.331 E52.7264
G1 X54.174 Y191.085 E52.75643
G1 X53.566 Y190.744 E52.79443
G1 X53.071 Y190.432 E52.82632
G1 X52.431 Y189.981 E52.869
G1 X51.959 Y189.597 E52.90216
G1 X51.539 Y189.233 E52.93245
G1 X51.132 Y188.844 E52.96314
G1 X50.562 Y188.241 E53.00837
G1 X49.915 Y187.422 E53.06525
G1 X49.614 Y186.997 E53.09364
G1 X49.205 Y186.342 E53.13573
G1 X48.953 Y185.906 E53.16318
G1 X48.588 Y185.156 E53.20864
G1 X48.367 Y184.638 E53.23934
G1 X48.091 Y183.889 E53.28284
G1 X47.925 Y183.313 E53.31552
G1 X47.755 Y182.642 E53.35325
G1 X47.647 Y182.043 E53.38642
G1 X47.514 Y181.068 E53.44005
G1 X47.471 Y179.772 E53.51073
G1 X47.555 Y178.543 E53.57788
G1 X47.734 Y177.444 E53.63857
G1 X55.837 Y136.102 E55.93479
G1 X56.316 Y133.462 E56.08103
G1 X56.725 Y130.773 E56.22928
G1 X57.047 Y128.172 E56.37213
G1 X57.303 Y125.47 E56.52006
G1 X57.477 Y122.854 E56.66296
G1 X57.579 Y120.177 E56.80898
G1 X57.607 Y117.844 E56.93615
G1 X57.608 Y92.108 E58.33889
G1 X57.57 Y89.459 E58.48329
G1 X57.456 Y86.77 E58.62998
G1 X57.268 Y84.104 E58.77565
G1 X57.005 Y81.456 E58.92069
G1 X56.668 Y78.826 E59.06521
G1 X56.251 Y76.162 E59.21218
G1 X55.833 Y73.889 E59.33815
G1 X47.821 Y33.014 E61.60844
G1 X47.634 Y31.988 E61.66528
G1 X47.538 Y31.243 E61.70623
G1 X47.494 Y30.662 E61.73798
G1 X47.474 Y29.884 E61.7804
G1 X47.499 Y29.283 E61.81319
G1 X47.584 Y28.299 E61.86702
G1 X47.814 Y27.083 E61.93448
G1 X48.064 Y26.21 E61.98397
G1 X48.252 Y25.661 E62.0156
G1 X48.505 Y25.031 E62.0526
G1 X48.734 Y24.534 E62.08243
M204 S3000
M205 X10 Y10
G0 F3375 X49.121 Y24.735
M204 S1800
M205 X8 Y8
G1 F2400 X49.475 Y24.054 E62.12426
G1 X49.782 Y23.551 E62.15638
G1 X50.289 Y22.794 E62.20604
G1 X50.897 Y22.046 E62.25858
G1 X51.277 Y21.637 E62.28901
