;FLAVOR:Marlin
;TIME:9711
;Filament used: 12.5971m
;Layer height: 0.24
;MINX:84.436
;MINY:54.407
;MINZ:0.3
;MAXX:125.565
;MAXY:155.593
;MAXZ:42.06
;Generated with Cura_SteamEngine 5.2.1
M140 S80
M105
M190 S80
M104 S235
M105
M109 S235
M82 ;absolute extrusion mode
G21 ;metric values
G90 ;absolute positioning
M82 ;set extruder to absolute mode
M107 ;start with the fan off
G28 X0 Y0 ;move X/Y to min endstops
G28 Z0 ;move Z to min endstops
G1 Z15.0 F150.0 ;move the platform down 15mm
G92 E0 ;zero the extruded length
G1 F200 E3 ;extrude 3mm of feed stock
G92 E0 ;zero the extruded length again
G1 F150.0
G0 Y20 F150.0
M117 Printing...
G5
G92 E0
G92 E0
G1 F2400 E-6
;LAYER_COUNT:175
;LAYER:0
M107
M204 S3000
M205 X10 Y10
G1 F600 Z0.375
G0 F3375 X86.94 Y61.128 Z0.375
M204 S1800
M205 X8 Y8
;TYPE:SKIRT
G1 F600 Z0.3
G1 F2400 E0
G1 X87.36 Y60.571 E0.03802
G1 X87.841 Y60.065 E0.07607
G1 X88.376 Y59.617 E0.11411
G1 X88.959 Y59.234 E0.15213
G1 X89.811 Y58.826 E0.20362
G1 X90.496 Y58.561 E0.24365
G1 X91.939 Y58.026 E0.32753
G1 X94.375 Y57.045 E0.47067
G1 X96.8 Y55.987 E0.61487
G1 X98.936 Y54.989 E0.74338
G1 X99.584 Y54.731 E0.78139
G1 X100.257 Y54.548 E0.81941
G1 X101.051 Y54.427 E0.86318
G1 X101.857 Y54.407 E0.90713
G1 X107.752 Y54.407 E1.22844
G1 X108.573 Y54.421 E1.27319
G1 X109.269 Y54.474 E1.31124
G1 X109.954 Y54.606 E1.34926
G1 X110.74 Y54.853 E1.39417
G1 X111.898 Y55.395 E1.46385
G1 X114.407 Y56.529 E1.61393
G1 X116.872 Y57.559 E1.75954
G1 X119.39 Y58.529 E1.90661
G1 X120.098 Y58.79 E1.94774
G1 X120.738 Y59.068 E1.98577
G1 X121.342 Y59.418 E2.02382
G1 X121.902 Y59.835 E2.06188
G1 X122.41 Y60.312 E2.09986
G1 X122.861 Y60.845 E2.13792
G1 X123.248 Y61.426 E2.17597
G1 X123.565 Y62.047 E2.21397
G1 X123.81 Y62.701 E2.25203
G1 X123.979 Y63.378 E2.29007
G1 X124.093 Y64.439 E2.34823
G1 X124.093 Y127.964 E5.81066
G1 X124.13 Y130.589 E5.95375
G1 X124.245 Y133.28 E6.10056
G1 X124.433 Y135.942 E6.24601
G1 X124.691 Y138.544 E6.38853
G1 X125.03 Y141.192 E6.53404
G1 X125.481 Y144.049 E6.69169
G1 X125.552 Y144.814 E6.73356
G1 X125.565 Y145.33 E6.7617
G1 X125.563 Y148.894 E6.95595
G1 X125.553 Y149.579 E6.99329
G1 X125.503 Y150.275 E7.03133
G1 X125.374 Y150.961 E7.06937
G1 X125.167 Y151.627 E7.10738
G1 X124.885 Y152.266 E7.14545
G1 X124.532 Y152.868 E7.18349
G1 X124.113 Y153.425 E7.22148
G1 X123.632 Y153.932 E7.25957
G1 X123.097 Y154.379 E7.29757
G1 X122.514 Y154.763 E7.33562
G1 X121.891 Y155.078 E7.37367
G1 X121.236 Y155.319 E7.41171
G1 X120.558 Y155.483 E7.44973
G1 X119.647 Y155.58 E7.49967
G1 X119.134 Y155.593 E7.52764
G1 X91.157 Y155.592 E9.05253
G1 X90.459 Y155.583 E9.09057
G1 X89.763 Y155.535 E9.1286
G1 X89.077 Y155.406 E9.16664
G1 X88.41 Y155.2 E9.20469
G1 X87.772 Y154.92 E9.24267
G1 X87.169 Y154.568 E9.28073
G1 X86.61 Y154.149 E9.3188
G1 X86.104 Y153.67 E9.35678
G1 X85.655 Y153.135 E9.39485
G1 X85.27 Y152.553 E9.43288
G1 X84.955 Y151.93 E9.47093
G1 X84.712 Y151.276 E9.50896
G1 X84.546 Y150.598 E9.54701
G1 X84.436 Y149.55 E9.60444
G1 X84.437 Y145.613 E9.81903
G1 X84.448 Y144.903 E9.85773
G1 X84.524 Y144.032 E9.90539
G1 X84.773 Y142.478 E9.99117
G1 X85.148 Y139.845 E10.13613
G1 X85.448 Y137.192 E10.28165
G1 X85.673 Y134.547 E10.42634
G1 X85.821 Y131.933 E10.56904
G1 X85.907 Y127.847 E10.7918
G1 X85.908 Y65.083 E14.21275
G1 X85.918 Y64.417 E14.24906
G1 X85.968 Y63.72 E14.28715
G1 X86.098 Y63.035 E14.32515
G1 X86.305 Y62.368 E14.36321
G1 X86.587 Y61.73 E14.40123
G1 X86.94 Y61.128 E14.43927
M204 S3000
M205 X10 Y10
G0 F3375 X87.373 Y61.269
M204 S1800
M205 X8 Y8
G1 F2400 X87.79 Y60.742 E14.4759
G1 X88.267 Y60.268 E14.51255
G1 X88.797 Y59.853 E14.54924
G1 X89.372 Y59.505 E14.58587
G1 X89.968 Y59.233 E14.62158
G1 X90.647 Y58.971 E14.66125
G1 X92.085 Y58.438 E14.74484
G1 X94.545 Y57.447 E14.88939
G1 X96.997 Y56.377 E15.03521
G1 X99.121 Y55.385 E15.16298
G1 X99.746 Y55.138 E15.19961
G1 X100.396 Y54.966 E15.23626
G1 X101.349 Y54.856 E15.28855
G1 X101.857 Y54.844 E15.31624
G1 X107.752 Y54.844 E15.63755
G1 X108.565 Y54.858 E15.68187
G1 X109.235 Y54.91 E15.7185
G1 X109.894 Y55.042 E15.75513
G1 X110.612 Y55.275 E15.79628
G1 X111.718 Y55.793 E15.86284
G1 X114.227 Y56.927 E16.01291
G1 X116.696 Y57.959 E16.15877
G1 X119.28 Y58.954 E16.30969
G1 X119.947 Y59.2 E16.34844
G1 X120.563 Y59.469 E16.38508
G1 X121.142 Y59.81 E16.4217
G1 X121.677 Y60.217 E16.45834
G1 X122.16 Y60.685 E16.495
G1 X122.584 Y61.207 E16.53165
G1 X122.944 Y61.775 E16.56831
G1 X123.233 Y62.382 E16.60495
G1 X123.448 Y63.019 E16.64159
G1 X123.586 Y63.677 E16.67824
G1 X123.656 Y64.474 E16.72185
G1 X123.656 Y127.964 E20.18237
G1 X123.694 Y130.613 E20.32677
G1 X123.807 Y133.296 E20.47314
G1 X123.998 Y135.979 E20.61974
G1 X124.259 Y138.61 E20.76385
G1 X124.596 Y141.244 E20.90859
G1 X125.049 Y144.117 E21.06711
G1 X125.115 Y144.827 E21.10598
G1 X125.128 Y145.33 E21.13341
G1 X125.126 Y148.888 E21.32733
G1 X125.116 Y149.573 E21.36467
G1 X125.067 Y150.243 E21.40129
G1 X124.938 Y150.903 E21.43794
G1 X124.731 Y151.543 E21.47461
G1 X124.45 Y152.154 E21.51126
G1 X124.099 Y152.727 E21.54789
G1 X123.682 Y153.255 E21.58456
G1 X123.206 Y153.729 E21.62117
G1 X122.676 Y154.143 E21.65783
G1 X122.101 Y154.492 E21.69449
G1 X121.489 Y154.77 E21.73113
G1 X120.848 Y154.973 E21.76778
G1 X120.188 Y155.099 E21.8044
G1 X119.634 Y155.143 E21.83469
G1 X119.134 Y155.156 E21.86195
G1 X91.163 Y155.156 E23.38651
G1 X90.465 Y155.147 E23.42456
G1 X89.794 Y155.098 E23.46123
G1 X89.134 Y154.97 E23.49787
G1 X88.494 Y154.765 E23.5345
G1 X87.883 Y154.485 E23.57114
G1 X87.309 Y154.135 E23.60778
G1 X86.781 Y153.719 E23.64442
G1 X86.306 Y153.243 E23.68107
G1 X85.89 Y152.714 E23.71775
G1 X85.541 Y152.14 E23.75436
G1 X85.262 Y151.528 E23.79102
G1 X85.057 Y150.887 E23.82771
G1 X84.93 Y150.227 E23.86434
G1 X84.873 Y149.503 E23.90392
G1 X84.874 Y145.619 E24.11562
G1 X84.885 Y144.909 E24.15432
G1 X84.955 Y144.101 E24.19853
G1 X85.203 Y142.554 E24.28392
G1 X85.583 Y139.883 E24.43097
G1 X85.882 Y137.242 E24.57584
G1 X86.109 Y134.573 E24.72184
G1 X86.258 Y131.939 E24.86564
G1 X86.344 Y127.856 E25.08823
G1 X86.345 Y65.089 E28.50935
G1 X86.355 Y64.423 E28.54565
G1 X86.405 Y63.753 E28.58227
G1 X86.534 Y63.093 E28.61893
G1 X86.741 Y62.453 E28.65559
G1 X87.022 Y61.842 E28.69224
G1 X87.373 Y61.269 E28.72887
M204 S3000
M205 X10 Y10
G0 F3375 X87.806 Y61.416
M204 S1800
M205 X8 Y8
G1 F2400 X88.22 Y60.92 E28.76408
G1 X88.692 Y60.479 E28.79929
G1 X89.215 Y60.101 E28.83446
G1 X89.87 Y59.74 E28.87523
G1 X90.799 Y59.381 E28.92951
G1 X92.22 Y58.855 E29.0121
G1 X94.745 Y57.837 E29.16049
G1 X97.161 Y56.783 E29.30416
G1 X99.306 Y55.781 E29.4332
G1 X99.907 Y55.545 E29.46839
G1 X100.532 Y55.384 E29.50357
G1 X101.471 Y55.281 E29.55506
G1 X107.752 Y55.281 E29.8974
G1 X108.557 Y55.295 E29.94129
G1 X109.2 Y55.347 E29.97645
G1 X109.833 Y55.478 E30.01168
G1 X110.674 Y55.786 E30.0605
G1 X111.569 Y56.205 E30.11436
G1 X114.059 Y57.33 E30.26329
G1 X116.539 Y58.366 E30.40978
G1 X119.11 Y59.357 E30.55996
G1 X119.796 Y59.61 E30.59981
G1 X120.387 Y59.87 E30.63501
G1 X120.941 Y60.202 E30.67021
G1 X121.45 Y60.599 E30.70539
G1 X121.906 Y61.056 E30.74058
G1 X122.303 Y61.566 E30.77581
G1 X122.633 Y62.121 E30.811
G1 X122.892 Y62.713 E30.84622
G1 X123.076 Y63.332 E30.88142
G1 X123.182 Y63.969 E30.91662
G1 X123.219 Y64.83 E30.96359
G1 X123.219 Y127.964 E34.40471
G1 X123.257 Y130.639 E34.55052
G1 X123.37 Y133.309 E34.69618
G1 X123.56 Y135.981 E34.84219
G1 X123.826 Y138.672 E34.98958
G1 X124.167 Y141.335 E35.13591
G1 X124.617 Y144.185 E35.29317
G1 X124.691 Y144.969 E35.33609
G1 X124.689 Y148.881 E35.54932
G1 X124.679 Y149.566 E35.58666
G1 X124.63 Y150.21 E35.62186
G1 X124.502 Y150.843 E35.65706
G1 X124.296 Y151.455 E35.69226
G1 X124.016 Y152.037 E35.72746
G1 X123.667 Y152.58 E35.76264
G1 X123.253 Y153.076 E35.79786
G1 X122.781 Y153.517 E35.83306
G1 X122.258 Y153.896 E35.86827
G1 X121.692 Y154.208 E35.90349
G1 X121.092 Y154.447 E35.9387
G1 X120.468 Y154.611 E35.97386
G1 X119.515 Y154.719 E36.02614
G1 X91.169 Y154.719 E37.57114
G1 X90.471 Y154.71 E37.60919
G1 X89.827 Y154.661 E37.64439
G1 X89.194 Y154.534 E37.67958
G1 X88.581 Y154.329 E37.71481
G1 X87.998 Y154.05 E37.75004
G1 X87.455 Y153.702 E37.78519
G1 X86.958 Y153.289 E37.82041
G1 X86.517 Y152.818 E37.85558
G1 X86.136 Y152.295 E37.89085
G1 X85.824 Y151.73 E37.92603
G1 X85.583 Y151.131 E37.96122
G1 X85.419 Y150.506 E37.99644
G1 X85.31 Y149.533 E38.0498
G1 X85.311 Y145.626 E38.26275
G1 X85.322 Y144.916 E38.30146
G1 X85.387 Y144.171 E38.34222
G1 X85.634 Y142.632 E38.42717
G1 X86.014 Y139.958 E38.57438
G1 X86.32 Y137.26 E38.72238
G1 X86.543 Y134.634 E38.86603
G1 X86.695 Y131.945 E39.01282
G1 X86.781 Y127.865 E39.23525
G1 X86.782 Y65.096 E42.65648
G1 X86.792 Y64.43 E42.69279
G1 X86.841 Y63.786 E42.72799
G1 X86.97 Y63.153 E42.7632
G1 X87.176 Y62.541 E42.7984
G1 X87.456 Y61.959 E42.8336
G1 X87.806 Y61.416 E42.86881
M204 S3000
M205 X10 Y10
G1 F2400 E36.86881
;MESH:Spool-HolderV2_608zzBearingRemod v2.stl
G0 F3375 X91.335 Y64.944
G0 X92.444 Y64.944
G0 X93.42 Y145.57
M204 S1800
M205 X8 Y8
;TYPE:WALL-INNER
G1 F2400 E42.86881
G1 F900 X93.245 Y145.89 E42.88869
G1 X92.96 Y146.191 E42.91128
G1 X92.565 Y146.422 E42.93622
G1 X92.058 Y146.518 E42.96435
G1 X92.058 Y147.971 E43.04354
G1 X117.942 Y147.971 E44.45435
G1 X117.942 Y146.519 E44.53349
G1 X117.435 Y146.422 E44.56163
G1 X117.039 Y146.191 E44.58662
G1 X116.755 Y145.889 E44.60921
G1 X116.58 Y145.569 E44.62909
G1 X116.471 Y145.187 E44.65074
G1 X116.471 Y66.029 E48.96525
G1 X93.529 Y66.029 E50.21571
G1 X93.529 Y145.187 E54.53022
G1 X93.42 Y145.57 E54.55192
M204 S3000
M205 X10 Y10
G0 F3375 X92.404 Y146.016
M204 S1800
M205 X8 Y8
G1 F900 X92 Y146.092 E54.57433
G1 X91.621 Y146.092 E54.59499
G1 X91.621 Y148.408 E54.72122
G1 X118.379 Y148.408 E56.17967
G1 X118.379 Y146.472 E56.28519
G1 X118.379 Y146.093 E56.30585
G1 X118 Y146.093 E56.3265
G1 X117.596 Y146.016 E56.34892
G1 X117.314 Y145.851 E56.36673
G1 X117.11 Y145.635 E56.38292
G1 X116.986 Y145.407 E56.39707
G1 X116.908 Y145.135 E56.41249
G1 X116.908 Y65.592 E60.74799
G1 X93.092 Y65.592 E62.04608
G1 X93.092 Y145.135 E66.38157
G1 X93.014 Y145.407 E66.397
G1 X92.889 Y145.636 E66.41122
G1 X92.686 Y145.851 E66.42733
G1 X92.404 Y146.016 E66.44514
M204 S3000
M205 X10 Y10
G0 F3375 X92.534 Y145.381
M204 S1800
M205 X8 Y8
G1 F900 X92.412 Y145.511 E66.45486
G1 X92.242 Y145.609 E66.46555
G1 X92 Y145.655 E66.47898
G1 X91.184 Y145.655 E66.52346
G1 X91.184 Y148.845 E66.69733
G1 X118.816 Y148.845 E68.20341
G1 X118.816 Y146.472 E68.33275
G1 X118.816 Y145.656 E68.37723
G1 X118 Y145.656 E68.4217
G1 X117.758 Y145.609 E68.43514
G1 X117.588 Y145.511 E68.44584
G1 X117.466 Y145.381 E68.45555
G1 X117.345 Y145.084 E68.47303
G1 X117.345 Y65.155 E72.82957
G1 X92.655 Y65.155 E74.1753
G1 X92.655 Y145.079 E78.53156
G1 X92.534 Y145.381 E78.54929
M204 S3000
M205 X10 Y10
G0 F3375 X92.178 Y145.127
M204 S1800
M205 X8 Y8
;TYPE:WALL-OUTER
G1 F900 X92.062 Y145.218 E78.55733
G1 X90.747 Y145.218 E78.629
G1 X90.747 Y149.282 E78.85051
G1 X119.253 Y149.282 E80.40423
G1 X119.253 Y146.472 E80.55739
G1 X119.253 Y145.219 E80.62568
G1 X117.939 Y145.219 E80.6973
G1 X117.822 Y145.127 E80.70542
G1 X117.785 Y145.039 E80.71062
G1 X117.782 Y64.718 E85.08852
G1 X92.218 Y64.718 E86.48189
G1 X92.215 Y145.039 E90.85979
G1 X92.178 Y145.127 E90.86499
M204 S3000
M205 X10 Y10
G0 F3375 X92.062 Y145.218
G0 X91.609 Y145.218
G0 X91.609 Y145.93
G0 X92.176 Y147.627
G0 X92.402 Y147.627
M204 S1800
M205 X8 Y8
;TYPE:SKIN
G1 F900 X117.598 Y147.627 E92.2383
G1 X117.598 Y147.059 E92.26926
G1 X117.598 Y146.8 E92.28337
G1 X117.305 Y146.741 E92.29966
G1 X116.822 Y146.463 E92.33004
G1 X116.493 Y146.111 E92.3563
G1 X116.27 Y145.715 E92.38107
G1 X116.127 Y145.239 E92.40816
G1 X116.127 Y66.373 E96.70676
G1 X93.873 Y66.373 E97.91971
G1 X93.873 Y145.22 E102.21727
G1 X93.748 Y145.673 E102.24288
G1 X93.538 Y146.068 E102.26727
G1 X93.178 Y146.462 E102.29636
G1 X92.695 Y146.741 E102.32676
G1 X92.402 Y146.8 E102.34305
G1 X92.402 Y147.627 E102.38813
M204 S3000
M205 X10 Y10
G0 F3375 X93.023 Y147.408
M204 S1800
M205 X8 Y8
G1 F900 X92.619 Y147.004 E102.41927
M204 S3000
M205 X10 Y10
G0 F3375 X93.03 Y146.797
M204 S1800
M205 X8 Y8
G1 F900 X93.641 Y147.408 E102.46636
M204 S3000
M205 X10 Y10
G0 F3375 X94.259 Y147.408
M204 S1800
M205 X8 Y8
G1 F900 X93.396 Y146.545 E102.53289
M204 S3000
M205 X10 Y10
G0 F3375 X93.687 Y146.218
M204 S1800
M205 X8 Y8
G1 F900 X94.877 Y147.408 E102.62461
M204 S3000
M205 X10 Y10
G0 F3375 X95.495 Y147.408
M204 S1800
M205 X8 Y8
G1 F900 X93.91 Y145.823 E102.74679
M204 S3000
M205 X10 Y10
G0 F3375 X94.055 Y145.35
M204 S1800
M205 X8 Y8
G1 F900 X96.113 Y147.408 E102.90542
M204 S3000
M205 X10 Y10
G0 F3375 X96.731 Y147.408
M204 S1800
M205 X8 Y8
G1 F900 X94.089 Y144.766 E103.10907
M204 S3000
M205 X10 Y10
G0 F3375 X94.089 Y144.148
M204 S1800
M205 X8 Y8
G1 F900 X97.349 Y147.408 E103.36036
M204 S3000
M205 X10 Y10
G0 F3375 X97.967 Y147.408
M204 S1800
M205 X8 Y8
G1 F900 X94.089 Y143.53 E103.65928
M204 S3000
M205 X10 Y10
G0 F3375 X94.089 Y142.912
M204 S1800
M205 X8 Y8
G1 F900 X98.585 Y147.408 E104.00584
M204 S3000
M205 X10 Y10
G0 F3375 X99.203 Y147.408
M204 S1800
M205 X8 Y8
G1 F900 X94.089 Y142.294 E104.40004
M204 S3000
M205 X10 Y10
G0 F3375 X94.089 Y141.676
M204 S1800
M205 X8 Y8
G1 F900 X99.821 Y147.408 E104.84187
M204 S3000
M205 X10 Y10
G0 F3375 X100.439 Y147.408
M204 S1800
M205 X8 Y8
G1 F900 X94.089 Y141.058 E105.33134
M204 S3000
M205 X10 Y10
G0 F3375 X94.089 Y140.44
M204 S1800
M205 X8 Y8
G1 F900 X101.057 Y147.408 E105.86844
M204 S3000
M205 X10 Y10
G0 F3375 X101.675 Y147.408
M204 S1800
M205 X8 Y8
G1 F900 X94.089 Y139.822 E106.45319
M204 S3000
M205 X10 Y10
G0 F3375 X94.089 Y139.204
M204 S1800
M205 X8 Y8
G1 F900 X102.293 Y147.408 E107.08557
M204 S3000
M205 X10 Y10
G0 F3375 X102.911 Y147.408
M204 S1800
M205 X8 Y8
G1 F900 X94.089 Y138.586 E107.76558
M204 S3000
M205 X10 Y10
G0 F3375 X94.089 Y137.968
M204 S1800
M205 X8 Y8
G1 F900 X103.529 Y147.408 E108.49323
M204 S3000
M205 X10 Y10
G0 F3375 X104.147 Y147.408
M204 S1800
M205 X8 Y8
G1 F900 X94.089 Y137.35 E109.26852
M204 S3000
M205 X10 Y10
G0 F3375 X94.089 Y136.732
M204 S1800
M205 X8 Y8
G1 F900 X104.765 Y147.408 E110.09145
M204 S3000
M205 X10 Y10
G0 F3375 X105.383 Y147.408
M204 S1800
M205 X8 Y8
G1 F900 X94.089 Y136.114 E110.96201
M204 S3000
M205 X10 Y10
G0 F3375 X94.089 Y135.496
M204 S1800
M205 X8 Y8
G1 F900 X106.001 Y147.408 E111.88021
M204 S3000
M205 X10 Y10
G0 F3375 X106.619 Y147.408
M204 S1800
M205 X8 Y8
G1 F900 X94.089 Y134.878 E112.84604
M204 S3000
M205 X10 Y10
G0 F3375 X94.089 Y134.26
M204 S1800
M205 X8 Y8
G1 F900 X107.237 Y147.408 E113.85951
M204 S3000
M205 X10 Y10
G0 F3375 X107.855 Y147.408
M204 S1800
M205 X8 Y8
G1 F900 X94.089 Y133.642 E114.92062
M204 S3000
M205 X10 Y10
G0 F3375 X94.089 Y133.024
M204 S1800
M205 X8 Y8
G1 F900 X108.473 Y147.408 E116.02936
M204 S3000
M205 X10 Y10
G0 F3375 X109.091 Y147.408
M204 S1800
M205 X8 Y8
G1 F900 X94.089 Y132.406 E117.18575
M204 S3000
M205 X10 Y10
G0 F3375 X94.089 Y131.788
M204 S1800
M205 X8 Y8
G1 F900 X109.709 Y147.408 E118.38976
M204 S3000
M205 X10 Y10
G0 F3375 X110.327 Y147.408
M204 S1800
M205 X8 Y8
G1 F900 X94.089 Y131.17 E119.64142
M204 S3000
M205 X10 Y10
G0 F3375 X94.089 Y130.552
M204 S1800
M205 X8 Y8
G1 F900 X110.945 Y147.408 E120.94071
M204 S3000
M205 X10 Y10
G0 F3375 X111.563 Y147.408
M204 S1800
M205 X8 Y8
G1 F900 X94.089 Y129.934 E122.28763
M204 S3000
M205 X10 Y10
G0 F3375 X94.089 Y129.316
M204 S1800
M205 X8 Y8
G1 F900 X112.181 Y147.408 E123.6822
M204 S3000
M205 X10 Y10
G0 F3375 X112.799 Y147.408
