;FLAVOR:Marlin
;TIME:209
;Filament used: 0.278684m
;Layer height: 0.24
;MINX:97.404
;MINY:90.145
;MINZ:0.3
;MAXX:112.596
;MAXY:119.855
;MAXZ:7.5
;Generated with Cura_SteamEngine 5.2.1
M140 S80
M105
M190 S80
M104 S235
M105
M109 S235
M82 ;absolute extrusion mode
G21 ;metric values
G90 ;absolute positioning
M82 ;set extruder to absolute mode
M107 ;start with the fan off
G28 X0 Y0 ;move X/Y to min endstops
G28 Z0 ;move Z to min endstops
G1 Z15.0 F150.0 ;move the platform down 15mm
G92 E0 ;zero the extruded length
G1 F200 E3 ;extrude 3mm of feed stock
G92 E0 ;zero the extruded length again
G1 F150.0
G0 Y20 F150.0
M117 Printing...
G5
G92 E0
G92 E0
G1 F2400 E-6
;LAYER_COUNT:31
;LAYER:0
M107
M204 S3000
M205 X10 Y10
G1 F600 Z0.375
G0 F3375 X99.34 Y92.053 Z0.375
M204 S1800
M205 X8 Y8
;TYPE:SKIRT
G1 F600 Z0.3
G1 F2400 E0
G1 X99.879 Y91.572 E0.03938
G1 X100.469 Y91.155 E0.07875
G1 X101.101 Y90.805 E0.11813
G1 X101.768 Y90.527 E0.15752
G1 X102.461 Y90.324 E0.19688
G1 X103.173 Y90.2 E0.23627
G1 X103.76 Y90.157 E0.26835
G1 X104.264 Y90.145 E0.29583
G1 X105.359 Y90.145 E0.35551
G1 X106.151 Y90.156 E0.39868
G1 X106.871 Y90.206 E0.43802
G1 X107.582 Y90.336 E0.47742
G1 X108.274 Y90.543 E0.51678
G1 X108.939 Y90.825 E0.55615
G1 X109.569 Y91.18 E0.59557
G1 X110.155 Y91.601 E0.6349
G1 X110.692 Y92.085 E0.6743
G1 X111.172 Y92.625 E0.71368
G1 X111.589 Y93.215 E0.75306
G1 X111.938 Y93.848 E0.79246
G1 X112.216 Y94.515 E0.83184
G1 X112.418 Y95.209 E0.87124
G1 X112.542 Y95.92 E0.91058
G1 X112.584 Y96.501 E0.94233
G1 X112.596 Y97.005 E0.96981
G1 X112.595 Y112.67 E1.82363
G1 X112.586 Y113.397 E1.86326
G1 X112.538 Y114.118 E1.90264
G1 X112.409 Y114.829 E1.94203
G1 X112.203 Y115.521 E1.98138
G1 X111.922 Y116.187 E2.02078
G1 X111.569 Y116.817 E2.06014
G1 X111.149 Y117.405 E2.09953
G1 X110.666 Y117.942 E2.13889
G1 X110.126 Y118.423 E2.17831
G1 X109.537 Y118.841 E2.21767
G1 X108.906 Y119.192 E2.25703
G1 X108.239 Y119.471 E2.29644
G1 X107.546 Y119.674 E2.3358
G1 X106.834 Y119.8 E2.37521
G1 X106.24 Y119.843 E2.40767
G1 X105.736 Y119.855 E2.43515
G1 X104.557 Y119.854 E2.49941
G1 X103.859 Y119.845 E2.53746
G1 X103.138 Y119.796 E2.57684
G1 X102.427 Y119.668 E2.61622
G1 X101.735 Y119.461 E2.65559
G1 X101.069 Y119.18 E2.69499
G1 X100.439 Y118.826 E2.73438
G1 X99.852 Y118.405 E2.77375
G1 X99.315 Y117.922 E2.81312
G1 X98.834 Y117.383 E2.85249
G1 X98.416 Y116.794 E2.89186
G1 X98.066 Y116.162 E2.93123
G1 X97.787 Y115.495 E2.97064
G1 X97.584 Y114.802 E3.01
G1 X97.459 Y114.09 E3.0494
G1 X97.415 Y113.492 E3.08208
G1 X97.404 Y112.983 E3.10983
G1 X97.405 Y97.261 E3.96676
G1 X97.414 Y96.596 E4.00301
G1 X97.463 Y95.875 E4.0424
G1 X97.592 Y95.164 E4.08179
G1 X97.799 Y94.472 E4.12115
G1 X98.081 Y93.807 E4.16052
G1 X98.435 Y93.177 E4.19991
G1 X98.856 Y92.59 E4.23928
G1 X99.34 Y92.053 E4.27869
M204 S3000
M205 X10 Y10
G0 F3375 X99.767 Y92.247
M204 S1800
M205 X8 Y8
G1 F2400 X100.302 Y91.798 E4.31676
G1 X100.885 Y91.414 E4.35481
G1 X101.507 Y91.099 E4.39281
G1 X102.162 Y90.857 E4.43087
G1 X102.84 Y90.692 E4.4689
G1 X103.853 Y90.584 E4.52443
G1 X105.359 Y90.582 E4.60651
G1 X106.144 Y90.593 E4.6493
G1 X106.84 Y90.643 E4.68734
G1 X107.526 Y90.772 E4.72538
G1 X108.193 Y90.979 E4.76345
G1 X108.831 Y91.26 E4.80144
G1 X109.433 Y91.613 E4.83948
G1 X109.991 Y92.032 E4.87752
G1 X110.497 Y92.513 E4.91557
G1 X110.945 Y93.048 E4.9536
G1 X111.329 Y93.631 E4.99165
G1 X111.644 Y94.254 E5.0297
G1 X111.885 Y94.909 E5.06774
G1 X112.05 Y95.587 E5.10578
G1 X112.159 Y96.618 E5.16228
G1 X112.159 Y112.664 E6.03687
G1 X112.15 Y113.391 E6.0765
G1 X112.101 Y114.088 E6.11458
G1 X111.973 Y114.774 E6.15262
G1 X111.768 Y115.441 E6.19065
G1 X111.487 Y116.08 E6.2287
G1 X111.136 Y116.683 E6.26673
G1 X110.717 Y117.241 E6.30476
G1 X110.238 Y117.748 E6.34278
G1 X109.704 Y118.197 E6.38081
G1 X109.121 Y118.582 E6.41889
G1 X108.499 Y118.898 E6.45691
G1 X107.845 Y119.141 E6.49494
G1 X107.167 Y119.307 E6.53299
G1 X106.122 Y119.418 E6.59026
G1 X104.562 Y119.417 E6.67529
G1 X103.864 Y119.408 E6.71334
G1 X103.168 Y119.36 E6.75137
G1 X102.482 Y119.231 E6.78941
G1 X101.815 Y119.025 E6.82746
G1 X101.177 Y118.745 E6.86544
G1 X100.574 Y118.393 E6.90349
G1 X100.015 Y117.974 E6.94157
G1 X99.509 Y117.495 E6.97955
G1 X99.06 Y116.96 E7.01762
G1 X98.675 Y116.378 E7.05565
G1 X98.36 Y115.755 E7.0937
G1 X98.117 Y115.101 E7.13173
G1 X97.951 Y114.423 E7.16977
G1 X97.841 Y113.376 E7.22715
G1 X97.842 Y97.267 E8.10518
G1 X97.851 Y96.602 E8.14143
G1 X97.9 Y95.905 E8.17951
G1 X98.029 Y95.219 E8.21756
G1 X98.235 Y94.553 E8.25555
G1 X98.516 Y93.914 E8.2936
G1 X98.868 Y93.312 E8.33161
G1 X99.287 Y92.753 E8.36969
G1 X99.767 Y92.247 E8.4077
M204 S3000
M205 X10 Y10
G0 F3375 X100.194 Y92.449
M204 S1800
M205 X8 Y8
G1 F2400 X100.723 Y92.034 E8.44435
G1 X101.297 Y91.685 E8.48096
G1 X101.909 Y91.406 E8.51762
G1 X102.55 Y91.202 E8.55429
G1 X103.21 Y91.076 E8.59091
G1 X103.921 Y91.019 E8.62979
G1 X105.359 Y91.019 E8.70817
G1 X106.138 Y91.03 E8.75063
G1 X106.809 Y91.079 E8.7873
G1 X107.468 Y91.208 E8.8239
G1 X108.108 Y91.414 E8.86055
G1 X108.719 Y91.695 E8.8972
G1 X109.293 Y92.046 E8.93387
G1 X109.82 Y92.463 E8.9705
G1 X110.295 Y92.939 E9.00716
G1 X110.709 Y93.469 E9.04381
G1 X111.058 Y94.043 E9.08043
G1 X111.336 Y94.656 E9.11711
G1 X111.54 Y95.296 E9.15373
G1 X111.666 Y95.957 E9.1904
G1 X111.722 Y96.665 E9.22911
G1 X111.722 Y112.659 E10.10087
G1 X111.713 Y113.386 E10.14049
G1 X111.664 Y114.057 E10.17716
G1 X111.537 Y114.717 E10.2138
G1 X111.332 Y115.357 E10.25043
G1 X111.052 Y115.969 E10.28711
G1 X110.702 Y116.543 E10.32375
G1 X110.287 Y117.071 E10.36036
G1 X109.811 Y117.547 E10.39705
G1 X109.282 Y117.962 E10.43369
G1 X108.708 Y118.312 E10.47034
G1 X108.097 Y118.591 E10.50695
G1 X107.456 Y118.796 E10.54363
G1 X106.796 Y118.924 E10.58027
G1 X106.077 Y118.981 E10.61958
G1 X104.568 Y118.981 E10.70183
G1 X103.87 Y118.972 E10.73988
G1 X103.199 Y118.923 E10.77655
G1 X102.539 Y118.795 E10.81319
G1 X101.899 Y118.59 E10.84982
G1 X101.288 Y118.31 E10.88646
G1 X100.714 Y117.96 E10.9231
G1 X100.186 Y117.544 E10.95974
G1 X99.711 Y117.068 E10.99639
G1 X99.295 Y116.539 E11.03307
G1 X98.946 Y115.965 E11.06969
G1 X98.667 Y115.353 E11.10635
G1 X98.462 Y114.712 E11.14303
G1 X98.335 Y114.052 E11.17966
G1 X98.278 Y113.329 E11.21919
G1 X98.279 Y97.272 E12.09438
G1 X98.288 Y96.607 E12.13063
G1 X98.337 Y95.937 E12.16724
G1 X98.465 Y95.277 E12.20389
G1 X98.671 Y94.637 E12.24053
G1 X98.951 Y94.026 E12.27716
G1 X99.301 Y93.452 E12.31381
G1 X99.718 Y92.924 E12.35048
G1 X100.194 Y92.449 E12.38713
M204 S3000
M205 X10 Y10
G0 F3375 X100.619 Y92.66
M204 S1800
M205 X8 Y8
G1 F2400 X101.141 Y92.281 E12.42229
G1 X101.707 Y91.968 E12.45754
G1 X102.306 Y91.728 E12.49272
G1 X102.931 Y91.564 E12.52793
G1 X103.895 Y91.456 E12.58081
G1 X105.359 Y91.456 E12.6606
G1 X106.132 Y91.467 E12.70274
G1 X106.776 Y91.516 E12.73794
G1 X107.409 Y91.644 E12.77314
G1 X108.021 Y91.85 E12.80834
G1 X108.603 Y92.129 E12.84352
G1 X109.146 Y92.479 E12.87873
G1 X109.642 Y92.892 E12.91391
G1 X110.083 Y93.364 E12.94911
G1 X110.463 Y93.887 E12.98435
G1 X110.774 Y94.453 E13.01955
G1 X111.014 Y95.052 E13.05472
G1 X111.178 Y95.677 E13.08994
G1 X111.285 Y96.637 E13.14259
G1 X111.285 Y112.654 E14.0156
G1 X111.276 Y113.381 E14.05523
G1 X111.228 Y114.025 E14.09042
G1 X111.101 Y114.658 E14.12561
G1 X110.896 Y115.271 E14.16084
G1 X110.618 Y115.853 E14.196
G1 X110.269 Y116.397 E14.23123
G1 X109.857 Y116.894 E14.26641
G1 X109.386 Y117.336 E14.30162
G1 X108.864 Y117.716 E14.33681
G1 X108.299 Y118.029 E14.37202
G1 X107.699 Y118.27 E14.40726
G1 X107.075 Y118.435 E14.44244
G1 X106.105 Y118.544 E14.49564
G1 X104.574 Y118.544 E14.57909
G1 X103.876 Y118.535 E14.61714
G1 X103.232 Y118.486 E14.65234
G1 X102.599 Y118.359 E14.68753
G1 X101.986 Y118.154 E14.72276
G1 X101.403 Y117.875 E14.75799
G1 X100.86 Y117.527 E14.79314
G1 X100.363 Y117.114 E14.82836
G1 X99.922 Y116.643 E14.86353
G1 X99.541 Y116.12 E14.8988
G1 X99.229 Y115.555 E14.93398
G1 X98.988 Y114.956 E14.96917
G1 X98.824 Y114.331 E15.00439
G1 X98.715 Y113.359 E15.0577
G1 X98.715 Y97.278 E15.93419
G1 X98.724 Y96.613 E15.97044
G1 X98.773 Y95.969 E16.00565
G1 X98.901 Y95.336 E16.04085
G1 X99.106 Y94.724 E16.07602
G1 X99.385 Y94.141 E16.11125
G1 X99.734 Y93.598 E16.14643
G1 X100.148 Y93.102 E16.18165
G1 X100.619 Y92.66 E16.21685
M204 S3000
M205 X10 Y10
G1 F2400 E10.21685
;MESH:Spool-HolderV2_Bearing PinRemod v2.stl
G0 F3375 X104.378 Y96.01
G0 X104.378 Y97.119
G1 F2400 E16.21685
G0 F3375 X104.589 Y97.33
M204 S1800
M205 X8 Y8
;TYPE:WALL-INNER
G1 F900 X104.589 Y112.67 E17.05296
G1 X105.411 Y112.67 E17.09776
G1 X105.411 Y97.741 E17.91147
G1 X105.411 Y97.33 E17.93387
G1 X104.589 Y97.33 E17.97867
M204 S3000
M205 X10 Y10
G0 F3375 X105 Y97.741
M204 S1800
M205 X8 Y8
G1 F1024.2 X105 Y112.259 E18.67401
M204 S3000
M205 X10 Y10
G0 F3375 X104.834 Y97.575
G0 X104.152 Y96.893
M204 S1800
M205 X8 Y8
;TYPE:WALL-OUTER
G1 F900 X104.152 Y113.107 E19.55775
G1 X105.848 Y113.107 E19.65019
G1 X105.848 Y97.741 E20.48772
G1 X105.848 Y96.893 E20.53394
G1 X104.152 Y96.893 E20.62638
M204 S3000
M205 X10 Y10
G0 F3375 X104.152 Y97.493
G0 X104.799 Y97.814
;MESH:NONMESH
G0 F600 X104.799 Y97.814 Z0.54
G0 F3375 X104.822 Y98.233
;TIME_ELAPSED:17.875766
;LAYER:1
M106 S127.5
M204 S1800
M205 X8 Y8
;TYPE:WALL-INNER
;MESH:Spool-HolderV2_Bearing PinRemod v2.stl
G1 F2132 X104.822 Y111.767 E21.10713
G1 X105.178 Y111.767 E21.11978
G1 X105.178 Y98.411 E21.59421
G1 X105.178 Y98.233 E21.60053
G1 X104.822 Y98.233 E21.61318
M204 S3000
M205 X10 Y10
G0 F6187.5 X104.414 Y97.825
M204 S1800
M205 X8 Y8
G1 F1650 X104.414 Y112.175 E22.27183
G1 X105.586 Y112.175 E22.32562
G1 X105.586 Y98.411 E22.95737
G1 X105.586 Y97.825 E22.98427
G1 X104.414 Y97.825 E23.03806
M204 S3000
M205 X10 Y10
G0 F6187.5 X103.954 Y97.365
M204 S1800
M205 X8 Y8
G1 F1650 X103.954 Y112.635 E23.73894
G1 X106.046 Y112.635 E23.83496
G1 X106.046 Y98.411 E24.48783
G1 X106.046 Y97.365 E24.53584
G1 X103.954 Y97.365 E24.63186
M204 S3000
M205 X10 Y10
G0 F6187.5 X103.494 Y96.905
M204 S1800
M205 X8 Y8
;TYPE:WALL-OUTER
G1 F1200 X103.494 Y113.095 E25.37496
G1 X106.506 Y113.095 E25.51321
G1 X106.506 Y98.411 E26.18719
G1 X106.506 Y96.905 E26.25632
G1 X103.494 Y96.905 E26.39456
M204 S3000
M205 X10 Y10
G0 F6187.5 X103.494 Y97.505
G0 X104.554 Y97.83
;MESH:NONMESH
G0 F600 X104.554 Y97.83 Z0.78
G0 F6187.5 X104.467 Y98.285
;TIME_ELAPSED:23.345581
;LAYER:2
M106 S255
M204 S1800
M205 X8 Y8
;TYPE:WALL-INNER
;MESH:Spool-HolderV2_Bearing PinRemod v2.stl
G1 F2400 X104.467 Y111.715 E27.01099
G1 X105.533 Y111.715 E27.05992
G1 X105.533 Y98.818 E27.65188
G1 X105.533 Y98.285 E27.67634
G1 X104.467 Y98.285 E27.72527
M204 S3000
M205 X10 Y10
G0 F9000 X104.007 Y97.825
M204 S1800
M205 X8 Y8
G1 F2400 X104.007 Y112.175 E28.38392
G1 X105.993 Y112.175 E28.47507
G1 X105.993 Y98.818 E29.08815
G1 X105.993 Y97.825 E29.13372
G1 X104.007 Y97.825 E29.22488
M204 S3000
M205 X10 Y10
G0 F9000 X103.547 Y97.365
M204 S1800
M205 X8 Y8
G1 F2400 X103.547 Y112.635 E29.92576
G1 X106.453 Y112.635 E30.05914
G1 X106.453 Y98.818 E30.69333
G1 X106.453 Y97.365 E30.76002
G1 X103.547 Y97.365 E30.8934
M204 S3000
M205 X10 Y10
G0 F9000 X103.087 Y96.905
M204 S1800
M205 X8 Y8
;TYPE:WALL-OUTER
G1 F1500 X103.087 Y113.095 E31.6365
G1 X106.913 Y113.095 E31.81211
G1 X106.913 Y98.818 E32.46741
G1 X106.913 Y96.905 E32.55522
G1 X103.087 Y96.905 E32.73083
M204 S3000
M205 X10 Y10
G0 F9000 X103.087 Y97.505
G0 X103.757 Y97.575
G0 X104.802 Y98.62
M204 S1800
M205 X8 Y8
;TYPE:SKIN
G1 F1118 X104.802 Y111.38 E33.23374
G1 X105.198 Y111.38 E33.24935
G1 X105.198 Y98.818 E33.74446
G1 X105.198 Y98.62 E33.75226
G1 X104.802 Y98.62 E33.76787
M204 S3000
M205 X10 Y10
;MESH:NONMESH
G0 F600 X104.802 Y98.62 Z1.02
G0 F9000 X104.692 Y98.823
;TIME_ELAPSED:29.304965
;LAYER:3
M204 S1800
M205 X8 Y8
;TYPE:WALL-INNER
;MESH:Spool-HolderV2_Bearing PinRemod v2.stl
G1 F1747.2 X104.692 Y111.177 E34.5272
G1 X105.308 Y111.177 E34.56507
G1 X105.308 Y98.823 E35.3244
G1 X104.692 Y98.823 E35.36226
M204 S3000
M205 X10 Y10
G0 F9000 X104.154 Y98.285
M204 S1800
M205 X8 Y8
G1 F2339.7 X104.154 Y111.715 E35.97869
G1 X105.846 Y111.715 E36.05635
G1 X105.846 Y98.285 E36.67277
G1 X104.154 Y98.285 E36.75043
M204 S3000
M205 X10 Y10
G0 F9000 X103.694 Y97.825
M204 S1800
M205 X8 Y8
G1 F2339.7 X103.694 Y112.175 E37.40908
G1 X106.306 Y112.175 E37.52897
G1 X106.306 Y97.825 E38.18762
G1 X103.694 Y97.825 E38.30751
M204 S3000
M205 X10 Y10
G0 F9000 X103.234 Y97.365
M204 S1800
M205 X8 Y8
G1 F2339.7 X103.234 Y112.635 E39.00839
G1 X106.766 Y112.635 E39.1705
G1 X106.766 Y97.365 E39.87138
G1 X103.234 Y97.365 E40.0335
M204 S3000
M205 X10 Y10
G0 F9000 X102.774 Y96.905
M204 S1800
M205 X8 Y8
;TYPE:WALL-OUTER
G1 F1462.3 X102.774 Y113.095 E40.7766
G1 X107.226 Y113.095 E40.98094
G1 X107.226 Y96.905 E41.72405
G1 X102.774 Y96.905 E41.92839
M204 S3000
M205 X10 Y10
G0 F9000 X102.774 Y97.505
G0 X103.834 Y97.83
;MESH:NONMESH
G0 F600 X103.834 Y97.83 Z1.26
G0 F9000 X104.057 Y100.287
;TIME_ELAPSED:35.044459
;LAYER:4
M204 S1800
M205 X8 Y8
;TYPE:FILL
;MESH:Spool-HolderV2_Bearing PinRemod v2.stl
G1 F2363.1 X105.94 Y102.17 E42.05062
G1 X106.021 Y102.251
M204 S3000
M205 X10 Y10
G0 F9000 X104.058 Y102.17
M204 S1800
M205 X8 Y8
G1 F2363.1 X105.94 Y100.288 E42.17278
G1 X106.021 Y100.207
M204 S3000
M205 X10 Y10
G0 F9000 X105.94 Y104.059
M204 S1800
M205 X8 Y8
G1 F2363.1 X104.059 Y105.94 E42.29488
G1 X103.978 Y106.021
M204 S3000
M205 X10 Y10
G0 F9000 X105.941 Y105.941
M204 S1800
M205 X8 Y8
G1 F2363.1 X104.057 Y104.057 E42.41717
G1 X103.976 Y103.976
M204 S3000
M205 X10 Y10
G0 F9000 X104.058 Y107.828
M204 S1800
M205 X8 Y8
G1 F2363.1 X105.941 Y109.711 E42.5394
G1 X106.022 Y109.792
M204 S3000
M205 X10 Y10
G0 F9000 X104.059 Y109.71
M204 S1800
M205 X8 Y8
G1 F2363.1 X105.94 Y107.828 E42.66153
G1 X106.021 Y107.747
M204 S3000
M205 X10 Y10
G0 F9000 X103.898 Y98.285
M204 S1800
M205 X8 Y8
;TYPE:WALL-INNER
G1 F2363.1 X103.898 Y111.715 E43.27795
G1 X106.102 Y111.715 E43.37911
G1 X106.102 Y99.387 E43.94495
G1 X106.102 Y98.285 E43.99554
G1 X103.898 Y98.285 E44.0967
M204 S3000
M205 X10 Y10
G0 F9000 X103.438 Y97.825
M204 S1800
M205 X8 Y8
G1 F2363.1 X103.438 Y112.175 E44.75535
G1 X106.562 Y112.175 E44.89874
G1 X106.562 Y99.387 E45.48569
G1 X106.562 Y97.825 E45.55739
G1 X103.438 Y97.825 E45.70077
M204 S3000
M205 X10 Y10
G0 F9000 X102.978 Y97.365
M204 S1800
M205 X8 Y8
G1 F2363.1 X102.978 Y112.635 E46.40165
G1 X107.022 Y112.635 E46.58727
G1 X107.022 Y99.387 E47.19534
G1 X107.022 Y97.365 E47.28814
G1 X102.978 Y97.365 E47.47376
M204 S3000
M205 X10 Y10
G0 F9000 X102.518 Y96.905
M204 S1800
M205 X8 Y8
;TYPE:WALL-OUTER
G1 F1476.9 X102.518 Y113.095 E48.21687
G1 X107.482 Y113.095 E48.44471
G1 X107.482 Y99.387 E49.07389
G1 X107.482 Y96.905 E49.18781
G1 X102.518 Y96.905 E49.41565
M204 S3000
M205 X10 Y10
G0 F9000 X102.518 Y97.505
G0 X103.578 Y97.83
;MESH:NONMESH
G0 F600 X103.578 Y97.83 Z1.5
G0 F9000 X104.302 Y100.532
;TIME_ELAPSED:40.819894
;LAYER:5
M204 S1800
M205 X8 Y8
;TYPE:FILL
;MESH:Spool-HolderV2_Bearing PinRemod v2.stl
G1 F2400 X105.696 Y101.926 E49.50614
G1 X105.777 Y102.007
M204 S3000
M205 X10 Y10
G0 F9000 X104.303 Y101.925
M204 S1800
M205 X8 Y8
G1 F2400 X105.696 Y100.532 E49.59656
G1 X105.777 Y100.451
M204 S3000
M205 X10 Y10
G0 F9000 X105.696 Y104.303
M204 S1800
M205 X8 Y8
G1 F2400 X104.303 Y105.696 E49.68698
G1 X104.222 Y105.777
M204 S3000
M205 X10 Y10
G0 F9000 X105.696 Y105.696
M204 S1800
M205 X8 Y8
G1 F2400 X104.302 Y104.302 E49.77747
G1 X104.221 Y104.221
M204 S3000
M205 X10 Y10
G0 F9000 X104.302 Y108.072
M204 S1800
