;FLAVOR:Marlin
;TIME:473
;Filament used: 0.44729m
;Layer height: 0.24
;MINX:89.571
;MINY:85.672
;MINZ:0.3
;MAXX:120.43
;MAXY:124.301
;MAXZ:5.82
;Generated with Cura_SteamEngine 5.2.1
M140 S80
M105
M190 S80
M104 S235
M105
M109 S235
M82 ;absolute extrusion mode
G21 ;metric values
G90 ;absolute positioning
M82 ;set extruder to absolute mode
M107 ;start with the fan off
G28 X0 Y0 ;move X/Y to min endstops
G28 Z0 ;move Z to min endstops
G1 Z15.0 F150.0 ;move the platform down 15mm
G92 E0 ;zero the extruded length
G1 F200 E3 ;extrude 3mm of feed stock
G92 E0 ;zero the extruded length again
G1 F150.0
G0 Y20 F150.0
M117 Printing...
G5
G92 E0
G92 E0
G1 F2400 E-6
;LAYER_COUNT:24
;LAYER:0
M107
M204 S3000
M205 X10 Y10
G1 F600 Z0.375
G0 F3375 X94.001 Y87.668 Z0.375
M204 S1800
M205 X8 Y8
;TYPE:SKIRT
G1 F600 Z0.3
G1 F2400 E0
G1 X94.5 Y87.18 E0.03424
G1 X95.052 Y86.753 E0.06847
G1 X95.649 Y86.391 E0.10272
G1 X96.283 Y86.1 E0.13694
G1 X96.946 Y85.884 E0.17115
G1 X97.63 Y85.745 E0.20539
G1 X98.312 Y85.685 E0.23897
G1 X98.823 Y85.672 E0.26405
G1 X103.445 Y85.672 E0.49078
G1 X104.234 Y85.683 E0.52948
G1 X104.93 Y85.733 E0.56371
G1 X105.616 Y85.862 E0.59795
G1 X106.282 Y86.068 E0.63215
G1 X106.921 Y86.35 E0.66641
G1 X107.523 Y86.703 E0.70065
G1 X108.081 Y87.122 E0.73488
G1 X108.587 Y87.602 E0.76909
G1 X109.119 Y88.238 E0.80977
G1 X110.015 Y89.648 E0.89172
G1 X111.493 Y91.9 E1.02385
G1 X112.994 Y94.052 E1.15256
G1 X114.6 Y96.221 E1.28495
G1 X116.231 Y98.298 E1.4145
G1 X118.342 Y100.819 E1.5758
G1 X118.932 Y101.5 E1.62
G1 X119.358 Y102.053 E1.65424
G1 X119.718 Y102.651 E1.68848
G1 X120.007 Y103.286 E1.7227
G1 X120.222 Y103.95 E1.75694
G1 X120.36 Y104.634 E1.79117
G1 X120.419 Y105.381 E1.82793
G1 X120.43 Y106.047 E1.8606
G1 X120.429 Y112.993 E2.20133
G1 X120.419 Y113.695 E2.23577
G1 X120.369 Y114.391 E2.27
G1 X120.24 Y115.077 E2.30425
G1 X119.992 Y115.879 E2.34542
G1 X119.534 Y116.855 E2.39831
G1 X118.921 Y118.117 E2.46714
G1 X118.65 Y118.712 E2.49921
G1 X118.306 Y119.44 E2.53871
G1 X117.972 Y120.053 E2.57295
G1 X117.57 Y120.624 E2.60721
G1 X117.042 Y121.217 E2.64615
G1 X116.453 Y121.738 E2.68473
G1 X115.899 Y122.173 E2.71928
G1 X115.253 Y122.623 E2.7579
G1 X114.416 Y123.095 E2.80504
G1 X113.738 Y123.409 E2.84169
G1 X113.026 Y123.687 E2.87919
G1 X112.162 Y123.952 E2.92352
G1 X111.529 Y124.096 E2.95536
G1 X110.827 Y124.218 E2.99032
G1 X110.248 Y124.278 E3.01887
G1 X109.684 Y124.301 E3.04656
G1 X108.832 Y124.296 E3.08835
G1 X107.964 Y124.228 E3.13106
G1 X107.077 Y124.082 E3.17516
G1 X106.348 Y123.911 E3.21189
G1 X105.551 Y123.642 E3.25316
G1 X104.912 Y123.384 E3.28696
G1 X104.383 Y123.14 E3.31554
G1 X102.319 Y122.067 E3.42965
G1 X99.866 Y120.861 E3.56374
G1 X97.485 Y119.774 E3.69213
G1 X96.237 Y119.248 E3.75857
G1 X95.241 Y118.815 E3.81184
G1 X94.618 Y118.5 E3.84609
G1 X94.035 Y118.117 E3.88031
G1 X93.426 Y117.611 E3.91915
G1 X91.777 Y115.966 E4.03341
G1 X91.307 Y115.483 E4.06647
G1 X90.85 Y114.956 E4.10068
G1 X90.456 Y114.38 E4.13492
G1 X90.13 Y113.763 E4.16915
G1 X89.878 Y113.112 E4.20339
G1 X89.701 Y112.437 E4.23762
G1 X89.588 Y111.637 E4.27726
G1 X89.571 Y110.792 E4.31872
G1 X89.571 Y101.196 E4.78944
G1 X89.582 Y100.49 E4.82408
G1 X89.633 Y99.794 E4.85831
G1 X89.763 Y99.108 E4.89256
G1 X89.931 Y98.551 E4.9211
G1 X90.962 Y95.64 E5.07259
G1 X91.769 Y93.127 E5.20207
G1 X92.648 Y90.084 E5.35744
G1 X92.88 Y89.426 E5.39167
G1 X93.186 Y88.798 E5.42594
G1 X93.561 Y88.21 E5.46015
G1 X94.001 Y87.668 E5.49439
M204 S3000
M205 X10 Y10
G0 F3375 X94.391 Y87.891
M204 S1800
M205 X8 Y8
G1 F2400 X94.881 Y87.43 E5.5274
G1 X95.422 Y87.031 E5.56037
G1 X96.007 Y86.699 E5.59337
G1 X96.627 Y86.439 E5.62635
G1 X97.273 Y86.254 E5.65931
G1 X97.937 Y86.147 E5.6923
G1 X98.823 Y86.109 E5.73581
G1 X103.445 Y86.109 E5.96254
G1 X104.228 Y86.12 E6.00095
G1 X104.898 Y86.169 E6.0339
G1 X105.558 Y86.298 E6.06689
G1 X106.198 Y86.504 E6.09987
G1 X106.809 Y86.785 E6.13286
G1 X107.382 Y87.136 E6.16583
G1 X107.91 Y87.552 E6.1988
G1 X108.385 Y88.029 E6.23182
G1 X108.92 Y88.74 E6.27547
G1 X109.644 Y89.879 E6.34168
G1 X111.128 Y92.14 E6.47434
G1 X112.659 Y94.335 E6.60562
G1 X114.233 Y96.46 E6.73535
G1 X115.888 Y98.568 E6.86681
G1 X118.033 Y101.129 E7.03069
G1 X118.602 Y101.786 E7.07332
G1 X119.011 Y102.32 E7.10632
G1 X119.354 Y102.898 E7.13929
G1 X119.626 Y103.513 E7.17228
G1 X119.823 Y104.156 E7.20527
G1 X119.943 Y104.817 E7.23822
G1 X119.982 Y105.388 E7.2663
G1 X119.993 Y106.047 E7.29863
G1 X119.992 Y112.987 E7.63907
G1 X119.982 Y113.689 E7.67351
G1 X119.933 Y114.359 E7.70646
G1 X119.804 Y115.019 E7.73945
G1 X119.567 Y115.756 E7.77743
G1 X119.141 Y116.664 E7.82663
G1 X118.521 Y117.941 E7.89626
G1 X118.255 Y118.525 E7.92774
G1 X117.911 Y119.253 E7.96724
G1 X117.588 Y119.843 E8.00023
G1 X117.197 Y120.39 E8.03322
G1 X116.545 Y121.073 E8.07954
G1 X116.163 Y121.411 E8.10456
G1 X115.65 Y121.815 E8.13659
G1 X115.029 Y122.248 E8.17373
G1 X114.209 Y122.71 E8.2199
G1 X113.579 Y123.002 E8.25396
G1 X112.867 Y123.28 E8.29145
G1 X112.065 Y123.526 E8.3326
G1 X111.178 Y123.728 E8.37723
G1 X110.319 Y123.839 E8.41972
G1 X109.687 Y123.864 E8.45074
G1 X108.835 Y123.859 E8.49254
G1 X108.028 Y123.796 E8.53225
G1 X107.17 Y123.655 E8.5749
G1 X106.467 Y123.491 E8.61031
G1 X105.714 Y123.237 E8.64929
G1 X105.075 Y122.979 E8.6831
G1 X104.585 Y122.753 E8.70957
G1 X102.501 Y121.67 E8.82478
G1 X100.072 Y120.476 E8.95755
G1 X97.639 Y119.364 E9.08877
G1 X96.411 Y118.847 E9.15413
G1 X95.415 Y118.414 E9.20741
G1 X94.815 Y118.11 E9.2404
G1 X94.256 Y117.737 E9.27337
G1 X93.725 Y117.291 E9.30739
G1 X92.09 Y115.661 E9.42064
G1 X91.62 Y115.178 E9.4537
G1 X91.181 Y114.67 E9.48664
G1 X90.805 Y114.112 E9.51964
G1 X90.498 Y113.514 E9.55262
G1 X90.264 Y112.884 E9.58558
G1 X90.106 Y112.23 E9.61859
G1 X90.019 Y111.345 E9.66221
G1 X90.007 Y110.673 E9.69518
G1 X90.008 Y101.203 E10.15973
G1 X90.019 Y100.497 E10.19436
G1 X90.069 Y99.826 E10.22737
G1 X90.227 Y99.024 E10.26747
G1 X91.375 Y95.782 E10.43618
G1 X92.187 Y93.253 E10.56648
G1 X93.068 Y90.205 E10.72212
G1 X93.293 Y89.572 E10.75507
G1 X93.591 Y88.969 E10.78807
G1 X93.959 Y88.406 E10.82106
G1 X94.391 Y87.891 E10.85403
M204 S3000
M205 X10 Y10
G0 F3375 X94.779 Y88.117
M204 S1800
M205 X8 Y8
G1 F2400 X95.259 Y87.686 E10.88568
G1 X95.789 Y87.316 E10.91739
G1 X96.361 Y87.016 E10.94907
G1 X96.965 Y86.787 E10.98076
G1 X97.593 Y86.636 E11.01244
G1 X98.465 Y86.546 E11.05544
G1 X103.445 Y86.546 E11.29974
G1 X104.221 Y86.557 E11.33781
G1 X104.865 Y86.606 E11.36949
G1 X105.498 Y86.734 E11.40117
G1 X106.111 Y86.939 E11.43288
G1 X106.693 Y87.219 E11.46456
G1 X107.236 Y87.568 E11.49622
G1 X107.732 Y87.982 E11.52792
G1 X108.173 Y88.454 E11.5596
G1 X108.551 Y88.975 E11.59118
G1 X109.284 Y90.128 E11.6582
G1 X110.761 Y92.379 E11.79027
G1 X112.29 Y94.571 E11.92137
G1 X113.896 Y96.739 E12.05372
G1 X115.534 Y98.827 E12.18391
G1 X117.729 Y101.446 E12.35153
G1 X118.272 Y102.073 E12.39222
G1 X118.663 Y102.586 E12.42386
G1 X118.989 Y103.144 E12.45557
G1 X119.243 Y103.738 E12.48726
G1 X119.422 Y104.358 E12.51891
G1 X119.54 Y105.104 E12.55596
G1 X119.556 Y106.047 E12.60223
G1 X119.555 Y112.98 E12.94232
G1 X119.545 Y113.682 E12.97676
G1 X119.496 Y114.326 E13.00844
G1 X119.368 Y114.959 E13.04012
G1 X119.055 Y115.818 E13.08497
G1 X118.748 Y116.473 E13.12046
G1 X118.127 Y117.75 E13.19011
G1 X117.86 Y118.339 E13.22184
G1 X117.516 Y119.067 E13.26133
G1 X117.204 Y119.632 E13.293
G1 X116.825 Y120.155 E13.32468
G1 X116.255 Y120.746 E13.36496
G1 X115.873 Y121.084 E13.38998
G1 X115.4 Y121.456 E13.4195
G1 X114.789 Y121.882 E13.45604
G1 X114.001 Y122.326 E13.5004
G1 X113.42 Y122.595 E13.53181
G1 X112.708 Y122.873 E13.56931
G1 X111.968 Y123.1 E13.60728
G1 X111.335 Y123.244 E13.63912
G1 X110.701 Y123.353 E13.67068
G1 X109.96 Y123.429 E13.70722
G1 X108.837 Y123.422 E13.76231
G1 X108.093 Y123.364 E13.79891
G1 X107.263 Y123.228 E13.84017
G1 X106.452 Y123.025 E13.88118
G1 X105.878 Y122.831 E13.91091
G1 X105.002 Y122.477 E13.95725
G1 X102.664 Y121.262 E14.0865
G1 X100.266 Y120.083 E14.21759
G1 X97.851 Y118.98 E14.34782
G1 X96.585 Y118.446 E14.41523
G1 X95.589 Y118.013 E14.4685
G1 X95.014 Y117.72 E14.50016
G1 X94.479 Y117.357 E14.53187
G1 X94.009 Y116.957 E14.56215
G1 X92.404 Y115.357 E14.67332
G1 X91.934 Y114.874 E14.70638
G1 X91.513 Y114.384 E14.73807
G1 X91.156 Y113.846 E14.76974
G1 X90.868 Y113.268 E14.80142
G1 X90.653 Y112.658 E14.83315
G1 X90.516 Y112.027 E14.86482
G1 X90.456 Y111.336 E14.89885
G1 X90.444 Y110.673 E14.93138
G1 X90.445 Y101.21 E15.39558
G1 X90.456 Y100.504 E15.43022
G1 X90.506 Y99.86 E15.4619
G1 X90.658 Y99.114 E15.49925
G1 X91.795 Y95.903 E15.66635
G1 X92.612 Y93.361 E15.79733
G1 X93.488 Y90.327 E15.95224
G1 X93.705 Y89.718 E15.98395
G1 X93.996 Y89.142 E16.01561
G1 X94.356 Y88.605 E16.04732
G1 X94.779 Y88.117 E16.079
M204 S3000
M205 X10 Y10
G1 F2400 E10.079
G0 F3375 X98.355 Y92
M204 S1800
M205 X8 Y8
;TYPE:SUPPORT
G1 F2400 E16.079
G1 F900 X104.29 Y92 E16.37014
M204 S3000
M205 X10 Y10
G1 F2400 E10.37014
G0 F3375 X101.2 Y91.627
M204 S1800
M205 X8 Y8
G1 F2400 E16.37014
G1 F900 X101.2 Y99.873 E16.77464
M204 S3000
M205 X10 Y10
G1 F2400 E10.77464
;MESH:X_Hemera_BeltHolder_RR_V1_QTY2.stl
G0 F3375 X101.2 Y101.034
G0 X97.383 Y102.304
G0 X97.374 Y110.525
G0 X98.373 Y111.524
G0 X105.749 Y112.612
M204 S1800
M205 X8 Y8
;TYPE:WALL-INNER
G1 F2400 E16.77464
G1 F932 X105.844 Y112.906 E16.78928
G1 F985.7 X105.882 Y113.674 E16.82372
G1 F1008.5 X105.989 Y114.196 E16.84705
G1 F1011.1 X106.339 Y115.011 E16.88578
G1 F998.2 X106.882 Y115.705 E16.92475
G1 F990.7 X107.514 Y116.2 E16.96053
G1 F1003.3 X108.234 Y116.549 E16.99573
G1 F1011.1 X109.005 Y116.708 E17.03011
G1 F1008.5 X109.546 Y116.721 E17.0538
G1 F993.2 X110.316 Y116.591 E17.08851
G1 F985.7 X110.946 Y116.364 E17.11851
G1 F995.7 X110.878 Y115.935 E17.13777
G1 F1000.8 X110.684 Y116.039 E17.14748
G1 F990.7 X110.199 Y116.207 E17.17035
G1 F1000.8 X109.734 Y116.316 E17.19142
G1 F1016.3 X109.04 Y116.321 E17.22157
G1 F1013.7 X108.32 Y116.185 E17.25348
G1 F1016.3 X107.503 Y115.729 E17.29413
G1 F1008.5 X107.237 Y115.497 E17.30958
G1 F1003.3 X106.72 Y114.915 E17.34384
G1 F1011.1 X106.354 Y114.087 E17.38337
G1 F1013.7 X106.256 Y113.466 E17.41075
G1 F971.1 X106.258 Y112.827 E17.4398
G1 F914.7 X106.377 Y112.271 E17.46724
G1 F900 X106.555 Y111.83 E17.49057
G1 X106.935 Y111.236 E17.52516
G1 X107.376 Y110.806 E17.55538
G1 X107.916 Y110.445 E17.58724
G1 X108.631 Y110.183 E17.6246
G1 X109.393 Y110.102 E17.66219
G1 X109.909 Y110.159 E17.68765
G1 X110.245 Y110.243 E17.70464
G1 X110.947 Y110.546 E17.74215
G1 X111.392 Y110.866 E17.76904
G1 X111.87 Y111.396 E17.80405
G1 X112.158 Y111.876 E17.83151
G1 X112.314 Y112.238 E17.85084
G1 X112.424 Y112.673 E17.87285
G1 X112.808 Y112.451 E17.89461
G1 X112.808 Y106.905 E18.16667
G1 X112.808 Y106.12 E18.20518
G1 X111.702 Y105.014 E18.2819
G1 X111.017 Y105.012 E18.31551
G1 X110.762 Y104.976 E18.32814
G1 X110.368 Y104.828 E18.34878
G1 X110.088 Y104.635 E18.36547
G1 X107.566 Y102.113 E18.54043
G1 X97.193 Y102.114 E19.04927
G1 X97.192 Y110.6 E19.46555
G1 X98.298 Y111.706 E19.54227
G1 X104.404 Y111.706 E19.8418
G1 X104.83 Y111.782 E19.86303
G1 X105.218 Y111.974 E19.88426
G1 X105.474 Y112.195 E19.90085
G1 X105.749 Y112.612 E19.92536
M204 S3000
M205 X10 Y10
G0 F3375 X107.492 Y114.865
G0 X108.567 Y115.587
G0 X109.738 Y115.681
G0 X111.336 Y115.036
M204 S1800
M205 X8 Y8
G1 F900 X110.955 Y115.395 E19.95104
G1 X110.527 Y115.655 E19.9756
G1 X109.786 Y115.903 E20.01393
G1 X109.185 Y115.929 E20.04344
G1 X108.447 Y115.78 E20.08038
G1 X107.769 Y115.415 E20.11815
G1 X107.548 Y115.221 E20.13257
G1 X107.05 Y114.661 E20.16934
G1 X106.784 Y114.042 E20.20238
G1 X106.668 Y113.445 E20.23222
G1 X106.666 Y113.098 E20.24924
G1 X106.732 Y112.621 E20.27286
G1 X106.943 Y112.032 E20.30355
G1 X107.284 Y111.502 E20.33447
G1 X107.701 Y111.106 E20.36268
G1 X108.112 Y110.838 E20.38675
G1 X108.732 Y110.61 E20.41915
G1 X109.402 Y110.541 E20.45219
G1 X109.852 Y110.592 E20.47441
G1 X110.496 Y110.804 E20.50767
G1 X110.936 Y111.06 E20.53264
G1 X111.309 Y111.39 E20.55707
G1 X111.495 Y111.62 E20.57158
G1 X111.865 Y112.238 E20.60691
G1 X112.013 Y112.833 E20.63699
G1 X112.036 Y113.361 E20.66292
G1 X111.999 Y113.638 E20.67662
G1 X112.42 Y113.21 E20.70607
G1 X112.897 Y112.891 E20.73422
G1 X113.245 Y112.745 E20.75274
G1 X113.245 Y106.905 E21.03921
G1 X113.245 Y105.939 E21.0866
G1 X111.883 Y104.577 E21.18109
G1 X111.041 Y104.576 E21.22239
G1 X110.687 Y104.496 E21.2402
G1 X110.426 Y104.355 E21.25475
G1 X107.747 Y101.676 E21.4406
G1 X96.756 Y101.677 E21.97976
G1 X96.755 Y110.781 E22.42635
G1 X98.117 Y112.143 E22.52084
G1 X104.389 Y112.143 E22.82851
G1 X104.694 Y112.197 E22.8437
G1 X104.97 Y112.334 E22.85882
G1 X105.153 Y112.492 E22.87068
G1 X105.35 Y112.79 E22.8882
G1 X105.44 Y113.148 E22.90631
G1 X105.47 Y113.727 E22.93475
G1 X105.59 Y114.31 E22.96395
G1 X105.982 Y115.221 E23.0126
G1 X106.263 Y115.627 E23.03682
G1 X106.586 Y116.002 E23.0611
G1 X106.961 Y116.323 E23.08531
G1 X107.631 Y116.742 E23.12408
G1 X108.101 Y116.941 E23.14911
G1 X108.957 Y117.12 E23.19201
G1 X109.563 Y117.135 E23.22175
G1 X110.432 Y116.995 E23.26493
G1 X110.986 Y116.79 E23.2939
G1 X111.437 Y116.537 E23.31927
G1 X111.321 Y116.153 E23.33895
G1 X111.281 Y115.807 E23.35603
G1 X111.289 Y115.313 E23.38027
G1 X111.336 Y115.036 E23.39405
M204 S3000
M205 X10 Y10
G0 F3375 X110.492 Y115.434
G0 X109.224 Y115.707
G0 X107.85 Y115.204
G0 X107.225 Y114.5
G0 X106.828 Y113.423
G0 X107.104 Y113.423
M204 S1800
M205 X8 Y8
G1 F900 X107.112 Y112.979 E23.41584
G1 X107.195 Y112.58 E23.43583
G1 X107.33 Y112.235 E23.454
G1 X107.648 Y111.756 E23.48221
G1 X107.935 Y111.478 E23.50181
G1 X108.276 Y111.252 E23.52187
G1 X108.751 Y111.065 E23.54692
G1 X108.859 Y111.034 E23.55243
G1 X109.443 Y110.976 E23.58122
G1 X109.938 Y111.061 E23.60585
G1 X110.343 Y111.213 E23.62707
G1 X110.697 Y111.426 E23.64734
G1 X111.072 Y111.765 E23.67214
G1 X111.408 Y112.326 E23.70422
G1 X111.554 Y112.753 E23.72635
G1 F870.1 X111.612 Y113.213 E23.74988
G1 F809.3 X111.521 Y114.028 E23.79462
G1 F778.8 X111.337 Y114.423 E23.81932
G1 F812.6 X110.76 Y115.001 E23.86369
G1 F874 X110.362 Y115.25 E23.8874
G1 F900 X109.7 Y115.47 E23.92162
G1 X109.265 Y115.489 E23.94298
G1 X108.627 Y115.382 E23.97472
G1 X107.942 Y115.006 E24.01305
G1 X107.43 Y114.432 E24.05078
G1 X107.194 Y113.89 E24.07978
G1 X107.104 Y113.423 E24.10311
M204 S3000
M205 X10 Y10
G0 F3375 X106.828 Y113.423
G0 X105.26 Y112.769
G0 X104.832 Y112.789
M204 S1800
M205 X8 Y8
G1 F900 X104.95 Y112.968 E24.11363
G1 X105.004 Y113.183 E24.1245
G1 X105.035 Y113.783 E24.15397
G1 X105.169 Y114.431 E24.18643
G1 X105.361 Y114.948 E24.21349
G1 X105.604 Y115.443 E24.24054
G1 X105.916 Y115.894 E24.26744
G1 X106.276 Y116.312 E24.2945
G1 X106.693 Y116.669 E24.32143
G1 X107.439 Y117.135 E24.36458
G1 X107.96 Y117.356 E24.39234
G1 X108.491 Y117.493 E24.41924
G1 X108.919 Y117.557 E24.44047
G1 X109.769 Y117.578 E24.48218
G1 X110.553 Y117.417 E24.52144
G1 X111.17 Y117.188 E24.55372
G1 X111.654 Y116.918 E24.58091
G1 X111.964 Y116.702 E24.59944
G1 X111.757 Y116.143 E24.62868
G1 X111.712 Y115.654 E24.65277
G1 X111.726 Y115.332 E24.66858
G1 F801 X111.854 Y114.599 E24.70959
G1 F721.7 X111.989 Y114.311 E24.72905
G1 F801 X112.472 Y113.752 E24.76977
G1 F900 X112.798 Y113.469 E24.79095
G1 X113.184 Y113.238 E24.81301
G1 X113.682 Y113.051 E24.83911
G1 X113.682 Y106.905 E25.1406
G1 X113.682 Y105.758 E25.19686
G1 X112.064 Y104.14 E25.30911
G1 X110.998 Y104.14 E25.3614
G1 X110.681 Y103.988 E25.37865
G1 X107.928 Y101.239 E25.56949
G1 X96.319 Y101.24 E26.13897
G1 X96.318 Y110.962 E26.61588
