;FLAVOR:Marlin
;TIME:149
;Filament used: 0.0886176m
;Layer height: 0.24
;MINX:94.991
;MINY:95.283
;MINZ:0.3
;MAXX:112.45
;MAXY:114.717
;MAXZ:7.26
;Generated with Cura_SteamEngine 5.2.1
M140 S80
M105
M190 S80
M104 S235
M105
M109 S235
M82 ;absolute extrusion mode
G21 ;metric values
G90 ;absolute positioning
M82 ;set extruder to absolute mode
M107 ;start with the fan off
G28 X0 Y0 ;move X/Y to min endstops
G28 Z0 ;move Z to min endstops
G1 Z15.0 F150.0 ;move the platform down 15mm
G92 E0 ;zero the extruded length
G1 F200 E3 ;extrude 3mm of feed stock
G92 E0 ;zero the extruded length again
G1 F150.0
G0 Y20 F150.0
M117 Printing...
G5
G92 E0
G92 E0
G1 F2400 E-6
;LAYER_COUNT:30
;LAYER:0
M107
M204 S3000
M205 X10 Y10
G1 F600 Z0.375
G0 F3375 X96.935 Y97.441 Z0.375
M204 S1800
M205 X8 Y8
;TYPE:SKIRT
G1 F600 Z0.3
G1 F2400 E0
G1 X97.479 Y96.93 E0.03661
G1 X98.075 Y96.48 E0.07325
G1 X98.715 Y96.097 E0.10983
G1 X99.393 Y95.785 E0.14645
G1 X100.1 Y95.547 E0.18304
G1 X100.829 Y95.386 E0.21966
G1 X101.772 Y95.295 E0.26614
G1 X102.288 Y95.283 E0.29145
G1 X104.776 Y95.283 E0.4135
G1 X105.574 Y95.294 E0.45265
G1 X106.318 Y95.344 E0.48923
G1 X107.053 Y95.474 E0.52584
G1 X107.77 Y95.682 E0.56247
G1 X108.46 Y95.966 E0.59907
G1 X109.117 Y96.321 E0.6357
G1 X109.731 Y96.745 E0.67231
G1 X110.296 Y97.232 E0.7089
G1 X110.807 Y97.776 E0.74551
G1 X111.256 Y98.373 E0.78215
G1 X111.638 Y99.013 E0.81871
G1 X111.95 Y99.691 E0.85533
G1 X112.188 Y100.399 E0.89197
G1 X112.348 Y101.128 E0.92858
G1 X112.438 Y102.063 E0.97466
G1 X112.45 Y102.58 E1.00002
G1 X112.448 Y107.164 E1.22489
G1 X112.438 Y107.843 E1.2582
G1 X112.387 Y108.587 E1.29478
G1 X112.257 Y109.322 E1.3314
G1 X112.049 Y110.039 E1.36802
G1 X111.765 Y110.729 E1.40462
G1 X111.409 Y111.385 E1.44124
G1 X110.985 Y111.999 E1.47784
G1 X110.498 Y112.564 E1.51443
G1 X109.953 Y113.074 E1.55104
G1 X109.357 Y113.523 E1.58765
G1 X108.716 Y113.906 E1.62428
G1 X108.038 Y114.217 E1.66087
G1 X107.331 Y114.455 E1.69746
G1 X106.602 Y114.615 E1.73408
G1 X105.678 Y114.704 E1.77961
G1 X105.134 Y114.717 E1.80631
G1 X102.565 Y114.716 E1.93233
G1 X101.867 Y114.706 E1.96657
G1 X101.123 Y114.656 E2.00315
G1 X100.388 Y114.526 E2.03976
G1 X99.671 Y114.318 E2.07639
G1 X98.981 Y114.034 E2.11299
G1 X98.324 Y113.679 E2.14962
G1 X97.71 Y113.255 E2.18622
G1 X97.145 Y112.768 E2.22281
G1 X96.634 Y112.224 E2.25943
G1 X96.185 Y111.627 E2.29607
G1 X95.803 Y110.987 E2.33263
G1 X95.491 Y110.309 E2.36924
G1 X95.253 Y109.601 E2.40589
G1 X95.093 Y108.872 E2.4425
G1 X95.003 Y107.929 E2.48897
G1 X94.991 Y107.408 E2.51453
G1 X94.992 Y102.83 E2.7391
G1 X95.001 Y102.165 E2.77173
G1 X95.051 Y101.42 E2.80835
G1 X95.18 Y100.685 E2.84496
G1 X95.387 Y99.968 E2.88157
G1 X95.67 Y99.278 E2.91815
G1 X96.025 Y98.621 E2.95479
G1 X96.448 Y98.006 E2.9914
G1 X96.935 Y97.441 E3.02799
M204 S3000
M205 X10 Y10
G0 F3375 X97.364 Y97.628
M204 S1800
M205 X8 Y8
G1 F2400 X97.903 Y97.147 E3.06343
G1 X98.493 Y96.73 E3.09887
G1 X99.125 Y96.38 E3.13431
G1 X99.792 Y96.102 E3.16976
G1 X100.485 Y95.899 E3.20518
G1 X101.197 Y95.775 E3.24063
G1 X101.784 Y95.732 E3.26951
G1 X102.288 Y95.72 E3.29424
G1 X104.776 Y95.72 E3.41628
G1 X105.568 Y95.731 E3.45514
G1 X106.288 Y95.781 E3.49054
G1 X106.999 Y95.911 E3.526
G1 X107.691 Y96.118 E3.56143
G1 X108.356 Y96.4 E3.59686
G1 X108.986 Y96.755 E3.63234
G1 X109.572 Y97.176 E3.66773
G1 X110.109 Y97.66 E3.7032
G1 X110.589 Y98.2 E3.73864
G1 X111.006 Y98.79 E3.77408
G1 X111.355 Y99.423 E3.80954
G1 X111.633 Y100.09 E3.84498
G1 X111.835 Y100.784 E3.88044
G1 X111.959 Y101.495 E3.91584
G1 X112.001 Y102.075 E3.94437
G1 X112.013 Y102.579 E3.9691
G1 X112.011 Y107.157 E4.19367
G1 X112.001 Y107.836 E4.22698
G1 X111.951 Y108.557 E4.26244
G1 X111.821 Y109.268 E4.29789
G1 X111.613 Y109.96 E4.33334
G1 X111.33 Y110.624 E4.36875
G1 X110.976 Y111.254 E4.4042
G1 X110.554 Y111.841 E4.43966
G1 X110.07 Y112.377 E4.47509
G1 X109.529 Y112.856 E4.51053
G1 X108.939 Y113.273 E4.54597
G1 X108.307 Y113.623 E4.58141
G1 X107.64 Y113.9 E4.61684
G1 X106.946 Y114.101 E4.65228
G1 X106.234 Y114.225 E4.68774
G1 X105.665 Y114.267 E4.71573
G1 X105.134 Y114.28 E4.74178
G1 X102.571 Y114.279 E4.86751
G1 X101.873 Y114.269 E4.90175
G1 X101.153 Y114.219 E4.93716
G1 X100.442 Y114.089 E4.97261
G1 X99.75 Y113.882 E5.00804
G1 X99.085 Y113.6 E5.04348
G1 X98.455 Y113.245 E5.07895
G1 X97.869 Y112.824 E5.11435
G1 X97.332 Y112.34 E5.14981
G1 X96.852 Y111.8 E5.18525
G1 X96.435 Y111.21 E5.22069
G1 X96.086 Y110.577 E5.25615
G1 X95.808 Y109.91 E5.2916
G1 X95.606 Y109.216 E5.32705
G1 X95.482 Y108.505 E5.36246
G1 X95.439 Y107.917 E5.39138
G1 X95.428 Y107.408 E5.41635
G1 X95.429 Y102.836 E5.64063
G1 X95.438 Y102.171 E5.67326
G1 X95.487 Y101.45 E5.70871
G1 X95.616 Y100.739 E5.74415
G1 X95.823 Y100.047 E5.77958
G1 X96.105 Y99.382 E5.81502
G1 X96.459 Y98.752 E5.85047
G1 X96.88 Y98.165 E5.8859
G1 X97.364 Y97.628 E5.92136
M204 S3000
M205 X10 Y10
G0 F3375 X97.791 Y97.822
M204 S1800
M205 X8 Y8
G1 F2400 X98.326 Y97.373 E5.95563
G1 X98.909 Y96.989 E5.98987
G1 X99.531 Y96.674 E6.02407
G1 X100.186 Y96.432 E6.05833
G1 X100.864 Y96.267 E6.09256
G1 X101.9 Y96.157 E6.14366
G1 X104.776 Y96.157 E6.28474
G1 X105.561 Y96.168 E6.32326
G1 X106.257 Y96.218 E6.35749
G1 X106.943 Y96.347 E6.39173
G1 X107.61 Y96.554 E6.42599
G1 X108.248 Y96.835 E6.46018
G1 X108.85 Y97.188 E6.49442
G1 X109.408 Y97.607 E6.52865
G1 X109.914 Y98.088 E6.56289
G1 X110.362 Y98.623 E6.59712
G1 X110.746 Y99.206 E6.63137
G1 X111.061 Y99.829 E6.66561
G1 X111.302 Y100.484 E6.69985
G1 X111.467 Y101.162 E6.73408
G1 X111.576 Y102.194 E6.78499
G1 X111.574 Y107.151 E7.02815
G1 X111.564 Y107.83 E7.06146
G1 X111.514 Y108.526 E7.09569
G1 X111.385 Y109.212 E7.12993
G1 X111.178 Y109.878 E7.16414
G1 X110.896 Y110.516 E7.19836
G1 X110.543 Y111.118 E7.2326
G1 X110.123 Y111.676 E7.26686
G1 X109.642 Y112.182 E7.3011
G1 X109.107 Y112.63 E7.33533
G1 X108.524 Y113.013 E7.36955
G1 X107.901 Y113.328 E7.4038
G1 X107.246 Y113.569 E7.43803
G1 X106.568 Y113.734 E7.47226
G1 X105.652 Y113.83 E7.51744
G1 X105.134 Y113.843 E7.54286
G1 X102.578 Y113.842 E7.66824
G1 X101.88 Y113.832 E7.70249
G1 X101.184 Y113.782 E7.73672
G1 X100.498 Y113.653 E7.77096
G1 X99.831 Y113.446 E7.80522
G1 X99.193 Y113.165 E7.83942
G1 X98.591 Y112.812 E7.87365
G1 X98.033 Y112.393 E7.90788
G1 X97.527 Y111.912 E7.94213
G1 X97.079 Y111.377 E7.97636
G1 X96.695 Y110.794 E8.0106
G1 X96.38 Y110.171 E8.04485
G1 X96.139 Y109.516 E8.07908
G1 X95.974 Y108.838 E8.11331
G1 X95.865 Y107.799 E8.16456
G1 X95.866 Y102.842 E8.40772
G1 X95.875 Y102.177 E8.44035
G1 X95.924 Y101.48 E8.47462
G1 X96.053 Y100.794 E8.50886
G1 X96.259 Y100.128 E8.54306
G1 X96.54 Y99.489 E8.57731
G1 X96.892 Y98.887 E8.61151
G1 X97.311 Y98.328 E8.64578
G1 X97.791 Y97.822 E8.68
M204 S3000
M205 X10 Y10
G0 F3375 X98.218 Y98.024
M204 S1800
M205 X8 Y8
G1 F2400 X98.747 Y97.609 E8.71298
G1 X99.321 Y97.26 E8.74593
G1 X99.933 Y96.981 E8.77893
G1 X100.574 Y96.777 E8.81192
G1 X101.234 Y96.651 E8.84488
G1 X101.945 Y96.594 E8.87987
G1 X104.776 Y96.594 E9.01875
G1 X105.555 Y96.605 E9.05696
G1 X106.226 Y96.654 E9.08997
G1 X106.885 Y96.783 E9.12291
G1 X107.525 Y96.989 E9.15589
G1 X108.136 Y97.27 E9.18888
G1 X108.71 Y97.621 E9.22188
G1 X109.237 Y98.038 E9.25485
G1 X109.712 Y98.514 E9.28784
G1 X110.126 Y99.044 E9.32083
G1 X110.475 Y99.618 E9.35378
G1 X110.753 Y100.231 E9.3868
G1 X110.957 Y100.871 E9.41975
G1 X111.083 Y101.532 E9.45276
G1 X111.139 Y102.241 E9.48765
G1 X111.137 Y107.144 E9.72816
G1 X111.127 Y107.823 E9.76147
G1 X111.078 Y108.494 E9.79448
G1 X110.948 Y109.154 E9.82748
G1 X110.742 Y109.794 E9.86046
G1 X110.461 Y110.404 E9.8934
G1 X110.11 Y110.978 E9.92641
G1 X109.693 Y111.505 E9.95937
G1 X109.216 Y111.979 E9.99236
G1 X108.687 Y112.394 E10.02534
G1 X108.112 Y112.742 E10.05831
G1 X107.499 Y113.02 E10.09133
G1 X106.858 Y113.223 E10.12431
G1 X106.198 Y113.349 E10.15727
G1 X105.639 Y113.394 E10.18478
G1 X105.134 Y113.406 E10.20956
G1 X102.584 Y113.405 E10.33465
G1 X101.886 Y113.395 E10.3689
G1 X101.215 Y113.346 E10.4019
G1 X100.556 Y113.217 E10.43484
G1 X99.916 Y113.011 E10.46782
G1 X99.305 Y112.73 E10.50081
G1 X98.731 Y112.379 E10.53382
G1 X98.204 Y111.962 E10.56678
G1 X97.729 Y111.486 E10.59977
G1 X97.315 Y110.956 E10.63276
G1 X96.966 Y110.382 E10.66571
G1 X96.688 Y109.769 E10.69873
G1 X96.484 Y109.129 E10.73168
G1 X96.358 Y108.468 E10.76469
G1 X96.302 Y107.751 E10.79997
G1 X96.303 Y102.847 E11.04053
G1 X96.312 Y102.182 E11.07316
G1 X96.361 Y101.512 E11.10611
G1 X96.489 Y100.852 E11.13909
G1 X96.695 Y100.212 E11.17207
G1 X96.975 Y99.601 E11.20504
G1 X97.325 Y99.027 E11.23802
G1 X97.742 Y98.499 E11.27103
G1 X98.218 Y98.024 E11.30401
M204 S3000
M205 X10 Y10
G0 F3375 X98.643 Y98.235
M204 S1800
M205 X8 Y8
G1 F2400 X99.165 Y97.856 E11.33566
G1 X99.731 Y97.543 E11.36738
G1 X100.33 Y97.303 E11.39904
G1 X100.955 Y97.139 E11.43074
G1 X101.919 Y97.031 E11.47832
G1 X104.776 Y97.031 E11.61847
G1 X105.549 Y97.042 E11.65639
G1 X106.193 Y97.091 E11.68807
G1 X106.826 Y97.219 E11.71975
G1 X107.438 Y97.425 E11.75143
G1 X108.02 Y97.704 E11.78309
G1 X108.563 Y98.054 E11.81478
G1 X109.059 Y98.467 E11.84644
G1 X109.5 Y98.939 E11.87813
G1 X109.88 Y99.462 E11.90984
G1 X110.191 Y100.028 E11.94152
G1 X110.431 Y100.627 E11.97318
G1 X110.595 Y101.252 E12.00488
G1 X110.702 Y102.212 E12.05226
G1 X110.7 Y107.138 E12.2939
G1 X110.69 Y107.817 E12.32721
G1 X110.641 Y108.461 E12.3589
G1 X110.512 Y109.094 E12.39059
G1 X110.307 Y109.706 E12.42225
G1 X110.027 Y110.288 E12.45393
G1 X109.677 Y110.831 E12.48562
G1 X109.263 Y111.327 E12.51731
G1 X108.791 Y111.768 E12.549
G1 X108.268 Y112.147 E12.58068
G1 X107.703 Y112.458 E12.61232
G1 X107.103 Y112.698 E12.64402
G1 X106.478 Y112.861 E12.6757
G1 X105.518 Y112.969 E12.72309
G1 X102.59 Y112.968 E12.86673
G1 X101.892 Y112.958 E12.90097
G1 X101.248 Y112.909 E12.93265
G1 X100.615 Y112.781 E12.96433
G1 X100.003 Y112.575 E12.99601
G1 X99.421 Y112.296 E13.02767
G1 X98.878 Y111.946 E13.05936
G1 X98.382 Y111.533 E13.09102
G1 X97.941 Y111.061 E13.12271
G1 X97.561 Y110.538 E13.15442
G1 X97.25 Y109.972 E13.1861
G1 X97.01 Y109.373 E13.21776
G1 X96.846 Y108.748 E13.24945
G1 X96.739 Y107.782 E13.29713
G1 X96.739 Y102.853 E13.53892
G1 X96.748 Y102.188 E13.57154
G1 X96.797 Y101.544 E13.60323
G1 X96.925 Y100.911 E13.63491
G1 X97.13 Y100.299 E13.66657
G1 X97.409 Y99.716 E13.69827
G1 X97.758 Y99.173 E13.72994
G1 X98.172 Y98.677 E13.76163
G1 X98.643 Y98.235 E13.79331
M204 S3000
M205 X10 Y10
G1 F2400 E7.79331
;MESH:BeltTensionnerBloc.stl
G0 F3375 X102.402 Y101.585
G0 X102.402 Y102.694
G0 X103.494 Y103.786
M204 S1800
M205 X8 Y8
;TYPE:WALL-INNER
G1 F2400 E13.79331
G1 F872.1 X103.494 Y106.214 E13.91623
G1 X103.946 Y106.214 E13.93912
G1 X103.946 Y105.988 E13.95056
G1 X103.946 Y103.786 E14.06204
G1 X103.494 Y103.786 E14.08492
M204 S3000
M205 X10 Y10
G0 F3375 X103.05 Y103.342
M204 S1800
M205 X8 Y8
G1 F900 X103.05 Y106.658 E14.24758
G1 X104.39 Y106.658 E14.31332
G1 X104.39 Y105.988 E14.34618
G1 X104.39 Y103.342 E14.47598
G1 X103.05 Y103.342 E14.54172
M204 S3000
M205 X10 Y10
G0 F3375 X102.613 Y102.905
M204 S1800
M205 X8 Y8
G1 F900 X102.613 Y107.095 E14.74725
G1 X104.827 Y107.095 E14.85586
G1 X104.827 Y105.988 E14.91016
G1 X104.827 Y102.905 E15.0614
G1 X102.613 Y102.905 E15.17001
M204 S3000
M205 X10 Y10
G0 F3375 X102.176 Y102.468
M204 S1800
M205 X8 Y8
;TYPE:WALL-OUTER
G1 F900 X102.176 Y107.532 E15.41842
G1 X105.264 Y107.532 E15.5699
G1 X105.264 Y105.988 E15.64564
G1 X105.264 Y102.468 E15.81831
G1 X102.176 Y102.468 E15.96979
M204 S3000
M205 X10 Y10
G0 F3375 X102.176 Y103.068
G0 X103.225 Y103.389
;MESH:NONMESH
G0 F600 X103.225 Y103.389 Z0.54
G0 F3375 X103.569 Y103.861
;TIME_ELAPSED:14.909545
;LAYER:1
M106 S127.5
M204 S1800
M205 X8 Y8
;TYPE:WALL-INNER
;MESH:BeltTensionnerBloc.stl
G1 F825 X103.569 Y106.139 E16.06389
G1 X104.533 Y106.139 E16.10372
G1 X104.533 Y104.343 E16.17791
G1 X104.533 Y103.861 E16.19782
G1 X103.569 Y103.861 E16.23764
M204 S3000
M205 X10 Y10
G0 F6187.5 X103.109 Y103.401
M204 S1800
M205 X8 Y8
G1 F825 X103.109 Y106.599 E16.36975
G1 X104.993 Y106.599 E16.44757
G1 X104.993 Y104.343 E16.54077
G1 X104.993 Y103.401 E16.57968
G1 X103.109 Y103.401 E16.6575
M204 S3000
M205 X10 Y10
G0 F6187.5 X102.649 Y102.941
M204 S1800
M205 X8 Y8
G1 F825 X102.649 Y107.059 E16.82762
G1 X105.453 Y107.059 E16.94345
G1 X105.453 Y104.343 E17.05564
G1 X105.453 Y102.941 E17.11356
G1 X102.649 Y102.941 E17.22939
M204 S3000
M205 X10 Y10
G0 F6187.5 X102.189 Y102.481
M204 S1800
M205 X8 Y8
;TYPE:WALL-OUTER
G1 F600 X102.189 Y107.519 E17.4375
G1 X105.913 Y107.519 E17.59134
G1 X105.913 Y104.343 E17.72254
G1 X105.913 Y102.481 E17.79945
G1 X102.189 Y102.481 E17.95329
M204 S3000
M205 X10 Y10
G0 F6187.5 X102.189 Y103.081
G0 X102.888 Y103.081
G0 X104.051 Y104.343
M204 S1800
M205 X8 Y8
;TYPE:WALL-INNER
G1 F753 X104.051 Y105.657 E18.01276
M204 S3000
M205 X10 Y10
;MESH:NONMESH
G0 F600 X104.051 Y105.657 Z0.78
G0 F6187.5 X103.568 Y103.86
;TIME_ELAPSED:19.315632
;LAYER:2
M106 S255
M204 S1800
M205 X8 Y8
;TYPE:WALL-INNER
;MESH:BeltTensionnerBloc.stl
G1 F1500 X103.568 Y106.14 E18.10695
G1 X104.92 Y106.14 E18.1628
G1 X104.92 Y104.536 E18.22905
G1 X104.92 Y103.86 E18.25698
G1 X103.568 Y103.86 E18.31283
M204 S3000
M205 X10 Y10
G0 F9000 X103.108 Y103.4
M204 S1800
M205 X8 Y8
G1 F1500 X103.108 Y106.6 E18.44502
G1 X105.38 Y106.6 E18.53887
G1 X105.38 Y104.536 E18.62414
G1 X105.38 Y103.4 E18.67106
G1 X103.108 Y103.4 E18.76492
M204 S3000
M205 X10 Y10
G0 F9000 X102.648 Y102.94
M204 S1800
M205 X8 Y8
G1 F1500 X102.648 Y107.06 E18.93511
G1 X105.84 Y107.06 E19.06697
G1 X105.84 Y104.536 E19.17123
G1 X105.84 Y102.94 E19.23716
G1 X102.648 Y102.94 E19.36902
M204 S3000
M205 X10 Y10
G0 F9000 X102.188 Y102.48
M204 S1800
M205 X8 Y8
;TYPE:WALL-OUTER
G1 F937.5 X102.188 Y107.52 E19.57722
G1 X106.3 Y107.52 E19.74708
G1 X106.3 Y104.536 E19.87035
G1 X106.3 Y102.48 E19.95528
G1 X102.188 Y102.48 E20.12514
M204 S3000
M205 X10 Y10
G0 F9000 X102.188 Y103.08
G0 X102.858 Y103.15
G0 X103.975 Y104.267
M204 S1800
M205 X8 Y8
;TYPE:SKIN
G1 F513 X103.975 Y105.733 E20.19597
G1 X104.513 Y105.733 E20.22196
G1 X104.513 Y104.267 E20.29279
G1 X103.975 Y104.267 E20.31878
M204 S3000
M205 X10 Y10
;MESH:NONMESH
G0 F600 X103.975 Y104.267 Z1.02
G0 F9000 X104.097 Y104.389
;TIME_ELAPSED:22.633308
;LAYER:3
M204 S1800
M205 X8 Y8
;TYPE:WALL-INNER
;MESH:BeltTensionnerBloc.stl
G1 F739.7 X104.097 Y105.611 E20.3843
G1 X104.695 Y105.611 E20.41636
G1 X104.695 Y104.688 E20.46584
G1 X104.695 Y104.389 E20.48187
G1 X104.097 Y104.389 E20.51393
M204 S3000
M205 X10 Y10
G0 F9000 X103.569 Y103.861
M204 S1800
M205 X8 Y8
G1 F960 X103.569 Y106.139 E20.60803
G1 X105.223 Y106.139 E20.67636
G1 X105.223 Y104.688 E20.7363
G1 X105.223 Y103.861 E20.77046
G1 X103.569 Y103.861 E20.83879
M204 S3000
M205 X10 Y10
G0 F9000 X103.109 Y103.401
M204 S1800
M205 X8 Y8
G1 F960 X103.109 Y106.599 E20.97089
G1 X105.683 Y106.599 E21.07722
G1 X105.683 Y104.688 E21.15616
G1 X105.683 Y103.401 E21.20933
G1 X103.109 Y103.401 E21.31566
M204 S3000
M205 X10 Y10
G0 F9000 X102.649 Y102.941
M204 S1800
M205 X8 Y8
G1 F960 X102.649 Y107.059 E21.48577
G1 X106.143 Y107.059 E21.6301
G1 X106.143 Y104.688 E21.72805
G1 X106.143 Y102.941 E21.80021
G1 X102.649 Y102.941 E21.94455
M204 S3000
M205 X10 Y10
G0 F9000 X102.189 Y102.481
M204 S1800
M205 X8 Y8
;TYPE:WALL-OUTER
G1 F600 X102.189 Y107.519 E22.15266
G1 X106.603 Y107.519 E22.335
G1 X106.603 Y104.688 E22.45195
G1 X106.603 Y102.481 E22.54312
G1 X102.189 Y102.481 E22.72545
M204 S3000
M205 X10 Y10
G0 F9000 X102.189 Y103.081
G0 X103.248 Y103.54
;MESH:NONMESH
