;FLAVOR:Marlin
;TIME:1509
;Filament used: 1.28719m
;Layer height: 0.24
;MINX:80.91
;MINY:74.374
;MINZ:0.3
;MAXX:131.015
;MAXY:135.626
;MAXZ:13.98
;Generated with Cura_SteamEngine 5.2.1
M140 S80
M105
M190 S80
M104 S235
M105
M109 S235
M82 ;absolute extrusion mode
G21 ;metric values
G90 ;absolute positioning
M82 ;set extruder to absolute mode
M107 ;start with the fan off
G28 X0 Y0 ;move X/Y to min endstops
G28 Z0 ;move Z to min endstops
G1 Z15.0 F150.0 ;move the platform down 15mm
G92 E0 ;zero the extruded length
G1 F200 E3 ;extrude 3mm of feed stock
G92 E0 ;zero the extruded length again
G1 F150.0
G0 Y20 F150.0
M117 Printing...
G5
G92 E0
G92 E0
G1 F2400 E-6
;LAYER_COUNT:58
;LAYER:0
M107
M204 S3000
M205 X10 Y10
G1 F600 Z0.375
G0 F3375 X82.844 Y94.584 Z0.375
M204 S1800
M205 X8 Y8
;TYPE:SKIRT
G1 F600 Z0.3
G1 F2400 E0
G1 X83.379 Y94.136 E0.03423
G1 X83.888 Y93.797 E0.06423
G1 X84.673 Y93.328 E0.10909
G1 X87.013 Y91.884 E0.24397
G1 X89.222 Y90.434 E0.37359
G1 X91.377 Y88.93 E0.5025
G1 X93.538 Y87.328 E0.63446
G1 X95.612 Y85.7 E0.7638
G1 X97.671 Y83.985 E0.89525
G1 X99.646 Y82.244 E1.0244
G1 X101.593 Y80.428 E1.15501
G1 X103.489 Y78.555 E1.28575
G1 X104.412 Y77.609 E1.35058
G1 X104.893 Y77.156 E1.38299
G1 X105.506 Y76.65 E1.42198
G1 X106.055 Y76.254 E1.45519
G1 X106.876 Y75.73 E1.50297
G1 X107.891 Y75.257 E1.5579
G1 X108.485 Y75.032 E1.58906
G1 X108.961 Y74.866 E1.61379
G1 X109.683 Y74.668 E1.65051
G1 X110.19 Y74.562 E1.67592
G1 X110.829 Y74.463 E1.70764
G1 X111.674 Y74.398 E1.74921
G1 X112.822 Y74.375 E1.80554
G1 X117.889 Y74.374 E2.0541
G1 X118.674 Y74.385 E2.09261
G1 X119.26 Y74.421 E2.12141
G1 X119.764 Y74.477 E2.14629
G1 X120.672 Y74.632 E2.19147
G1 X121.499 Y74.869 E2.23367
G1 X122.408 Y75.21 E2.2813
G1 X123.282 Y75.624 E2.32874
G1 X123.943 Y76.035 E2.36692
G1 X124.59 Y76.491 E2.40575
G1 X125.202 Y77.007 E2.44502
G1 X125.992 Y77.749 E2.49818
G1 X126.076 Y77.817 E2.50349
G1 X127.249 Y78.922 E2.58254
G1 X127.703 Y79.336 E2.61268
G1 X128.67 Y80.211 E2.67665
G1 X129.4 Y80.982 E2.72874
G1 X129.909 Y81.688 E2.77143
G1 X130.25 Y82.297 E2.80567
G1 X130.557 Y83.016 E2.84402
G1 X130.782 Y83.676 E2.87822
G1 X130.931 Y84.358 E2.91247
G1 X131.006 Y85.234 E2.9556
G1 X131.015 Y85.938 E2.99014
G1 X131.014 Y87.932 E3.08795
G1 X131.003 Y88.65 E3.12318
G1 X130.944 Y89.412 E3.16067
G1 X130.611 Y91.76 E3.277
G1 X130.308 Y94.417 E3.40818
G1 X130.082 Y97.06 E3.53831
G1 X129.929 Y99.722 E3.66911
G1 X129.853 Y102.346 E3.79788
G1 X129.851 Y105.006 E3.92836
G1 X129.925 Y107.703 E4.06071
G1 X130.071 Y110.306 E4.1886
G1 X130.294 Y112.944 E4.31847
G1 X130.595 Y115.617 E4.45042
G1 X130.946 Y118.113 E4.57407
G1 X131.004 Y118.851 E4.61038
G1 X131.015 Y119.515 E4.64296
G1 X131.014 Y121.49 E4.73984
G1 X131.005 Y122.136 E4.77153
G1 X130.956 Y122.832 E4.80576
G1 X130.837 Y123.51 E4.83953
G1 X130.665 Y124.187 E4.87379
G1 X130.416 Y124.839 E4.90803
G1 X130.045 Y125.57 E4.94824
G1 X129.56 Y126.313 E4.99177
G1 X129.115 Y126.85 E5.02598
G1 X128.633 Y127.313 E5.05876
G1 X126.752 Y128.934 E5.18057
G1 X124.807 Y130.699 E5.30941
G1 X122.814 Y132.613 E5.44496
G1 X121.896 Y133.522 E5.50833
G1 X121.336 Y134.026 E5.54529
G1 X120.658 Y134.515 E5.5863
G1 X120.049 Y134.856 E5.62054
G1 X119.069 Y135.252 E5.67239
G1 X118.143 Y135.496 E5.71936
G1 X117.338 Y135.611 E5.75925
G1 X116.382 Y135.626 E5.80615
G1 X114.414 Y135.625 E5.90269
G1 X113.768 Y135.616 E5.93438
G1 X113.072 Y135.567 E5.96861
G1 X112.394 Y135.448 E6.00238
G1 X111.717 Y135.276 E6.03664
G1 X111.065 Y135.027 E6.07088
G1 X110.332 Y134.655 E6.1112
G1 X109.485 Y134.101 E6.16085
G1 X108.411 Y133.181 E6.23022
G1 X107.903 Y132.733 E6.26345
G1 X105.851 Y131.026 E6.39438
G1 X105.304 Y130.589 E6.42873
G1 X104.748 Y130.13 E6.46409
G1 X104.086 Y129.494 E6.50913
G1 X103.516 Y128.856 E6.5511
G1 X102.712 Y127.821 E6.61539
G1 X102.212 Y127.159 E6.65608
G1 X100.566 Y125.103 E6.78528
G1 X98.837 Y123.065 E6.91638
G1 X97.075 Y121.102 E7.04578
G1 X95.225 Y119.153 E7.1776
G1 X93.375 Y117.316 E7.30549
G1 X91.406 Y115.464 E7.43809
G1 X89.453 Y113.731 E7.56617
G1 X87.387 Y111.999 E7.69842
G1 X85.319 Y110.362 E7.8278
G1 X83.354 Y108.887 E7.94833
G1 X82.821 Y108.436 E7.98258
G1 X82.342 Y107.928 E8.01683
G1 X81.926 Y107.368 E8.05105
G1 X81.575 Y106.765 E8.08528
G1 X81.296 Y106.125 E8.11953
G1 X81.092 Y105.458 E8.15374
G1 X80.966 Y104.771 E8.188
G1 X80.91 Y104.039 E8.22402
G1 X80.91 Y99.593 E8.44211
G1 X80.92 Y98.935 E8.47439
G1 X80.97 Y98.239 E8.50862
G1 X81.1 Y97.554 E8.54283
G1 X81.307 Y96.887 E8.57709
G1 X81.59 Y96.249 E8.61132
G1 X81.943 Y95.647 E8.64556
G1 X82.363 Y95.09 E8.67978
G1 X82.844 Y94.584 E8.71402
M204 S3000
M205 X10 Y10
G0 F3375 X83.27 Y94.787
M204 S1800
M205 X8 Y8
G1 F2400 X83.88 Y94.31 E8.75201
G1 X84.901 Y93.701 E8.81033
G1 X87.231 Y92.263 E8.94464
G1 X89.476 Y90.789 E9.07638
G1 X91.637 Y89.281 E9.20565
G1 X93.795 Y87.682 E9.3374
G1 X95.889 Y86.037 E9.46803
G1 X97.949 Y84.321 E9.59955
G1 X99.943 Y82.564 E9.72992
G1 X101.907 Y80.732 E9.86167
G1 X103.801 Y78.861 E9.99226
G1 X104.711 Y77.928 E10.0562
G1 X105.192 Y77.475 E10.08861
G1 X105.761 Y77.005 E10.12481
G1 X106.31 Y76.609 E10.15802
G1 X107.09 Y76.112 E10.20339
G1 X108.045 Y75.666 E10.25509
G1 X109.007 Y75.305 E10.3055
G1 X109.773 Y75.096 E10.34445
G1 X110.28 Y74.99 E10.36985
G1 X110.873 Y74.898 E10.39929
G1 X111.683 Y74.835 E10.43915
G1 X112.831 Y74.812 E10.49547
G1 X117.889 Y74.811 E10.74359
G1 X118.668 Y74.822 E10.78181
G1 X119.212 Y74.856 E10.80854
G1 X119.716 Y74.912 E10.83342
G1 X120.572 Y75.057 E10.87601
G1 X121.357 Y75.282 E10.91607
G1 X122.247 Y75.616 E10.9627
G1 X123.069 Y76.006 E11.00733
G1 X123.695 Y76.395 E11.04348
G1 X124.326 Y76.84 E11.08136
G1 X124.903 Y77.326 E11.11837
G1 X125.64 Y78.018 E11.16796
G1 X125.776 Y78.135 E11.17676
G1 X126.952 Y79.242 E11.25599
G1 X128.376 Y80.535 E11.35034
G1 X129.063 Y81.26 E11.39933
G1 X129.554 Y81.944 E11.44064
G1 X130.079 Y82.966 E11.497
G1 X130.368 Y83.817 E11.54109
G1 X130.507 Y84.475 E11.57408
G1 X130.569 Y85.24 E11.61173
G1 X130.578 Y85.944 E11.64626
G1 X130.577 Y87.926 E11.74349
G1 X130.566 Y88.644 E11.77872
G1 X130.511 Y89.35 E11.81345
G1 X130.175 Y91.721 E11.93092
G1 X129.873 Y94.363 E12.06137
G1 X129.648 Y96.999 E12.19115
G1 X129.494 Y99.685 E12.32312
G1 X129.416 Y102.368 E12.45479
G1 X129.414 Y105.018 E12.58479
G1 X129.488 Y107.703 E12.71655
G1 X129.636 Y110.347 E12.84645
G1 X129.863 Y113.029 E12.97849
G1 X130.159 Y115.655 E13.10812
G1 X130.513 Y118.174 E13.2329
G1 X130.567 Y118.859 E13.26661
G1 X130.578 Y119.515 E13.29879
G1 X130.577 Y121.484 E13.39538
G1 X130.568 Y122.13 E13.42707
G1 X130.452 Y123.25 E13.48231
G1 X130.24 Y124.078 E13.52424
G1 X129.997 Y124.705 E13.55722
G1 X129.658 Y125.365 E13.59362
G1 X129.194 Y126.073 E13.63514
G1 X128.761 Y126.588 E13.66815
G1 X128.347 Y126.982 E13.69619
G1 X126.501 Y128.572 E13.8157
G1 X124.502 Y130.387 E13.94815
G1 X122.512 Y132.298 E14.08349
G1 X121.589 Y133.212 E14.14721
G1 X121.056 Y133.69 E14.18233
G1 X120.402 Y134.16 E14.22184
G1 X119.813 Y134.485 E14.25484
G1 X118.92 Y134.842 E14.30201
G1 X118.032 Y135.072 E14.34701
G1 X117.277 Y135.175 E14.38439
G1 X116.382 Y135.189 E14.4283
G1 X114.42 Y135.188 E14.52455
G1 X113.774 Y135.179 E14.55624
G1 X112.654 Y135.063 E14.61147
G1 X111.826 Y134.851 E14.6534
G1 X111.199 Y134.608 E14.68639
G1 X110.542 Y134.271 E14.72261
G1 X109.745 Y133.749 E14.76934
G1 X108.7 Y132.853 E14.83687
G1 X108.199 Y132.411 E14.86964
G1 X106.118 Y130.68 E15.00242
G1 X105.582 Y130.252 E15.03607
G1 X105.026 Y129.793 E15.07144
G1 X104.412 Y129.202 E15.11324
G1 X103.844 Y128.567 E15.15504
G1 X103.061 Y127.558 E15.21769
G1 X102.56 Y126.896 E15.25841
G1 X100.899 Y124.819 E15.38887
G1 X99.169 Y122.78 E15.52005
G1 X97.39 Y120.8 E15.65062
G1 X95.541 Y118.851 E15.78241
G1 X93.673 Y116.996 E15.91155
G1 X91.705 Y115.145 E16.04408
G1 X89.734 Y113.396 E16.17334
G1 X87.688 Y111.681 E16.3043
G1 X85.56 Y109.996 E16.43745
G1 X83.616 Y108.537 E16.55669
G1 X83.103 Y108.102 E16.58968
G1 X82.646 Y107.61 E16.62262
G1 X82.25 Y107.066 E16.65563
G1 X81.922 Y106.479 E16.68861
G1 X81.665 Y105.858 E16.72158
G1 X81.484 Y105.21 E16.75459
G1 X81.381 Y104.546 E16.78755
G1 X81.347 Y103.691 E16.82952
G1 X81.347 Y99.6 E17.0302
G1 X81.357 Y98.942 E17.06249
G1 X81.407 Y98.272 E17.09544
G1 X81.536 Y97.612 E17.12843
G1 X81.743 Y96.972 E17.16143
G1 X82.024 Y96.361 E17.19442
G1 X82.376 Y95.788 E17.22741
G1 X82.793 Y95.261 E17.26037
G1 X83.27 Y94.787 E17.29336
M204 S3000
M205 X10 Y10
G0 F3375 X83.695 Y94.999
M204 S1800
M205 X8 Y8
G1 F2400 X84.336 Y94.547 E17.33184
G1 X85.16 Y94.055 E17.37891
G1 X87.45 Y92.642 E17.51091
G1 X89.716 Y91.154 E17.64389
G1 X91.896 Y89.632 E17.77432
G1 X94.074 Y88.019 E17.90727
G1 X96.174 Y86.369 E18.03827
G1 X98.228 Y84.659 E18.16938
G1 X100.24 Y82.885 E18.30096
G1 X102.203 Y81.053 E18.43268
G1 X104.093 Y79.188 E18.56293
G1 X104.835 Y78.419 E18.61535
G1 X105.492 Y77.793 E18.65987
G1 X106.017 Y77.359 E18.69328
G1 X106.566 Y76.963 E18.72649
G1 X107.302 Y76.493 E18.76932
G1 X108.2 Y76.074 E18.81793
G1 X109.105 Y75.731 E18.86541
G1 X109.862 Y75.523 E18.90392
G1 X110.369 Y75.417 E18.92933
G1 X110.916 Y75.333 E18.95648
G1 X111.691 Y75.272 E18.99461
G1 X112.839 Y75.249 E19.05094
G1 X117.889 Y75.248 E19.29866
G1 X118.662 Y75.259 E19.33659
G1 X119.163 Y75.29 E19.36121
G1 X119.667 Y75.346 E19.38608
G1 X120.474 Y75.483 E19.42624
G1 X121.216 Y75.696 E19.46411
G1 X122.087 Y76.023 E19.50975
G1 X122.854 Y76.386 E19.55137
G1 X123.551 Y76.819 E19.59162
G1 X124.182 Y77.289 E19.63022
G1 X124.604 Y77.644 E19.65727
G1 X125.401 Y78.392 E19.71089
G1 X125.476 Y78.453 E19.71563
G1 X126.654 Y79.562 E19.795
G1 X127.118 Y79.985 E19.8258
G1 X128.083 Y80.859 E19.88966
G1 X128.726 Y81.537 E19.9355
G1 X129.198 Y82.199 E19.97538
G1 X129.677 Y83.137 E20.02705
G1 X129.953 Y83.957 E20.06949
G1 X130.082 Y84.59 E20.10118
G1 X130.132 Y85.245 E20.1334
G1 X130.141 Y85.949 E20.16794
G1 X130.14 Y87.919 E20.26458
G1 X130.129 Y88.637 E20.2998
G1 X130.078 Y89.289 E20.33189
G1 X129.743 Y91.651 E20.44891
G1 X129.44 Y94.309 E20.58014
G1 X129.209 Y97.008 E20.71303
G1 X129.057 Y99.648 E20.84274
G1 X128.979 Y102.355 E20.97559
G1 X128.977 Y105.029 E21.10676
G1 X129.051 Y107.704 E21.23803
G1 X129.202 Y110.409 E21.37093
G1 X129.425 Y113.043 E21.5006
G1 X129.727 Y115.723 E21.6329
G1 X130.08 Y118.234 E21.75729
G1 X130.13 Y118.867 E21.78844
G1 X130.141 Y119.515 E21.82023
G1 X130.14 Y121.478 E21.91652
G1 X130.131 Y122.124 E21.94822
G1 X130.023 Y123.168 E21.9997
G1 X129.817 Y123.969 E22.04027
G1 X129.579 Y124.569 E22.07194
G1 X129.183 Y125.293 E22.11242
G1 X128.828 Y125.833 E22.14412
G1 X128.319 Y126.43 E22.1826
G1 X126.191 Y128.263 E22.32038
G1 X124.195 Y130.074 E22.45259
G1 X122.209 Y131.982 E22.58769
G1 X121.281 Y132.901 E22.65175
G1 X120.779 Y133.351 E22.68482
G1 X120.147 Y133.804 E22.72297
G1 X119.579 Y134.112 E22.75466
G1 X118.774 Y134.429 E22.7971
G1 X117.922 Y134.649 E22.84027
G1 X117.019 Y134.742 E22.8848
G1 X116.382 Y134.752 E22.91605
G1 X114.426 Y134.751 E23.012
G1 X113.78 Y134.742 E23.04369
G1 X112.736 Y134.634 E23.09518
G1 X111.935 Y134.428 E23.13575
G1 X111.335 Y134.19 E23.16742
G1 X110.611 Y133.795 E23.20787
G1 X110 Y133.391 E23.2438
G1 X108.989 Y132.526 E23.30907
G1 X108.457 Y132.057 E23.34386
G1 X106.408 Y130.352 E23.47462
G1 X105.86 Y129.915 E23.50901
G1 X105.304 Y129.456 E23.54437
G1 X104.737 Y128.911 E23.58295
G1 X104.184 Y128.293 E23.62363
G1 X103.41 Y127.294 E23.68563
G1 X102.923 Y126.65 E23.72523
G1 X101.246 Y124.554 E23.85691
G1 X99.5 Y122.497 E23.98927
G1 X97.689 Y120.48 E24.12224
G1 X95.857 Y118.549 E24.25281
G1 X93.972 Y116.677 E24.38313
G1 X92.002 Y114.824 E24.5158
G1 X90.014 Y113.06 E24.64618
G1 X87.95 Y111.33 E24.77829
G1 X85.85 Y109.668 E24.90966
G1 X83.879 Y108.188 E25.03057
G1 X83.387 Y107.769 E25.06227
G1 X82.951 Y107.292 E25.09397
G1 X82.577 Y106.766 E25.12563
G1 X82.271 Y106.197 E25.15732
G1 X82.038 Y105.595 E25.18899
G1 X81.881 Y104.968 E25.2207
G1 X81.784 Y104.056 E25.26569
G1 X81.784 Y99.607 E25.48393
G1 X81.794 Y98.949 E25.51621
G1 X81.843 Y98.305 E25.54789
G1 X81.972 Y97.672 E25.57958
G1 X82.178 Y97.06 E25.61126
G1 X82.458 Y96.478 E25.64294
G1 X82.808 Y95.935 E25.67463
G1 X83.222 Y95.439 E25.70633
G1 X83.695 Y94.999 E25.73802
M204 S3000
M205 X10 Y10
G1 F2400 E19.73802
;MESH:X_Hemera_BLTouchMount_Volcano_V1.stl
G0 F3375 X106.71 Y85.017
G0 X107.825 Y85.017
G0 X109.414 Y83.457
M204 S1800
M205 X8 Y8
;TYPE:WALL-INNER
G1 F2400 E25.73802
G1 F966.3 X109.195 Y83.844 E25.75833
G1 X108.953 Y84.581 E25.79377
G1 F934.2 X108.905 Y85.084 E25.81765
G1 F902.1 X108.9 Y99.144 E26.50578
G1 X108.778 Y99.623 E26.52997
G1 F900 X108.634 Y99.885 E26.54464
G1 X108.381 Y100.171 E26.56337
G1 X108.144 Y100.342 E26.5777
G1 X107.801 Y100.49 E26.59603
G1 X107.371 Y100.551 E26.61733
G1 X88.532 Y100.551 E27.54147
G1 X88.532 Y102.493 E27.63674
G1 X107.371 Y102.493 E28.56087
G1 X107.801 Y102.554 E28.58218
G1 X108.144 Y102.702 E28.6005
G1 X108.381 Y102.873 E28.61484
G1 X108.634 Y103.159 E28.63357
G1 X108.778 Y103.421 E28.64824
G1 F897.9 X108.901 Y103.906 E28.67284
G1 F893.9 X108.902 Y117.191 E29.329
G1 X108.902 Y117.886 E29.36333
G1 F895.9 X108.901 Y122.569 E29.5941
G1 F947.7 X108.979 Y123.203 E29.62386
G1 F1005.9 X109.178 Y123.708 E29.64768
G1 X109.402 Y124.051 E29.66566
G1 X109.365 Y123.72 E29.68028
G1 X109.365 Y123.151 E29.70526
G1 F947.7 X109.341 Y122.552 E29.73318
G1 F887.8 X109.342 Y117.65 E29.97695
G1 F889.8 X109.546 Y116.936 E30.01379
G1 F900 X109.885 Y116.278 E30.0501
G1 X110.287 Y115.811 E30.08033
G1 X110.873 Y115.362 E30.11654
G1 X111.408 Y115.121 E30.14533
G1 X112.127 Y114.95 E30.18158
G1 X113.037 Y114.989 E30.22626
G1 X113.719 Y115.223 E30.26163
G1 X114.512 Y115.735 E30.30794
G1 X115.082 Y116.451 E30.35283
G1 X115.35 Y117.105 E30.3875
G1 X115.451 Y117.479 E30.4065
G1 X115.496 Y117.857 E30.42518
G1 X115.498 Y123.805 E30.71695
G1 X115.451 Y124.103 E30.73175
G1 X115.249 Y124.743 E30.76467
G1 X115.144 Y124.959 E30.77646
G1 X114.724 Y125.559 E30.81238
G1 X114.489 Y125.799 E30.82886
G1 X113.991 Y126.156 E30.85892
G1 X114.205 Y126.557 E30.88122
G1 X114.394 Y127.237 E30.91584
G1 X114.398 Y128.004 E30.95346
G1 X116.343 Y128.004 E31.04887
G1 X116.35 Y127.166 E31.08998
G1 X116.589 Y126.417 E31.12855
G1 X116.735 Y126.157 E31.14318
G1 X117.106 Y125.702 E31.17198
G1 X117.309 Y125.525 E31.18519
G1 X117.827 Y125.189 E31.21548
G1 X118.295 Y125.04 E31.23957
G1 X118.818 Y124.958 E31.26554
G1 X119.181 Y124.847 E31.28416
G1 X119.616 Y124.59 E31.30894
G1 X119.966 Y124.243 E31.33312
G1 X120.138 Y123.988 E31.34821
G1 X120.284 Y123.663 E31.36569
G1 X120.45 Y123.092 E31.39486
G1 X120.679 Y122.667 E31.41854
G1 X120.564 Y122.489 E31.42893
G1 X120.393 Y121.983 E31.45513
G1 X120.393 Y119.106 E31.59626
G1 X120.476 Y118.785 E31.61253
G1 X120.72 Y118.336 E31.6376
G1 X121.097 Y118.001 E31.66234
G1 X121.027 Y117.848 E31.67059
G1 X120.894 Y117.239 E31.70117
G1 X120.9 Y90.206 E33.02726
G1 X120.932 Y89.973 E33.0388
G1 X121.096 Y89.497 E33.06349
G1 X120.743 Y89.192 E33.08638
G1 X120.5 Y88.782 E33.10976
G1 X120.393 Y88.402 E33.12912
G1 X120.393 Y85.717 E33.26083
G1 X120.459 Y85.271 E33.28295
G1 X120.642 Y84.879 E33.30417
G1 X120.867 Y84.607 E33.32149
G1 X121.019 Y84.485 E33.33105
G1 X120.936 Y84.309 E33.34059
G1 X120.783 Y83.758 E33.36865
G1 X120.548 Y83.23 E33.397
G1 X120.201 Y82.76 E33.42566
G1 X119.691 Y82.352 E33.45769
G1 X119.074 Y82.088 E33.49061
G1 X118.509 Y81.996 E33.5187
G1 X114.725 Y81.998 E33.70432
G1 X114.907 Y82.213 E33.71814
G1 X115.151 Y82.616 E33.74125
G1 X115.35 Y83.104 E33.7671
G1 X115.453 Y83.494 E33.78689
G1 X115.498 Y83.956 E33.80966
G1 X115.492 Y89.933 E34.10286
