;FLAVOR:Marlin
;TIME:1543
;Filament used: 1.43245m
;Layer height: 0.24
;MINX:86.169
;MINY:79.594
;MINZ:0.3
;MAXX:123.832
;MAXY:130.406
;MAXZ:17.1
;Generated with Cura_SteamEngine 5.2.1
M140 S80
M105
M190 S80
M104 S235
M105
M109 S235
M82 ;absolute extrusion mode
G21 ;metric values
G90 ;absolute positioning
M82 ;set extruder to absolute mode
M107 ;start with the fan off
G28 X0 Y0 ;move X/Y to min endstops
G28 Z0 ;move Z to min endstops
G1 Z15.0 F150.0 ;move the platform down 15mm
G92 E0 ;zero the extruded length
G1 F200 E3 ;extrude 3mm of feed stock
G92 E0 ;zero the extruded length again
G1 F150.0
G0 Y20 F150.0
M117 Printing...
G5
G92 E0
G92 E0
G1 F2400 E-6
;LAYER_COUNT:71
;LAYER:0
M107
M204 S3000
M205 X10 Y10
G1 F600 Z0.375
G0 F3375 X87.866 Y85.469 Z0.375
M204 S1800
M205 X8 Y8
;TYPE:SKIRT
G1 F600 Z0.3
G1 F2400 E0
G1 X91.543 Y81.788 E0.25523
G1 X92.03 Y81.317 E0.28846
G1 X92.559 Y80.862 E0.32269
G1 X93.136 Y80.469 E0.35693
G1 X93.754 Y80.146 E0.39114
G1 X94.406 Y79.895 E0.42541
G1 X95.081 Y79.72 E0.45962
G1 X95.875 Y79.61 E0.49894
G1 X96.823 Y79.594 E0.54545
G1 X103.032 Y79.594 E0.85003
G1 X103.831 Y79.606 E0.88923
G1 X104.527 Y79.657 E0.92346
G1 X105.213 Y79.787 E0.95771
G1 X105.879 Y79.994 E0.99193
G1 X106.641 Y80.332 E1.03282
G1 X107.602 Y80.921 E1.08811
G1 X108.608 Y81.559 E1.14654
G1 X110.894 Y82.921 E1.27708
G1 X113.2 Y84.209 E1.40665
G1 X115.571 Y85.447 E1.53786
G1 X117.976 Y86.616 E1.66903
G1 X120.246 Y87.645 E1.79129
G1 X120.864 Y87.969 E1.82552
G1 X121.441 Y88.361 E1.85974
G1 X121.969 Y88.818 E1.89399
G1 X122.442 Y89.331 E1.92822
G1 X122.853 Y89.895 E1.96246
G1 X123.196 Y90.503 E1.9967
G1 X123.468 Y91.145 E2.0309
G1 X123.665 Y91.815 E2.06516
G1 X123.784 Y92.503 E2.09941
G1 X123.832 Y93.179 E2.13266
G1 X123.832 Y123.652 E3.6275
G1 X123.823 Y124.379 E3.66316
G1 X123.774 Y125.076 E3.69744
G1 X123.646 Y125.762 E3.73167
G1 X123.441 Y126.429 E3.7659
G1 X123.16 Y127.068 E3.80014
G1 X122.809 Y127.671 E3.83437
G1 X122.39 Y128.229 E3.8686
G1 X121.911 Y128.736 E3.90281
G1 X121.377 Y129.185 E3.93704
G1 X120.794 Y129.57 E3.97131
G1 X120.172 Y129.886 E4.00553
G1 X119.518 Y130.129 E4.03976
G1 X118.84 Y130.295 E4.074
G1 X117.797 Y130.406 E4.12545
G1 X102.881 Y130.405 E4.85715
G1 X102.179 Y130.395 E4.89159
G1 X101.483 Y130.345 E4.92582
G1 X100.797 Y130.216 E4.96006
G1 X100.131 Y130.01 E4.99426
G1 X99.492 Y129.728 E5.02852
G1 X98.89 Y129.375 E5.06275
G1 X98.042 Y128.707 E5.11571
G1 X88.375 Y119.044 E5.7862
G1 X87.905 Y118.561 E5.81926
G1 X87.448 Y118.034 E5.85348
G1 X87.054 Y117.458 E5.88771
G1 X86.728 Y116.841 E5.92195
G1 X86.476 Y116.19 E5.95619
G1 X86.299 Y115.515 E5.99042
G1 X86.186 Y114.715 E6.03005
G1 X86.169 Y113.87 E6.07151
G1 X86.169 Y90.307 E7.22739
G1 X86.179 Y89.605 E7.26183
G1 X86.229 Y88.909 E7.29606
G1 X86.358 Y88.223 E7.3303
G1 X86.564 Y87.557 E7.36449
G1 X86.846 Y86.918 E7.39876
G1 X87.199 Y86.316 E7.43299
G1 X87.866 Y85.469 E7.48588
M204 S3000
M205 X10 Y10
G0 F3375 X88.184 Y85.77
M204 S1800
M205 X8 Y8
G1 F2400 X91.847 Y82.102 E7.74017
G1 X92.334 Y81.631 E7.7734
G1 X92.844 Y81.193 E7.80638
G1 X93.403 Y80.819 E7.83937
G1 X94.002 Y80.514 E7.87234
G1 X94.633 Y80.282 E7.90532
G1 X95.287 Y80.126 E7.9383
G1 X96.164 Y80.042 E7.98152
G1 X96.823 Y80.031 E8.01385
G1 X103.032 Y80.031 E8.31843
G1 X103.824 Y80.043 E8.35729
G1 X104.495 Y80.093 E8.3903
G1 X105.155 Y80.223 E8.42329
G1 X105.794 Y80.43 E8.45624
G1 X106.692 Y80.876 E8.50543
G1 X107.449 Y81.341 E8.54901
G1 X108.375 Y81.929 E8.60282
G1 X110.693 Y83.31 E8.73518
G1 X112.995 Y84.595 E8.8645
G1 X115.359 Y85.829 E8.99532
G1 X117.786 Y87.009 E9.1277
G1 X120.066 Y88.043 E9.25051
G1 X120.66 Y88.356 E9.28344
G1 X121.214 Y88.738 E9.31645
G1 X121.718 Y89.183 E9.34943
G1 X122.166 Y89.685 E9.38244
G1 X122.551 Y90.236 E9.41541
G1 X122.868 Y90.829 E9.4484
G1 X123.112 Y91.455 E9.48136
G1 X123.28 Y92.106 E9.51434
G1 X123.395 Y93.134 E9.56508
G1 X123.395 Y123.647 E11.06188
G1 X123.386 Y124.374 E11.09755
G1 X123.337 Y125.045 E11.13055
G1 X123.21 Y125.705 E11.16352
G1 X123.005 Y126.345 E11.19649
G1 X122.725 Y126.957 E11.2295
G1 X122.375 Y127.531 E11.26248
G1 X121.96 Y128.059 E11.29542
G1 X121.484 Y128.535 E11.32844
G1 X120.955 Y128.95 E11.36143
G1 X120.381 Y129.3 E11.39441
G1 X119.77 Y129.579 E11.42735
G1 X119.129 Y129.784 E11.46037
G1 X118.469 Y129.912 E11.49335
G1 X117.75 Y129.969 E11.52873
G1 X102.887 Y129.968 E12.25783
G1 X102.185 Y129.958 E12.29226
G1 X101.515 Y129.909 E12.32522
G1 X100.855 Y129.78 E12.35821
G1 X100.215 Y129.574 E12.39119
G1 X99.604 Y129.293 E12.42418
G1 X99.031 Y128.942 E12.45714
G1 X98.343 Y128.389 E12.50044
G1 X88.688 Y118.739 E13.17007
G1 X88.218 Y118.256 E13.20313
G1 X87.779 Y117.748 E13.23607
G1 X87.403 Y117.19 E13.26907
G1 X87.096 Y116.592 E13.30205
G1 X86.862 Y115.962 E13.33501
G1 X86.704 Y115.308 E13.36802
G1 X86.617 Y114.423 E13.41164
G1 X86.605 Y113.751 E13.44461
G1 X86.606 Y90.313 E14.59435
G1 X86.616 Y89.611 E14.62879
G1 X86.665 Y88.941 E14.66175
G1 X86.794 Y88.281 E14.69473
G1 X87 Y87.641 E14.72772
G1 X87.281 Y87.03 E14.76071
G1 X87.632 Y86.457 E14.79367
G1 X88.184 Y85.77 E14.8369
M204 S3000
M205 X10 Y10
G0 F3375 X88.526 Y86.045
M204 S1800
M205 X8 Y8
G1 F2400 X92.151 Y82.416 E15.08852
G1 X92.638 Y81.945 E15.12175
G1 X93.129 Y81.526 E15.15342
G1 X93.668 Y81.171 E15.18508
G1 X94.247 Y80.884 E15.21678
G1 X94.857 Y80.672 E15.24846
G1 X95.488 Y80.536 E15.28012
G1 X96.172 Y80.479 E15.31379
G1 X96.823 Y80.468 E15.34573
G1 X103.032 Y80.468 E15.65031
G1 X103.818 Y80.48 E15.68887
G1 X104.461 Y80.53 E15.72051
G1 X105.094 Y80.659 E15.7522
G1 X105.706 Y80.865 E15.78387
G1 X106.463 Y81.248 E15.82549
G1 X107.215 Y81.71 E15.86878
G1 X108.152 Y82.305 E15.92323
G1 X110.455 Y83.677 E16.05473
G1 X112.789 Y84.98 E16.18586
G1 X115.176 Y86.226 E16.31795
G1 X117.609 Y87.409 E16.45066
G1 X119.885 Y88.441 E16.57325
G1 X120.456 Y88.743 E16.60493
G1 X120.985 Y89.114 E16.63663
G1 X121.464 Y89.547 E16.6683
G1 X121.885 Y90.036 E16.69996
G1 X122.244 Y90.574 E16.73168
G1 X122.533 Y91.151 E16.76334
G1 X122.748 Y91.76 E16.79502
G1 X122.887 Y92.391 E16.82672
G1 X122.958 Y93.17 E16.86509
G1 X122.958 Y123.642 E18.35988
G1 X122.949 Y124.369 E18.39554
G1 X122.901 Y125.013 E18.42722
G1 X122.774 Y125.646 E18.45889
G1 X122.569 Y126.259 E18.4906
G1 X122.291 Y126.841 E18.52224
G1 X121.942 Y127.385 E18.55394
G1 X121.53 Y127.882 E18.58561
G1 X121.059 Y128.324 E18.6173
G1 X120.537 Y128.704 E18.64897
G1 X119.972 Y129.017 E18.68065
G1 X119.372 Y129.258 E18.71237
G1 X118.748 Y129.423 E18.74403
G1 X117.778 Y129.532 E18.79192
G1 X102.894 Y129.531 E19.52204
G1 X102.192 Y129.521 E19.55648
G1 X101.548 Y129.472 E19.58817
G1 X100.915 Y129.344 E19.61985
G1 X100.302 Y129.139 E19.65155
G1 X99.72 Y128.859 E19.68324
G1 X99.177 Y128.51 E19.7149
G1 X98.624 Y128.052 E19.75012
G1 X89.002 Y118.435 E20.41746
G1 X88.532 Y117.952 E20.45052
G1 X88.111 Y117.462 E20.48221
G1 X87.754 Y116.924 E20.51389
G1 X87.466 Y116.346 E20.54556
G1 X87.251 Y115.736 E20.57729
G1 X87.114 Y115.105 E20.60897
G1 X87.054 Y114.414 E20.64299
G1 X87.042 Y113.751 E20.67552
G1 X87.043 Y90.32 E21.82492
G1 X87.053 Y89.618 E21.85936
G1 X87.102 Y88.974 E21.89104
G1 X87.23 Y88.341 E21.92272
G1 X87.435 Y87.728 E21.95443
G1 X87.715 Y87.146 E21.98611
G1 X88.064 Y86.603 E22.01777
G1 X88.526 Y86.045 E22.05331
M204 S3000
M205 X10 Y10
G1 F2400 E16.05331
;MESH:X_Hemera_Carriage_EndStopMount_V1.stl
G0 F3375 X91.922 Y89.086
G0 X92.709 Y89.872
G0 X95.322 Y89.351
G0 X96.849 Y94.107
M204 S1800
M205 X8 Y8
;TYPE:WALL-INNER
G1 F2400 E22.05331
G1 F900 X96.27 Y93.721 E22.08744
G1 X95.795 Y93.225 E22.12113
G1 X95.607 Y92.953 E22.13735
G1 X95.309 Y92.324 E22.1715
G1 X95.175 Y91.825 E22.19684
G1 X95.133 Y91.216 E22.22679
G1 F816 X95.215 Y90.527 E22.26433
G1 F687.6 X95.544 Y89.564 E22.32967
G1 F650.1 X95.987 Y89.012 E22.37774
G1 F661 X96.458 Y88.61 E22.4191
G1 F750.6 X96.784 Y88.495 E22.43943
G1 F885.8 X97.292 Y88.274 E22.46704
G1 F900 X97.967 Y88.113 E22.50108
G1 X98.716 Y88.144 E22.53785
G1 X99.197 Y88.245 E22.56196
G1 X99.697 Y88.437 E22.58824
G1 X100.058 Y88.637 E22.60848
G1 X100.489 Y88.972 E22.63526
G1 X100.826 Y89.35 E22.6601
G1 F812.6 X101.051 Y89.675 E22.68158
G1 F678.1 X101.498 Y90.561 E22.74619
G1 F651.2 X101.557 Y91.37 E22.80119
G1 F655.5 X101.502 Y91.99 E22.84311
G1 F724.3 X101.347 Y92.266 E22.8624
G1 F870.1 X101.071 Y92.86 E22.89563
G1 F900 X100.677 Y93.414 E22.92898
G1 X100.076 Y93.937 E22.96806
G1 X99.814 Y94.086 E22.98285
G1 X99.138 Y94.355 E23.01854
G1 X98.762 Y94.425 E23.0373
G1 X98.113 Y94.464 E23.0692
G1 X97.486 Y94.354 E23.10042
G1 X96.849 Y94.107 E23.13394
M204 S3000
M205 X10 Y10
G0 F3375 X98.862 Y93.758
G0 X100.238 Y92.923
G0 X101.805 Y90.513
G0 X102.21 Y87.216
M204 S1800
M205 X8 Y8
G1 F900 X96.896 Y87.217 E23.39461
G1 F885.8 X96.306 Y87.816 E23.43652
G1 F750.6 X96.064 Y88.161 E23.4613
G1 F674.6 X95.634 Y88.568 E23.50005
G1 F663.2 X95.078 Y89.162 E23.55421
G1 F746.3 X94.64 Y89.473 E23.58599
G1 F900 X93.791 Y90.322 E23.64489
G1 X93.791 Y113.678 E24.79061
G1 X102.896 Y122.784 E25.42229
G1 X116.21 Y122.784 E26.0754
G1 X116.21 Y103.25 E27.03363
G1 X116.21 Y94.716 E27.45226
G1 X103.63 Y94.716 E28.06937
G1 X103.147 Y94.598 E28.09376
G1 X102.728 Y94.335 E28.11803
G1 X102.515 Y94.105 E28.1334
G1 X102.364 Y93.858 E28.1476
G1 F885.8 X102.213 Y93.403 E28.1715
G1 F856.9 X102.195 Y92.424 E28.22195
G1 F724.3 X102.119 Y92.043 E28.24563
G1 F655.5 X102.139 Y91.37 E28.29098
G1 F651.2 X102.115 Y90.474 E28.35175
G1 F727 X102.21 Y90.02 E28.37992
G1 F881.8 X102.21 Y87.216 E28.5203
M204 S3000
M205 X10 Y10
G1 F2400 E22.5203
G1 F600 Z0.375
G0 F3375 X102.301 Y87.125 Z0.375
G0 X100.89 Y112.168
M204 S1800
M205 X8 Y8
G1 F600 Z0.3
G1 F2400 E28.5203
G1 F900 X100.316 Y112.766 E28.56096
G1 X99.599 Y113.199 E28.60205
G1 X99.011 Y113.384 E28.63229
G1 X98.594 Y113.443 E28.65295
G1 X98.049 Y113.445 E28.67968
G1 X97.63 Y113.389 E28.70042
G1 X96.98 Y113.17 E28.73406
G1 X96.451 Y112.875 E28.76378
G1 X95.888 Y112.343 E28.80177
G1 X95.652 Y112.013 E28.82167
G1 X95.397 Y111.534 E28.84829
G1 X95.255 Y111.152 E28.86829
G1 X95.164 Y110.742 E28.88889
G1 X95.141 Y110.112 E28.91981
G1 X95.176 Y109.778 E28.93629
G1 X95.357 Y109.119 E28.96981
G1 X95.668 Y108.528 E29.00257
G1 X95.891 Y108.231 E29.02079
G1 X96.183 Y107.936 E29.04115
G1 X96.595 Y107.62 E29.06662
G1 X96.95 Y107.416 E29.08671
G1 X97.548 Y107.195 E29.11798
G1 X98.39 Y107.102 E29.15953
G1 X99.161 Y107.215 E29.19776
G1 X99.844 Y107.495 E29.23397
G1 X100.364 Y107.861 E29.26516
G1 X100.86 Y108.366 E29.29989
G1 X101.308 Y109.197 E29.3462
G1 X101.477 Y109.943 E29.38372
G1 X101.475 Y110.652 E29.4185
G1 X101.306 Y111.376 E29.45497
G1 X100.89 Y112.168 E29.49885
M204 S3000
M205 X10 Y10
G1 F2400 E23.49885
G1 F600 Z0.375
G0 F3375 X100.707 Y112.026 Z0.375
G0 X112.276 Y120.136
M204 S1800
M205 X8 Y8
G1 F600 Z0.3
G1 F2400 E29.49885
G1 F900 X111.928 Y120.534 E29.52479
G1 X111.618 Y120.802 E29.54489
G1 X111.043 Y121.139 E29.57758
G1 X110.425 Y121.347 E29.60957
G1 X109.805 Y121.418 E29.64018
G1 X108.997 Y121.32 E29.68011
G1 X108.373 Y121.089 E29.71275
G1 X108.067 Y120.916 E29.72999
G1 X107.728 Y120.656 E29.75095
G1 X107.36 Y120.28 E29.77676
G1 X107.108 Y119.94 E29.79752
G1 X106.935 Y119.622 E29.81528
G1 X106.712 Y118.974 E29.84889
G1 X106.655 Y118.636 E29.86571
G1 X106.641 Y118.003 E29.89677
G1 X106.809 Y117.246 E29.93481
G1 X107.116 Y116.62 E29.96901
G1 X107.304 Y116.36 E29.98475
G1 X107.86 Y115.784 E30.02402
G1 X108.58 Y115.394 E30.06419
G1 X109.123 Y115.226 E30.09207
G1 X109.857 Y115.144 E30.1283
G1 X110.759 Y115.315 E30.17333
G1 X111.33 Y115.587 E30.20436
G1 X111.865 Y115.979 E30.2369
G1 X112.154 Y116.288 E30.25765
G1 X112.457 Y116.721 E30.28357
G1 X112.649 Y117.094 E30.30415
G1 X112.84 Y117.752 E30.33776
G1 X112.892 Y118.281 E30.36384
G1 X112.818 Y119.028 E30.40066
G1 X112.497 Y119.817 E30.44245
G1 X112.276 Y120.136 E30.46148
M204 S3000
M205 X10 Y10
G0 F3375 X110.381 Y120.686
G0 X109.289 Y120.719
G0 X108.286 Y120.279
G0 X107.469 Y119.223
G0 X107.296 Y118.238
G0 X107.541 Y116.747
M204 S1800
M205 X8 Y8
G1 F900 X108.124 Y116.138 E30.50284
G1 X108.65 Y115.838 E30.53254
G1 X109.216 Y115.653 E30.56175
G1 X109.843 Y115.593 E30.59265
G1 X110.636 Y115.737 E30.63219
G1 X111.131 Y115.976 E30.65915
G1 X111.59 Y116.318 E30.68723
G1 X111.797 Y116.539 E30.70209
G1 X112.099 Y116.972 E30.72798
G1 X112.236 Y117.238 E30.74266
G1 X112.406 Y117.803 E30.7716
G1 X112.455 Y118.281 E30.79517
G1 X112.39 Y118.924 E30.82688
G1 X112.054 Y119.727 E30.86958
G1 X111.599 Y120.245 E30.9034
G1 X111.378 Y120.438 E30.91779
G1 X110.886 Y120.732 E30.94591
G1 X110.35 Y120.917 E30.97372
G1 X109.805 Y120.981 E31.00064
G1 X109.364 Y120.949 E31.02233
G1 X108.799 Y120.8 E31.05099
G1 X108.282 Y120.535 E31.07949
G1 X108.04 Y120.349 E31.09446
G1 X107.672 Y119.974 E31.12024
G1 X107.492 Y119.731 E31.13507
G1 X107.228 Y119.191 E31.16456
G1 X107.092 Y118.613 E31.19369
G1 X107.077 Y118.055 E31.22107
G1 X107.229 Y117.372 E31.25539
G1 X107.541 Y116.747 E31.28966
M204 S3000
M205 X10 Y10
G1 F2400 E25.28966
G1 F600 Z0.375
G0 F3375 X107.418 Y116.627 Z0.375
G0 X96.037 Y111.808
M204 S1800
M205 X8 Y8
G1 F600 Z0.3
G1 F2400 E31.28966
G1 F900 X95.782 Y111.329 E31.31628
G1 X95.595 Y110.667 E31.35002
G1 X95.574 Y109.981 E31.38369
G1 X95.754 Y109.302 E31.41815
G1 X96.017 Y108.791 E31.44634
G1 X96.24 Y108.494 E31.46456
G1 X96.449 Y108.283 E31.47913
G1 X96.991 Y107.867 E31.51264
G1 X97.639 Y107.625 E31.54658
G1 X98.39 Y107.541 E31.58365
G1 X99.035 Y107.635 E31.61562
G1 X99.589 Y107.861 E31.64497
G1 X100.082 Y108.195 E31.67418
G1 X100.506 Y108.628 E31.70391
G1 X100.878 Y109.33 E31.74288
G1 X101.031 Y109.945 E31.77397
G1 X101.045 Y110.571 E31.80469
G1 X100.896 Y111.217 E31.83721
G1 X100.531 Y111.913 E31.87576
G1 X100.05 Y112.415 E31.90987
G1 X99.413 Y112.8 E31.94638
G1 X98.89 Y112.964 E31.97326
G1 X98.592 Y113.006 E31.98803
G1 X98.047 Y113.008 E32.01476
G1 X97.748 Y112.968 E32.02956
G1 X97.185 Y112.784 E32.05862
G1 X96.722 Y112.529 E32.08454
G1 X96.206 Y112.043 E32.11932
G1 X96.037 Y111.808 E32.13352
M204 S3000
M205 X10 Y10
G1 F2400 E26.13352
G1 F600 Z0.375
G0 F3375 X95.884 Y111.889 Z0.375
G0 X99.746 Y93.644
M204 S1800
M205 X8 Y8
G1 F600 Z0.3
G1 F2400 E32.13352
G1 F900 X98.908 Y93.979 E32.17779
G1 X98.126 Y94.025 E32.21621
G1 X97.575 Y93.926 E32.24367
G1 X97.027 Y93.708 E32.27261
G1 X96.532 Y93.371 E32.30198
G1 X96.126 Y92.939 E32.33106
G1 X95.992 Y92.745 E32.34263
G1 X95.729 Y92.205 E32.37209
G1 X95.606 Y91.75 E32.39521
G1 X95.57 Y91.216 E32.42147
G1 X95.634 Y90.701 E32.44693
G1 X95.825 Y90.136 E32.47618
G1 X95.95 Y89.902 E32.4892
G1 X96.355 Y89.356 E32.52254
G1 X96.861 Y88.949 E32.5544
G1 X97.431 Y88.689 E32.58513
G1 X98.006 Y88.551 E32.61414
G1 X98.696 Y88.581 E32.64802
G1 X99.04 Y88.653 E32.66526
G1 X99.54 Y88.845 E32.69153
G1 X99.798 Y88.988 E32.706
G1 X100.187 Y89.288 E32.7301
G1 X100.495 Y89.636 E32.7529
G1 X100.796 Y90.137 E32.78157
G1 X100.987 Y90.709 E32.81115
G1 X101.049 Y91.37 E32.84372
G1 X100.969 Y92.001 E32.87492
G1 X100.701 Y92.628 E32.90837
G1 X100.364 Y93.107 E32.9371
G1 X99.746 Y93.644 E32.97726
M204 S3000
M205 X10 Y10
G0 F3375 X101.813 Y92.004
G0 X102.647 Y93.336
M204 S1800
M205 X8 Y8
G1 F900 X102.647 Y86.779 E33.29891
G1 X96.715 Y86.78 E33.5899
G1 X93.354 Y90.141 E33.82307
G1 X93.354 Y113.859 E34.98654
G1 X102.715 Y123.221 E35.63598
G1 X116.647 Y123.221 E36.31941
G1 X116.647 Y103.25 E37.29908
G1 X116.647 Y94.279 E37.73915
G1 X103.634 Y94.275 E38.37749
G1 X103.316 Y94.195 E38.39358
G1 X103.017 Y94.007 E38.4109
G1 X102.757 Y93.666 E38.43194
G1 X102.647 Y93.336 E38.449
M204 S3000
M205 X10 Y10
