;FLAVOR:Marlin
;TIME:391
;Filament used: 0.340278m
;Layer height: 0.24
;MINX:95.268
;MINY:89.794
;MINZ:0.3
;MAXX:114.732
;MAXY:122.483
;MAXZ:6.54
;Generated with Cura_SteamEngine 5.2.1
M140 S80
M105
M190 S80
M104 S235
M105
M109 S235
M82 ;absolute extrusion mode
G21 ;metric values
G90 ;absolute positioning
M82 ;set extruder to absolute mode
M107 ;start with the fan off
G28 X0 Y0 ;move X/Y to min endstops
G28 Z0 ;move Z to min endstops
G1 Z15.0 F150.0 ;move the platform down 15mm
G92 E0 ;zero the extruded length
G1 F200 E3 ;extrude 3mm of feed stock
G92 E0 ;zero the extruded length again
G1 F150.0
G0 Y20 F150.0
M117 Printing...
G5
G92 E0
G92 E0
G1 F2400 E-6
;LAYER_COUNT:27
;LAYER:0
M107
M204 S3000
M205 X10 Y10
G1 F600 Z0.375
G0 F3375 X96.714 Y91.965 Z0.375
M204 S1800
M205 X8 Y8
;TYPE:SKIRT
G1 F600 Z0.3
G1 F2400 E0
G1 X97.194 Y91.459 E0.03421
G1 X97.729 Y91.01 E0.06847
G1 X98.312 Y90.626 E0.10272
G1 X98.934 Y90.311 E0.13692
G1 X99.589 Y90.069 E0.17118
G1 X100.267 Y89.904 E0.2054
G1 X101.303 Y89.794 E0.25651
G1 X107.932 Y89.794 E0.58169
G1 X108.717 Y89.805 E0.62021
G1 X109.413 Y89.855 E0.65444
G1 X110.099 Y89.984 E0.68868
G1 X110.766 Y90.191 E0.72294
G1 X111.404 Y90.472 E0.75713
G1 X112.006 Y90.825 E0.79137
G1 X112.564 Y91.244 E0.8256
G1 X113.07 Y91.725 E0.85984
G1 X113.518 Y92.26 E0.89407
G1 X113.902 Y92.843 E0.92832
G1 X114.217 Y93.466 E0.96256
G1 X114.458 Y94.121 E0.9968
G1 X114.623 Y94.799 E1.03103
G1 X114.732 Y95.831 E1.08194
G1 X114.731 Y99.08 E1.24131
G1 X114.71 Y100.621 E1.31691
G1 X114.673 Y101.925 E1.38091
G1 X114.673 Y104.584 E1.51134
G1 X114.732 Y107.064 E1.63303
G1 X114.732 Y115.729 E2.05809
G1 X114.723 Y116.456 E2.09376
G1 X114.674 Y117.153 E2.12803
G1 X114.546 Y117.839 E2.16226
G1 X114.341 Y118.506 E2.19649
G1 X114.06 Y119.145 E2.23074
G1 X113.709 Y119.748 E2.26496
G1 X113.29 Y120.306 E2.29919
G1 X112.811 Y120.813 E2.33341
G1 X112.277 Y121.262 E2.36763
G1 X111.694 Y121.647 E2.4019
G1 X111.072 Y121.963 E2.43613
G1 X110.418 Y122.206 E2.47035
G1 X109.74 Y122.372 E2.50459
G1 X108.697 Y122.483 E2.55605
G1 X101.989 Y122.482 E2.8851
G1 X101.291 Y122.473 E2.91935
G1 X100.595 Y122.425 E2.95357
G1 X99.909 Y122.296 E2.98781
G1 X99.242 Y122.09 E3.02206
G1 X98.604 Y121.81 E3.05623
G1 X98.001 Y121.458 E3.09049
G1 X97.442 Y121.039 E3.12476
G1 X96.936 Y120.56 E3.15893
G1 X96.487 Y120.025 E3.1932
G1 X96.102 Y119.443 E3.22743
G1 X95.787 Y118.82 E3.26167
G1 X95.544 Y118.166 E3.2959
G1 X95.378 Y117.488 E3.33014
G1 X95.268 Y116.441 E3.38178
G1 X95.269 Y96.479 E4.36101
G1 X95.278 Y95.814 E4.39363
G1 X95.327 Y95.117 E4.42791
G1 X95.456 Y94.431 E4.46215
G1 X95.662 Y93.765 E4.49635
G1 X95.943 Y93.126 E4.53059
G1 X96.295 Y92.524 E4.5648
G1 X96.714 Y91.965 E4.59907
M204 S3000
M205 X10 Y10
G0 F3375 X97.145 Y92.136
M204 S1800
M205 X8 Y8
G1 F2400 X97.621 Y91.661 E4.63205
G1 X98.15 Y91.246 E4.66504
G1 X98.724 Y90.897 E4.69799
G1 X99.336 Y90.618 E4.73098
G1 X99.977 Y90.414 E4.76398
G1 X100.637 Y90.288 E4.79694
G1 X101.348 Y90.231 E4.83193
G1 X107.932 Y90.231 E5.15491
G1 X108.711 Y90.242 E5.19313
G1 X109.382 Y90.291 E5.22613
G1 X110.041 Y90.42 E5.25907
G1 X110.681 Y90.626 E5.29205
G1 X111.292 Y90.907 E5.32504
G1 X111.866 Y91.258 E5.35804
G1 X112.393 Y91.675 E5.39101
G1 X112.868 Y92.151 E5.424
G1 X113.282 Y92.681 E5.45699
G1 X113.631 Y93.255 E5.48994
G1 X113.909 Y93.868 E5.52296
G1 X114.113 Y94.508 E5.55591
G1 X114.239 Y95.169 E5.58892
G1 X114.295 Y95.879 E5.62386
G1 X114.294 Y99.074 E5.78059
G1 X114.273 Y100.608 E5.85584
G1 X114.236 Y101.912 E5.91984
G1 X114.236 Y104.595 E6.05145
G1 X114.295 Y107.064 E6.1726
G1 X114.295 Y115.724 E6.59741
G1 X114.286 Y116.451 E6.63308
G1 X114.237 Y117.122 E6.66608
G1 X114.11 Y117.782 E6.69905
G1 X113.905 Y118.422 E6.73202
G1 X113.625 Y119.034 E6.76503
G1 X113.275 Y119.608 E6.79801
G1 X112.86 Y120.136 E6.83095
G1 X112.384 Y120.612 E6.86398
G1 X111.855 Y121.027 E6.89696
G1 X111.281 Y121.377 E6.92994
G1 X110.67 Y121.656 E6.96289
G1 X110.029 Y121.861 E6.9959
G1 X109.369 Y121.989 E7.02888
G1 X108.65 Y122.046 E7.06426
G1 X101.995 Y122.046 E7.39072
G1 X101.297 Y122.037 E7.42496
G1 X100.626 Y121.988 E7.45796
G1 X99.966 Y121.86 E7.49094
G1 X99.326 Y121.655 E7.52391
G1 X98.715 Y121.375 E7.55688
G1 X98.141 Y121.025 E7.58986
G1 X97.613 Y120.609 E7.62283
G1 X97.138 Y120.133 E7.65582
G1 X96.722 Y119.604 E7.68883
G1 X96.373 Y119.03 E7.72178
G1 X96.094 Y118.418 E7.75478
G1 X95.889 Y117.777 E7.78779
G1 X95.762 Y117.117 E7.82076
G1 X95.705 Y116.394 E7.85634
G1 X95.706 Y96.484 E8.83301
G1 X95.715 Y95.819 E8.86564
G1 X95.764 Y95.149 E8.89859
G1 X95.892 Y94.489 E8.93157
G1 X96.098 Y93.849 E8.96455
G1 X96.378 Y93.238 E8.99752
G1 X96.728 Y92.664 E9.0305
G1 X97.145 Y92.136 E9.0635
M204 S3000
M205 X10 Y10
G0 F3375 X97.575 Y92.314
M204 S1800
M205 X8 Y8
G1 F2400 X98.046 Y91.872 E9.09519
G1 X98.568 Y91.493 E9.12683
G1 X99.134 Y91.18 E9.15856
G1 X99.733 Y90.94 E9.19022
G1 X100.358 Y90.776 E9.22191
G1 X101.322 Y90.668 E9.2695
G1 X107.932 Y90.668 E9.59375
G1 X108.705 Y90.679 E9.63167
G1 X109.349 Y90.728 E9.66335
G1 X109.982 Y90.856 E9.69503
G1 X110.594 Y91.062 E9.72671
G1 X111.176 Y91.341 E9.75837
G1 X111.719 Y91.691 E9.79006
G1 X112.215 Y92.104 E9.82172
G1 X112.656 Y92.576 E9.85341
G1 X113.036 Y93.099 E9.88512
G1 X113.347 Y93.665 E9.9168
G1 X113.587 Y94.264 E9.94846
G1 X113.751 Y94.889 E9.98015
G1 X113.858 Y95.849 E10.02754
G1 X113.858 Y99.068 E10.18544
G1 X113.836 Y100.596 E10.26041
G1 X113.799 Y101.9 E10.3244
G1 X113.799 Y104.605 E10.45709
G1 X113.858 Y107.064 E10.57775
G1 X113.858 Y115.719 E11.00232
G1 X113.849 Y116.446 E11.03799
G1 X113.801 Y117.09 E11.06966
G1 X113.674 Y117.723 E11.10133
G1 X113.469 Y118.336 E11.13304
G1 X113.191 Y118.918 E11.16468
G1 X112.842 Y119.462 E11.19639
G1 X112.43 Y119.959 E11.22805
G1 X111.959 Y120.401 E11.25974
G1 X111.437 Y120.781 E11.29141
G1 X110.872 Y121.094 E11.3231
G1 X110.272 Y121.335 E11.35481
G1 X109.648 Y121.5 E11.38648
G1 X108.678 Y121.609 E11.43436
G1 X102.001 Y121.609 E11.7619
G1 X101.303 Y121.6 E11.79614
G1 X100.659 Y121.551 E11.82782
G1 X100.026 Y121.424 E11.85949
G1 X99.413 Y121.219 E11.8912
G1 X98.83 Y120.94 E11.9229
G1 X98.287 Y120.592 E11.95454
G1 X97.79 Y120.179 E11.98624
G1 X97.349 Y119.708 E12.01789
G1 X96.968 Y119.185 E12.04963
G1 X96.656 Y118.62 E12.08129
G1 X96.415 Y118.021 E12.11297
G1 X96.251 Y117.396 E12.14466
G1 X96.142 Y116.424 E12.19264
G1 X96.142 Y96.49 E13.1705
G1 X96.151 Y95.825 E13.20312
G1 X96.2 Y95.181 E13.2348
G1 X96.328 Y94.548 E13.26648
G1 X96.533 Y93.936 E13.29815
G1 X96.812 Y93.353 E13.32985
G1 X97.161 Y92.81 E13.36151
G1 X97.575 Y92.314 E13.39321
M204 S3000
M205 X10 Y10
G1 F2400 E7.39321
;MESH:X_Hemera_BeltHolder_LH_V1.stl
G0 F3375 X100.696 Y96.331
G0 X101.805 Y96.331
G0 X102.89 Y97.416
M204 S1800
M205 X8 Y8
;TYPE:WALL-INNER
G1 F2400 E13.39321
G1 F900 X102.89 Y114.861 E14.24896
G1 X107.11 Y114.861 E14.45597
G1 X107.11 Y107.886 E14.79813
G1 X106.792 Y107.541 E14.82115
G1 X106.622 Y107.162 E14.84152
G1 X106.562 Y106.734 E14.86272
G1 X106.562 Y99.575 E15.2139
G1 X106.677 Y99.148 E15.2356
G1 X106.919 Y98.751 E15.2584
G1 X107.11 Y98.662 E15.26874
G1 X107.11 Y97.416 E15.32986
G1 X102.89 Y97.416 E15.53687
M204 S3000
M205 X10 Y10
G0 F3375 X102.453 Y96.979
M204 S1800
M205 X8 Y8
G1 F900 X102.453 Y115.298 E16.4355
G1 X107.547 Y115.298 E16.68539
G1 X107.547 Y107.617 E17.06217
G1 X107.358 Y107.545 E17.0721
G1 X107.163 Y107.311 E17.08704
G1 X107.042 Y107.04 E17.1016
G1 X106.999 Y106.734 E17.11676
G1 X106.999 Y99.62 E17.46573
G1 X107.081 Y99.315 E17.48122
G1 X107.254 Y99.032 E17.49749
G1 X107.547 Y98.895 E17.51336
G1 X107.547 Y96.979 E17.60735
G1 X102.453 Y96.979 E17.85723
M204 S3000
M205 X10 Y10
G0 F3375 X106.92 Y97.606
G0 X107.161 Y106.878
G0 X107.436 Y106.878
M204 S1800
M205 X8 Y8
G1 F900 X107.436 Y99.665 E18.21106
G1 X107.485 Y99.483 E18.22031
G1 X107.589 Y99.313 E18.23008
G1 X107.984 Y99.128 E18.25148
G1 X107.984 Y96.542 E18.37834
G1 X102.016 Y96.542 E18.67109
G1 X102.016 Y115.735 E19.6126
G1 X107.984 Y115.735 E19.90535
G1 X107.984 Y107.348 E20.31677
G1 X107.651 Y107.221 E20.33426
G1 X107.436 Y106.878 E20.35412
M204 S3000
M205 X10 Y10
G0 F3375 X107.944 Y106.896
M204 S1800
M205 X8 Y8
;TYPE:WALL-OUTER
G1 F900 X107.873 Y106.777 E20.36091
G1 X107.875 Y99.703 E20.70792
G1 X107.924 Y99.593 E20.71383
G1 X108.091 Y99.516 E20.72285
G1 X108.421 Y99.516 E20.73904
G1 X108.421 Y96.105 E20.90637
G1 X101.579 Y96.105 E21.242
G1 X101.579 Y116.172 E22.22637
G1 X108.421 Y116.172 E22.56201
G1 X108.421 Y107.282 E22.9981
G1 X108.421 Y106.952 E23.01429
G1 X108.091 Y106.952 E23.03048
G1 X107.944 Y106.896 E23.03819
M204 S3000
M205 X10 Y10
G0 F3375 X107.873 Y106.777
G0 X107.873 Y106.315
G0 X107.161 Y106.315
G0 X106.92 Y97.606
G0 X106.766 Y97.76
M204 S1800
M205 X8 Y8
;TYPE:SKIN
G1 F900 X103.235 Y97.761 E23.21141
G1 X103.234 Y114.517 E24.03336
G1 X106.766 Y114.517 E24.20662
G1 X106.766 Y108.042 E24.52425
G1 X106.519 Y107.746 E24.54316
G1 X106.288 Y107.253 E24.56987
G1 X106.22 Y106.757 E24.59443
G1 X106.221 Y99.522 E24.94934
G1 X106.358 Y99.018 E24.97496
G1 X106.651 Y98.538 E25.00255
G1 X106.766 Y98.464 E25.00925
G1 X106.766 Y97.76 E25.04379
M204 S3000
M205 X10 Y10
G0 F3375 X106.464 Y98.429
M204 S1800
M205 X8 Y8
G1 F900 X106.012 Y97.978 E25.07511
M204 S3000
M205 X10 Y10
G0 F3375 X105.394 Y97.978
M204 S1800
M205 X8 Y8
G1 F900 X106.227 Y98.811 E25.1329
M204 S3000
M205 X10 Y10
G0 F3375 X106.064 Y99.266
M204 S1800
M205 X8 Y8
G1 F900 X104.776 Y97.978 E25.22225
M204 S3000
M205 X10 Y10
G0 F3375 X104.158 Y97.978
M204 S1800
M205 X8 Y8
G1 F900 X106 Y99.82 E25.35004
M204 S3000
M205 X10 Y10
G0 F3375 X106 Y100.438
M204 S1800
M205 X8 Y8
G1 F900 X103.54 Y97.978 E25.5207
M204 S3000
M205 X10 Y10
G0 F3375 X103.451 Y98.507
M204 S1800
M205 X8 Y8
G1 F900 X106 Y101.056 E25.69753
M204 S3000
M205 X10 Y10
G0 F3375 X106 Y101.674
M204 S1800
M205 X8 Y8
G1 F900 X103.451 Y99.125 E25.87436
M204 S3000
M205 X10 Y10
G0 F3375 X103.451 Y99.743
M204 S1800
M205 X8 Y8
G1 F900 X106.001 Y102.293 E26.05127
M204 S3000
M205 X10 Y10
G0 F3375 X106.001 Y102.911
M204 S1800
M205 X8 Y8
G1 F900 X103.451 Y100.361 E26.22817
M204 S3000
M205 X10 Y10
G0 F3375 X103.451 Y100.979
M204 S1800
M205 X8 Y8
G1 F900 X106.002 Y103.53 E26.40514
M204 S3000
M205 X10 Y10
G0 F3375 X106.002 Y104.148
M204 S1800
M205 X8 Y8
G1 F900 X103.451 Y101.597 E26.58211
M204 S3000
M205 X10 Y10
G0 F3375 X103.451 Y102.215
M204 S1800
M205 X8 Y8
G1 F900 X106.003 Y104.767 E26.75915
M204 S3000
M205 X10 Y10
G0 F3375 X106.003 Y105.385
M204 S1800
M205 X8 Y8
G1 F900 X103.451 Y102.833 E26.9362
M204 S3000
M205 X10 Y10
G0 F3375 X103.451 Y103.451
M204 S1800
M205 X8 Y8
G1 F900 X106.003 Y106.003 E27.11324
M204 S3000
M205 X10 Y10
G0 F3375 X106.003 Y106.621
M204 S1800
M205 X8 Y8
G1 F900 X103.451 Y104.069 E27.29028
M204 S3000
M205 X10 Y10
G0 F3375 X103.451 Y104.687
M204 S1800
M205 X8 Y8
G1 F900 X106.078 Y107.314 E27.47252
G1 X106.159 Y107.395
M204 S3000
M205 X10 Y10
G0 F3375 X106.526 Y107.232
G0 X106.992 Y108.402
G0 X106.548 Y108.402
M204 S1800
M205 X8 Y8
G1 F900 X103.451 Y105.305 E27.68737
M204 S3000
M205 X10 Y10
G0 F3375 X103.451 Y105.923
M204 S1800
M205 X8 Y8
G1 F900 X106.548 Y109.02 E27.90222
M204 S3000
M205 X10 Y10
G0 F3375 X106.548 Y109.638
M204 S1800
M205 X8 Y8
G1 F900 X103.451 Y106.541 E28.11707
M204 S3000
M205 X10 Y10
G0 F3375 X103.451 Y107.159
M204 S1800
M205 X8 Y8
G1 F900 X106.548 Y110.256 E28.33192
M204 S3000
M205 X10 Y10
G0 F3375 X106.548 Y110.874
M204 S1800
M205 X8 Y8
G1 F900 X103.451 Y107.777 E28.54677
M204 S3000
M205 X10 Y10
G0 F3375 X103.451 Y108.395
M204 S1800
M205 X8 Y8
G1 F900 X106.548 Y111.492 E28.76162
M204 S3000
M205 X10 Y10
G0 F3375 X106.548 Y112.11
M204 S1800
M205 X8 Y8
G1 F900 X103.451 Y109.013 E28.97647
M204 S3000
M205 X10 Y10
G0 F3375 X103.451 Y109.631
M204 S1800
M205 X8 Y8
G1 F900 X106.548 Y112.728 E29.19132
M204 S3000
M205 X10 Y10
G0 F3375 X106.548 Y113.346
M204 S1800
M205 X8 Y8
G1 F900 X103.451 Y110.249 E29.40617
M204 S3000
M205 X10 Y10
G0 F3375 X103.451 Y110.867
M204 S1800
M205 X8 Y8
G1 F900 X106.548 Y113.964 E29.62102
M204 S3000
M205 X10 Y10
G0 F3375 X106.264 Y114.298
M204 S1800
M205 X8 Y8
G1 F900 X103.451 Y111.485 E29.81617
M204 S3000
M205 X10 Y10
G0 F3375 X103.451 Y112.104
M204 S1800
M205 X8 Y8
G1 F900 X105.645 Y114.298 E29.96838
M204 S3000
M205 X10 Y10
G0 F3375 X105.027 Y114.298
M204 S1800
M205 X8 Y8
G1 F900 X103.451 Y112.722 E30.07771
M204 S3000
M205 X10 Y10
G0 F3375 X103.451 Y113.34
M204 S1800
M205 X8 Y8
G1 F900 X104.409 Y114.298 E30.14417
M204 S3000
M205 X10 Y10
G0 F3375 X103.791 Y114.298
M204 S1800
M205 X8 Y8
G1 F900 X103.451 Y113.958 E30.16776
M204 S3000
M205 X10 Y10
G0 F3375 X102.671 Y113.958
;MESH:NONMESH
G0 F600 X102.671 Y113.958 Z0.54
G0 F3375 X103.08 Y97.606
G0 X106.569 Y97.333
;TIME_ELAPSED:36.215281
;LAYER:1
M106 S127.5
M204 S1800
M205 X8 Y8
;TYPE:WALL-INNER
;MESH:X_Hemera_BeltHolder_LH_V1.stl
G1 F1650 X103.432 Y97.334 E30.29734
G1 X103.431 Y109.092 E30.78306
G1 X103.431 Y114.32 E30.99902
G1 X106.569 Y114.32 E31.12865
G1 X106.569 Y108.407 E31.37291
G1 X106.195 Y108.076 E31.39354
G1 X105.936 Y107.692 E31.41267
G1 X105.763 Y107.235 E31.43286
G1 X105.702 Y106.734 E31.45371
G1 X105.703 Y99.734 E31.74287
G1 X105.833 Y99.008 E31.77334
G1 X106.05 Y98.585 E31.79298
G1 X106.404 Y98.18 E31.8152
G1 X106.569 Y98.118 E31.82248
G1 X106.569 Y97.333 E31.85491
M204 S3000
M205 X10 Y10
G0 F6187.5 X102.971 Y114.78
M204 S1800
M205 X8 Y8
G1 F1650 X107.029 Y114.78 E32.02254
G1 X107.029 Y108.122 E32.29757
G1 X106.884 Y108.079 E32.30382
G1 X106.545 Y107.778 E32.32255
G1 X106.344 Y107.479 E32.33743
G1 X106.209 Y107.123 E32.35316
G1 X106.162 Y106.734 E32.36935
G1 X106.163 Y99.734 E32.65851
G1 X106.264 Y99.169 E32.68222
G1 X106.433 Y98.84 E32.6975
G1 X106.708 Y98.525 E32.71477
G1 X107.029 Y98.404 E32.72894
G1 X107.029 Y96.873 E32.79219
G1 X102.972 Y96.874 E32.95978
G1 X102.971 Y109.092 E33.46449
G1 X102.971 Y114.78 E33.69946
M204 S3000
M205 X10 Y10
G0 F6187.5 X106.695 Y99.33
M204 S1800
M205 X8 Y8
G1 F1650 X106.816 Y99.096 E33.71034
G1 X107.012 Y98.87 E33.7227
G1 X107.489 Y98.691 E33.74374
G1 X107.489 Y96.413 E33.83785
G1 X102.512 Y96.414 E34.04344
G1 X102.511 Y109.092 E34.56716
G1 X102.511 Y115.24 E34.82113
G1 X107.489 Y115.24 E35.02676
G1 X107.489 Y107.8 E35.3341
G1 X107.138 Y107.695 E35.34924
G1 X106.895 Y107.48 E35.36264
G1 X106.752 Y107.266 E35.37327
G1 X106.655 Y107.012 E35.3845
G1 X106.622 Y106.734 E35.39607
G1 X106.623 Y99.734 E35.68523
G1 X106.695 Y99.33 E35.70218
M204 S3000
M205 X10 Y10
G0 F6187.5 X107.126 Y99.492
M204 S1800
M205 X8 Y8
G1 F1650 X107.316 Y99.216 E35.71603
G1 X107.773 Y99.044 E35.7362
G1 X107.949 Y99.044 E35.74347
G1 X107.949 Y95.953 E35.87115
G1 X102.052 Y95.954 E36.11475
G1 X102.051 Y109.092 E36.65747
G1 X102.051 Y115.7 E36.93044
G1 X107.949 Y115.7 E37.17408
G1 X107.949 Y107.424 E37.51596
G1 X107.772 Y107.424 E37.52327
G1 X107.391 Y107.311 E37.53969
G1 X107.246 Y107.182 E37.5477
G1 X107.082 Y106.862 E37.56256
G1 X107.083 Y99.734 E37.85701
G1 X107.126 Y99.492 E37.86716
M204 S3000
M205 X10 Y10
G0 F6187.5 X106.843 Y99.491
G0 X106.914 Y107.592
G0 X107.645 Y106.927
M204 S1800
M205 X8 Y8
;TYPE:WALL-OUTER
G1 F1200 X107.542 Y106.778 E37.87464
G1 X107.543 Y99.673 E38.16815
G1 X107.62 Y99.561 E38.17376
G1 X107.773 Y99.504 E38.1805
G1 X108.409 Y99.504 E38.20678
G1 X108.409 Y95.493 E38.37247
G1 X101.592 Y95.494 E38.65407
G1 X101.591 Y109.092 E39.21579
G1 X101.591 Y116.16 E39.50777
G1 X108.409 Y116.16 E39.78941
G1 X108.409 Y106.964 E40.16929
G1 X107.772 Y106.964 E40.1956
G1 X107.645 Y106.927 E40.20107
