;FLAVOR:Marlin
;TIME:3988
;Filament used: 3.45662m
;Layer height: 0.24
;MINX:70.121
;MINY:77.444
;MINZ:0.3
;MAXX:139.88
;MAXY:132.556
;MAXZ:20.46
;Generated with Cura_SteamEngine 5.2.1
M140 S80
M105
M190 S80
M104 S235
M105
M109 S235
M82 ;absolute extrusion mode
G21 ;metric values
G90 ;absolute positioning
M82 ;set extruder to absolute mode
M107 ;start with the fan off
G28 X0 Y0 ;move X/Y to min endstops
G28 Z0 ;move Z to min endstops
G1 Z15.0 F150.0 ;move the platform down 15mm
G92 E0 ;zero the extruded length
G1 F200 E3 ;extrude 3mm of feed stock
G92 E0 ;zero the extruded length again
G1 F150.0
G0 Y20 F150.0
M117 Printing...
G5
G92 E0
G92 E0
G1 F2400 E-6
;LAYER_COUNT:85
;LAYER:0
M107
M204 S3000
M205 X10 Y10
G1 F600 Z0.375
G0 F3375 X72.051 Y85.903 Z0.375
M204 S1800
M205 X8 Y8
;TYPE:SKIRT
G1 F600 Z0.3
G1 F2400 E0
G1 X72.587 Y85.455 E0.03427
G1 X73.169 Y85.071 E0.06847
G1 X73.898 Y84.703 E0.10853
G1 X75.295 Y84.208 E0.18123
G1 X77.845 Y83.264 E0.31462
G1 X80.276 Y82.285 E0.44318
G1 X82.735 Y81.213 E0.57477
G1 X85.115 Y80.094 E0.70378
G1 X87.472 Y78.906 E0.83326
G1 X88.112 Y78.628 E0.86749
G1 X88.78 Y78.425 E0.90173
G1 X89.467 Y78.3 E0.93599
G1 X90.029 Y78.257 E0.96364
G1 X90.543 Y78.244 E0.98886
G1 X92.871 Y78.244 E1.10306
G1 X95.511 Y78.207 E1.23257
G1 X98.202 Y78.092 E1.3647
G1 X100.847 Y77.905 E1.49477
G1 X103.665 Y77.624 E1.63369
G1 X104.805 Y77.493 E1.68998
G1 X105.477 Y77.444 E1.72304
G1 X120.88 Y77.444 E2.47862
G1 X121.665 Y77.455 E2.51714
G1 X122.263 Y77.493 E2.54653
G1 X124.845 Y77.785 E2.674
G1 X127.509 Y78.012 E2.80515
G1 X130.138 Y78.162 E2.93432
G1 X132.956 Y78.242 E3.07262
G1 X133.864 Y78.255 E3.11716
G1 X134.56 Y78.304 E3.15139
G1 X135.246 Y78.433 E3.18563
G1 X135.912 Y78.64 E3.21984
G1 X136.551 Y78.922 E3.2541
G1 X137.153 Y79.274 E3.28831
G1 X137.711 Y79.693 E3.32254
G1 X138.217 Y80.174 E3.35679
G1 X138.665 Y80.709 E3.39102
G1 X139.049 Y81.291 E3.42522
G1 X139.364 Y81.914 E3.45947
G1 X139.606 Y82.569 E3.49372
G1 X139.771 Y83.247 E3.52795
G1 X139.88 Y84.28 E3.57891
G1 X139.879 Y121.843 E5.42154
G1 X139.869 Y122.545 E5.45598
G1 X139.819 Y123.241 E5.49021
G1 X139.69 Y123.927 E5.52445
G1 X139.484 Y124.593 E5.55865
G1 X139.202 Y125.232 E5.59291
G1 X138.849 Y125.834 E5.62715
G1 X138.182 Y126.681 E5.68003
G1 X134.587 Y130.28 E5.92957
G1 X134.023 Y130.827 E5.96811
G1 X133.495 Y131.284 E6.00237
G1 X132.919 Y131.677 E6.03657
G1 X132.301 Y132.001 E6.0708
G1 X131.65 Y132.253 E6.10505
G1 X130.974 Y132.428 E6.1393
G1 X130.174 Y132.54 E6.17893
G1 X129.225 Y132.556 E6.22549
G1 X76.834 Y132.555 E8.7955
G1 X76.136 Y132.545 E8.82975
G1 X75.44 Y132.495 E8.86398
G1 X74.754 Y132.366 E8.89822
G1 X74.087 Y132.159 E8.93248
G1 X73.449 Y131.878 E8.96667
G1 X72.847 Y131.525 E9.00091
G1 X72.289 Y131.106 E9.03514
G1 X71.783 Y130.625 E9.06938
G1 X71.335 Y130.09 E9.10361
G1 X70.951 Y129.507 E9.13786
G1 X70.636 Y128.884 E9.1721
G1 X70.395 Y128.229 E9.20634
G1 X70.23 Y127.551 E9.24057
G1 X70.132 Y126.603 E9.28732
G1 X70.121 Y126.087 E9.31264
G1 X70.121 Y90.948 E11.03637
G1 X70.131 Y90.256 E11.07032
G1 X70.181 Y89.56 E11.10455
G1 X70.31 Y88.874 E11.13879
G1 X70.517 Y88.208 E11.173
G1 X70.799 Y87.569 E11.20726
G1 X71.151 Y86.967 E11.24147
G1 X71.571 Y86.409 E11.27573
G1 X72.051 Y85.903 E11.30994
M204 S3000
M205 X10 Y10
G0 F3375 X72.478 Y86.106
M204 S1800
M205 X8 Y8
G1 F2400 X73.007 Y85.691 E11.34293
G1 X73.582 Y85.342 E11.37592
G1 X74.333 Y85.013 E11.41614
G1 X75.456 Y84.615 E11.47459
G1 X77.979 Y83.68 E11.60658
G1 X80.476 Y82.676 E11.7386
G1 X82.886 Y81.625 E11.86757
G1 X85.347 Y80.468 E12.00097
G1 X87.669 Y79.297 E12.12854
G1 X88.286 Y79.03 E12.16152
G1 X88.931 Y78.839 E12.19452
G1 X89.725 Y78.702 E12.23404
G1 X90.543 Y78.681 E12.27418
G1 X92.877 Y78.681 E12.38868
G1 X95.535 Y78.643 E12.51908
G1 X98.218 Y78.53 E12.65081
G1 X100.885 Y78.34 E12.78197
G1 X103.694 Y78.06 E12.92044
G1 X104.855 Y77.927 E12.97777
G1 X105.49 Y77.881 E13.009
G1 X120.88 Y77.881 E13.76395
G1 X121.659 Y77.892 E13.80217
G1 X122.214 Y77.927 E13.82945
G1 X124.795 Y78.219 E13.95686
G1 X127.483 Y78.448 E14.0892
G1 X130.135 Y78.599 E14.2195
G1 X132.944 Y78.679 E14.35735
G1 X133.858 Y78.692 E14.40219
G1 X134.528 Y78.741 E14.43515
G1 X135.188 Y78.87 E14.46814
G1 X135.828 Y79.076 E14.50112
G1 X136.439 Y79.356 E14.53409
G1 X137.013 Y79.707 E14.56709
G1 X137.54 Y80.124 E14.60006
G1 X138.015 Y80.6 E14.63304
G1 X138.43 Y81.129 E14.66603
G1 X138.779 Y81.704 E14.69902
G1 X139.057 Y82.316 E14.732
G1 X139.261 Y82.957 E14.76499
G1 X139.387 Y83.617 E14.79795
G1 X139.443 Y84.328 E14.83294
G1 X139.442 Y121.837 E16.67293
G1 X139.432 Y122.539 E16.70737
G1 X139.383 Y123.209 E16.74032
G1 X139.254 Y123.869 E16.77331
G1 X139.048 Y124.509 E16.80629
G1 X138.767 Y125.12 E16.83928
G1 X138.416 Y125.693 E16.87224
G1 X137.859 Y126.386 E16.91586
G1 X134.213 Y130.035 E17.1689
G1 X133.719 Y130.514 E17.20265
G1 X133.21 Y130.952 E17.23559
G1 X132.651 Y131.327 E17.26861
G1 X132.053 Y131.633 E17.30157
G1 X131.422 Y131.866 E17.33456
G1 X130.768 Y132.022 E17.36754
G1 X129.884 Y132.108 E17.41111
G1 X129.225 Y132.119 E17.44344
G1 X76.84 Y132.118 E20.01317
G1 X76.142 Y132.108 E20.04741
G1 X75.471 Y132.059 E20.08041
G1 X74.812 Y131.93 E20.11335
G1 X74.172 Y131.724 E20.14633
G1 X73.561 Y131.443 E20.17932
G1 X72.987 Y131.092 E20.21233
G1 X72.46 Y130.675 E20.24529
G1 X71.985 Y130.199 E20.27828
G1 X71.571 Y129.669 E20.31127
G1 X71.222 Y129.095 E20.34423
G1 X70.944 Y128.482 E20.37724
G1 X70.74 Y127.842 E20.4102
G1 X70.614 Y127.181 E20.4432
G1 X70.569 Y126.592 E20.47218
G1 X70.558 Y126.087 E20.49696
G1 X70.558 Y90.954 E22.22039
G1 X70.568 Y90.262 E22.25434
G1 X70.617 Y89.592 E22.2873
G1 X70.746 Y88.932 E22.32029
G1 X70.952 Y88.292 E22.35327
G1 X71.233 Y87.681 E22.38626
G1 X71.584 Y87.108 E22.41922
G1 X72.001 Y86.58 E22.45222
G1 X72.478 Y86.106 E22.48521
M204 S3000
M205 X10 Y10
G0 F3375 X72.903 Y86.317
M204 S1800
M205 X8 Y8
G1 F2400 X73.425 Y85.938 E22.51685
G1 X73.991 Y85.626 E22.54856
G1 X74.479 Y85.425 E22.57445
G1 X75.627 Y85.018 E22.6342
G1 X78.126 Y84.092 E22.76493
G1 X80.621 Y83.088 E22.89686
G1 X83.108 Y82.004 E23.02994
G1 X85.519 Y80.87 E23.16064
G1 X87.866 Y79.687 E23.28957
G1 X88.459 Y79.432 E23.32124
G1 X89.08 Y79.253 E23.35294
G1 X89.718 Y79.152 E23.38463
G1 X90.543 Y79.118 E23.42513
G1 X92.883 Y79.118 E23.53992
G1 X95.561 Y79.08 E23.6713
G1 X98.231 Y78.967 E23.80239
G1 X100.926 Y78.776 E23.93493
G1 X103.709 Y78.498 E24.07212
G1 X104.904 Y78.361 E24.13113
G1 X105.505 Y78.318 E24.16069
G1 X120.88 Y78.318 E24.9149
G1 X121.653 Y78.329 E24.95282
G1 X122.165 Y78.361 E24.97799
G1 X124.781 Y78.657 E25.10713
G1 X127.422 Y78.882 E25.23715
G1 X130.133 Y79.036 E25.37036
G1 X132.931 Y79.116 E25.50767
G1 X133.851 Y79.129 E25.5528
G1 X134.495 Y79.178 E25.58448
G1 X135.128 Y79.306 E25.61616
G1 X135.741 Y79.511 E25.64787
G1 X136.323 Y79.791 E25.67955
G1 X136.866 Y80.14 E25.71122
G1 X137.362 Y80.553 E25.74288
G1 X137.803 Y81.025 E25.77457
G1 X138.183 Y81.548 E25.80628
G1 X138.495 Y82.113 E25.83794
G1 X138.735 Y82.713 E25.86964
G1 X138.898 Y83.338 E25.90132
G1 X139.006 Y84.298 E25.94871
G1 X139.005 Y121.83 E27.78983
G1 X138.995 Y122.532 E27.82427
G1 X138.946 Y123.176 E27.85595
G1 X138.818 Y123.809 E27.88763
G1 X138.613 Y124.422 E27.91934
G1 X138.333 Y125.004 E27.95102
G1 X137.984 Y125.547 E27.98268
G1 X137.522 Y126.105 E28.01822
G1 X133.909 Y129.721 E28.26897
G1 X133.415 Y130.2 E28.30273
G1 X132.924 Y130.62 E28.33442
G1 X132.386 Y130.976 E28.36607
G1 X131.807 Y131.263 E28.39777
G1 X131.198 Y131.476 E28.42942
G1 X130.566 Y131.613 E28.46114
G1 X129.876 Y131.671 E28.49511
G1 X129.225 Y131.682 E28.52705
G1 X76.846 Y131.681 E31.09647
G1 X76.148 Y131.671 E31.13072
G1 X75.504 Y131.622 E31.1624
G1 X74.871 Y131.494 E31.19408
G1 X74.259 Y131.288 E31.22576
G1 X73.677 Y131.009 E31.25742
G1 X73.134 Y130.659 E31.28911
G1 X72.638 Y130.246 E31.32077
G1 X72.197 Y129.774 E31.35246
G1 X71.817 Y129.251 E31.38417
G1 X71.506 Y128.685 E31.41585
G1 X71.266 Y128.086 E31.4475
G1 X71.102 Y127.461 E31.4792
G1 X70.995 Y126.48 E31.52761
G1 X70.995 Y90.961 E33.26998
G1 X71.005 Y90.269 E33.30393
G1 X71.054 Y89.625 E33.33561
G1 X71.182 Y88.992 E33.36729
G1 X71.388 Y88.379 E33.39901
G1 X71.668 Y87.797 E33.43069
G1 X72.017 Y87.254 E33.46236
G1 X72.431 Y86.758 E33.49405
G1 X72.903 Y86.317 E33.52574
M204 S3000
M205 X10 Y10
G1 F2400 E27.52574
;MESH:X_Hemera_CarriageTop_V1.stl
G0 F3375 X76.657 Y89.672
G0 X76.657 Y90.781
G0 X91.667 Y90.812
M204 S1800
M205 X8 Y8
;TYPE:WALL-INNER
G1 F2400 E33.52574
G1 F900 X91.472 Y91.206 E33.5473
G1 X91.322 Y91.391 E33.55899
G1 X90.988 Y91.656 E33.5799
G1 X90.658 Y91.801 E33.59758
G1 X90.304 Y91.864 E33.61522
G1 X77.742 Y91.866 E34.23144
G1 X77.744 Y124.933 E35.85353
G1 X129.152 Y124.933 E38.37533
G1 X132.258 Y121.828 E38.59077
G1 X132.258 Y95.293 E39.89243
G1 X132.258 Y85.866 E40.35486
G1 X121.512 Y85.865 E40.882
G1 X121.071 Y85.777 E40.90406
G1 X120.764 Y85.626 E40.92085
G1 X120.439 Y85.348 E40.94183
G1 X120.333 Y85.066 E40.9566
G1 F897.9 X113.074 Y85.067 E41.31351
G1 F838.6 X112.635 Y85.097 E41.33667
G1 F804.3 X112.028 Y85.087 E41.37
G1 F858.7 X111.236 Y85.067 E41.41073
G1 F900 X106.8 Y85.066 E41.62833
G1 X106.769 Y85.172 E41.63375
G1 X106.487 Y85.495 E41.65478
G1 X106.189 Y85.696 E41.67242
G1 X105.978 Y85.786 E41.68367
G1 X105.561 Y85.865 E41.70449
G1 X91.742 Y85.866 E42.38237
G1 X91.742 Y90.473 E42.60837
G1 X91.667 Y90.812 E42.6254
M204 S3000
M205 X10 Y10
G0 F3375 X91.932 Y86.056
G0 X107.639 Y85.245
G0 X111.238 Y85.246
G0 X109.413 Y87.893
G0 X109.465 Y90.346
M204 S1800
M205 X8 Y8
G1 F900 X109.163 Y89.636 E42.66325
G1 X109.04 Y89.01 E42.69454
G1 X109.039 Y88.268 E42.73094
G1 X109.27 Y87.498 E42.77038
G1 X109.602 Y86.913 E42.80337
G1 X109.802 Y86.65 E42.81958
G1 X110.173 Y86.301 E42.84457
G1 X110.523 Y86.051 E42.86567
G1 X111.001 Y85.806 E42.89202
G1 F845.8 X111.767 Y85.584 E42.93364
G1 F792.9 X112.584 Y85.591 E42.97913
G1 F840.4 X113.391 Y85.849 E43.02364
G1 F900 X113.777 Y86.048 E43.04495
G1 X114.115 Y86.285 E43.0652
G1 X114.435 Y86.581 E43.08658
G1 X114.707 Y86.915 E43.10771
G1 X114.932 Y87.289 E43.12912
G1 X115.094 Y87.663 E43.14911
G1 X115.264 Y88.388 E43.18564
G1 X115.279 Y88.806 E43.20616
G1 X115.196 Y89.47 E43.23899
G1 X115.004 Y90.024 E43.26775
G1 X114.641 Y90.612 E43.30165
G1 X114.209 Y91.071 E43.33257
G1 X113.609 Y91.498 E43.36869
G1 X112.784 Y91.792 E43.41166
G1 X111.995 Y91.846 E43.45045
G1 X111.435 Y91.76 E43.47824
G1 X110.723 Y91.514 E43.5152
G1 X110.025 Y91.025 E43.557
G1 X109.465 Y90.346 E43.60018
M204 S3000
M205 X10 Y10
G1 F2400 E37.60018
G1 F600 Z0.375
G0 F3375 X109.671 Y90.226 Z0.375
G0 X129.723 Y118.078
M204 S1800
M205 X8 Y8
G1 F600 Z0.3
G1 F2400 E43.60018
G1 F900 X130.03 Y118.363 E43.62073
G1 X130.359 Y118.773 E43.64651
G1 X130.678 Y119.42 E43.6819
G1 X130.79 Y119.818 E43.70218
G1 X130.866 Y120.463 E43.73404
G1 X130.786 Y121.146 E43.76777
G1 X130.683 Y121.491 E43.78544
G1 X130.356 Y122.155 E43.82174
G1 X130.07 Y122.524 E43.84464
G1 X129.567 Y122.978 E43.87788
G1 X129.018 Y123.277 E43.90855
G1 X128.658 Y123.411 E43.92739
G1 X128.163 Y123.515 E43.95221
G1 X127.69 Y123.538 E43.97544
G1 X126.953 Y123.42 E44.01205
G1 X126.562 Y123.28 E44.03242
G1 X126.188 Y123.086 E44.05309
G1 X125.848 Y122.846 E44.0735
G1 X125.541 Y122.558 E44.09415
G1 X125.216 Y122.156 E44.11951
G1 X124.895 Y121.505 E44.15512
G1 X124.783 Y121.108 E44.17535
G1 X124.7 Y120.391 E44.21076
G1 X124.818 Y119.614 E44.24931
G1 X125.095 Y118.969 E44.28375
G1 X125.403 Y118.513 E44.31074
G1 X125.978 Y117.954 E44.35008
G1 X126.764 Y117.544 E44.39357
G1 X127.502 Y117.397 E44.43048
G1 X127.883 Y117.387 E44.44918
G1 X128.619 Y117.506 E44.48575
G1 X129.01 Y117.645 E44.5061
G1 X129.384 Y117.839 E44.52677
G1 X129.723 Y118.078 E44.54712
M204 S3000
M205 X10 Y10
G1 F2400 E38.54712
G1 F600 Z0.375
G0 F3375 X129.595 Y118.258 Z0.375
G0 X79.18 Y119.8
M204 S1800
M205 X8 Y8
G1 F600 Z0.3
G1 F2400 E44.54712
G1 F900 X79.297 Y119.385 E44.56827
G1 X79.511 Y118.905 E44.59405
G1 X79.955 Y118.306 E44.63063
G1 X80.258 Y118.023 E44.65096
G1 X80.608 Y117.775 E44.67201
G1 X81.084 Y117.532 E44.69822
G1 X81.385 Y117.435 E44.71374
G1 X82.077 Y117.307 E44.74826
G1 X82.884 Y117.37 E44.78797
G1 X83.596 Y117.622 E44.82502
G1 X84.211 Y118.02 E44.86095
G1 X84.457 Y118.236 E44.87701
G1 X84.913 Y118.795 E44.9124
G1 X85.215 Y119.472 E44.94876
G1 X85.342 Y120.057 E44.97813
G1 X85.353 Y120.804 E45.01478
G1 X85.175 Y121.494 E45.04973
G1 X84.965 Y121.968 E45.07516
G1 X84.519 Y122.572 E45.11199
G1 X84.215 Y122.856 E45.1324
G1 X83.865 Y123.104 E45.15344
G1 X83.389 Y123.347 E45.17966
G1 X83.088 Y123.444 E45.19517
G1 X82.355 Y123.564 E45.23161
G1 X81.811 Y123.533 E45.25834
G1 X81.4 Y123.448 E45.27893
G1 X80.989 Y123.302 E45.30032
G1 X80.62 Y123.111 E45.3207
G1 X80.042 Y122.67 E45.35637
G1 X79.681 Y122.233 E45.38417
G1 X79.468 Y121.884 E45.40423
G1 X79.298 Y121.496 E45.42501
G1 X79.144 Y120.919 E45.45431
G1 X79.122 Y120.219 E45.48866
G1 X79.18 Y119.8 E45.50941
M204 S3000
M205 X10 Y10
G0 F3375 X80.12 Y121.727
G0 X81.84 Y123.097
M204 S1800
M205 X8 Y8
G1 F900 X81.546 Y123.036 E45.52414
G1 X80.872 Y122.754 E45.55998
G1 X80.356 Y122.367 E45.59162
G1 X80.02 Y121.958 E45.61758
G1 X79.698 Y121.321 E45.6526
G1 X79.575 Y120.844 E45.67676
G1 X79.559 Y120.219 E45.70743
G1 X79.718 Y119.505 E45.74331
G1 X79.899 Y119.105 E45.76485
G1 X80.295 Y118.582 E45.79703
G1 X80.861 Y118.131 E45.83253
G1 X81.352 Y117.886 E45.85945
G1 X82.094 Y117.747 E45.89648
G1 X82.811 Y117.801 E45.93175
G1 X83.483 Y118.045 E45.96682
G1 X84.076 Y118.463 E46.00241
G1 X84.54 Y119.028 E46.03828
G1 X84.812 Y119.655 E46.07181
G1 X84.908 Y120.105 E46.09438
G1 X84.915 Y120.754 E46.12621
G1 X84.755 Y121.374 E46.15763
G1 X84.576 Y121.769 E46.1789
G1 X84.179 Y122.296 E46.21126
G1 X83.962 Y122.5 E46.22587
G1 X83.42 Y122.856 E46.25768
G1 X82.998 Y123.017 E46.27984
G1 X82.355 Y123.127 E46.31184
G1 X81.84 Y123.097 E46.33715
M204 S3000
M205 X10 Y10
G1 F2400 E40.33715
G1 F600 Z0.375
G0 F3375 X81.829 Y123.27 Z0.375
G0 X110.304 Y90.686
M204 S1800
M205 X8 Y8
G1 F600 Z0.3
G1 F2400 E46.33715
G1 F900 X109.849 Y90.121 E46.37273
G1 X109.578 Y89.499 E46.40602
G1 X109.477 Y88.987 E46.43162
G1 X109.485 Y88.303 E46.46517
G1 X109.675 Y87.664 E46.49787
G1 X110.041 Y87.026 E46.53395
G1 X110.426 Y86.657 E46.56011
G1 X110.777 Y86.407 E46.58125
G1 X111.177 Y86.206 E46.60321
G1 X111.847 Y86.042 E46.63705
G1 X112.255 Y86.026 E46.65708
G1 X112.916 Y86.14 E46.68998
G1 X113.577 Y86.436 E46.72551
G1 X114.138 Y86.902 E46.76129
G1 X114.332 Y87.141 E46.77639
G1 X114.673 Y87.781 E46.81196
G1 X114.828 Y88.418 E46.84412
G1 X114.843 Y88.779 E46.86184
G1 X114.767 Y89.377 E46.89141
G1 X114.607 Y89.838 E46.91535
G1 X114.238 Y90.421 E46.9492
G1 X113.934 Y90.731 E46.9705
G1 X113.387 Y91.113 E47.00322
G1 X112.715 Y91.357 E47.03829
G1 X112.018 Y91.407 E47.07257
G1 X111.637 Y91.357 E47.09142
G1 X110.93 Y91.122 E47.12797
G1 X110.304 Y90.686 E47.16539
M204 S3000
M205 X10 Y10
G0 F3375 X111.623 Y91.13
G0 X112.659 Y91.14
G0 X113.819 Y90.543
G0 X115.381 Y88.026
G0 X112.596 Y85.343
G0 X120.219 Y85.252
G0 X121.219 Y85.366
M204 S1800
M205 X8 Y8
G1 F900 X120.999 Y85.258 E47.17741
G1 X120.767 Y85.059 E47.19241
G1 X120.605 Y84.629 E47.21495
G1 X106.493 Y84.629 E47.90721
G1 X106.403 Y84.933 E47.92276
G1 X106.201 Y85.164 E47.93781
G1 X105.989 Y85.308 E47.95038
G1 X105.647 Y85.428 E47.96816
G1 X91.305 Y85.429 E48.6717
G1 X91.305 Y90.435 E48.91727
G1 X91.187 Y90.833 E48.93763
G1 X90.952 Y91.142 E48.95668
G1 X90.631 Y91.347 E48.97536
G1 X90.278 Y91.428 E48.99313
G1 X77.305 Y91.429 E49.62951
G1 X77.307 Y125.37 E51.29447
