;FLAVOR:Marlin
;TIME:494
;Filament used: 0.432407m
;Layer height: 0.24
;MINX:94.734
;MINY:89.082
;MINZ:0.3
;MAXX:115.266
;MAXY:120.918
;MAXZ:8.46
;Generated with Cura_SteamEngine 5.2.1
M140 S80
M105
M190 S80
M104 S235
M105
M109 S235
M82 ;absolute extrusion mode
G21 ;metric values
G90 ;absolute positioning
M82 ;set extruder to absolute mode
M107 ;start with the fan off
G28 X0 Y0 ;move X/Y to min endstops
G28 Z0 ;move Z to min endstops
G1 Z15.0 F150.0 ;move the platform down 15mm
G92 E0 ;zero the extruded length
G1 F200 E3 ;extrude 3mm of feed stock
G92 E0 ;zero the extruded length again
G1 F150.0
G0 Y20 F150.0
M117 Printing...
G5
G92 E0
G92 E0
G1 F2400 E-6
;LAYER_COUNT:35
;LAYER:0
M107
M204 S3000
M205 X10 Y10
G1 F600 Z0.375
G0 F3375 X96.194 Y91.239 Z0.375
M204 S1800
M205 X8 Y8
;TYPE:SKIRT
G1 F600 Z0.3
G1 F2400 E0
G1 X96.676 Y90.734 E0.03425
G1 X97.212 Y90.288 E0.06845
G1 X97.795 Y89.905 E0.10267
G1 X98.419 Y89.592 E0.13691
G1 X99.074 Y89.352 E0.17113
G1 X99.753 Y89.188 E0.2054
G1 X100.772 Y89.082 E0.25566
G1 X108.466 Y89.082 E0.63308
G1 X109.251 Y89.093 E0.67159
G1 X109.947 Y89.143 E0.70582
G1 X110.633 Y89.272 E0.74006
G1 X111.3 Y89.479 E0.77432
G1 X111.938 Y89.76 E0.80852
G1 X112.54 Y90.113 E0.84275
G1 X113.098 Y90.532 E0.87698
G1 X113.604 Y91.013 E0.91123
G1 X114.052 Y91.548 E0.94546
G1 X114.436 Y92.131 E0.97971
G1 X114.751 Y92.754 E1.01395
G1 X114.992 Y93.409 E1.04819
G1 X115.157 Y94.087 E1.08242
G1 X115.266 Y95.118 E1.13328
G1 X115.266 Y114.164 E2.06757
G1 X115.257 Y114.891 E2.10323
G1 X115.208 Y115.588 E2.13751
G1 X115.08 Y116.274 E2.17174
G1 X114.875 Y116.941 E2.20597
G1 X114.594 Y117.58 E2.24021
G1 X114.243 Y118.183 E2.27444
G1 X113.824 Y118.741 E2.30867
G1 X113.345 Y119.248 E2.34289
G1 X112.811 Y119.697 E2.37711
G1 X112.228 Y120.082 E2.41138
G1 X111.606 Y120.398 E2.44561
G1 X110.952 Y120.641 E2.47983
G1 X110.274 Y120.807 E2.51407
G1 X109.231 Y120.918 E2.56552
G1 X101.455 Y120.917 E2.94697
G1 X100.757 Y120.908 E2.98122
G1 X100.061 Y120.86 E3.01544
G1 X99.375 Y120.731 E3.04968
G1 X98.708 Y120.525 E3.08392
G1 X98.07 Y120.245 E3.1181
G1 X97.467 Y119.893 E3.15235
G1 X96.908 Y119.474 E3.18662
G1 X96.402 Y118.995 E3.2208
G1 X95.953 Y118.46 E3.25506
G1 X95.568 Y117.878 E3.28929
G1 X95.253 Y117.255 E3.32354
G1 X95.01 Y116.601 E3.35776
G1 X94.844 Y115.923 E3.39201
G1 X94.734 Y114.876 E3.44365
G1 X94.735 Y108.818 E3.74082
G1 X94.759 Y107.195 E3.82045
G1 X94.787 Y106.228 E3.8679
G1 X94.778 Y102.903 E4.03101
G1 X94.735 Y100.71 E4.13861
G1 X94.735 Y95.748 E4.38201
G1 X94.746 Y95.083 E4.41464
G1 X94.797 Y94.387 E4.44887
G1 X94.928 Y93.702 E4.48308
G1 X95.136 Y93.036 E4.51731
G1 X95.419 Y92.398 E4.55155
G1 X95.774 Y91.796 E4.58583
G1 X96.194 Y91.239 E4.62005
M204 S3000
M205 X10 Y10
G0 F3375 X96.624 Y91.411
M204 S1800
M205 X8 Y8
G1 F2400 X97.102 Y90.938 E4.65304
G1 X97.632 Y90.524 E4.68603
G1 X98.207 Y90.177 E4.71897
G1 X98.82 Y89.9 E4.75197
G1 X99.462 Y89.698 E4.78499
G1 X100.122 Y89.573 E4.81794
G1 X100.82 Y89.519 E4.85228
G1 X108.466 Y89.519 E5.22735
G1 X109.245 Y89.53 E5.26557
G1 X109.916 Y89.579 E5.29857
G1 X110.575 Y89.708 E5.33151
G1 X111.215 Y89.914 E5.3645
G1 X111.826 Y90.195 E5.39749
G1 X112.4 Y90.546 E5.43049
G1 X112.927 Y90.963 E5.46346
G1 X113.402 Y91.439 E5.49644
G1 X113.816 Y91.969 E5.52943
G1 X114.165 Y92.543 E5.56239
G1 X114.443 Y93.156 E5.59541
G1 X114.647 Y93.796 E5.62836
G1 X114.773 Y94.457 E5.66137
G1 X114.829 Y95.165 E5.6962
G1 X114.829 Y114.159 E6.62795
G1 X114.82 Y114.886 E6.66361
G1 X114.771 Y115.557 E6.69662
G1 X114.644 Y116.217 E6.72958
G1 X114.439 Y116.857 E6.76255
G1 X114.159 Y117.469 E6.79557
G1 X113.809 Y118.043 E6.82854
G1 X113.394 Y118.571 E6.86149
G1 X112.918 Y119.047 E6.89451
G1 X112.389 Y119.462 E6.92749
G1 X111.815 Y119.812 E6.96047
G1 X111.204 Y120.091 E6.99342
G1 X110.563 Y120.296 E7.02643
G1 X109.903 Y120.424 E7.05941
G1 X109.184 Y120.481 E7.09479
G1 X101.461 Y120.481 E7.47364
G1 X100.763 Y120.472 E7.50788
G1 X100.092 Y120.423 E7.54089
G1 X99.432 Y120.295 E7.57387
G1 X98.792 Y120.09 E7.60683
G1 X98.181 Y119.81 E7.6398
G1 X97.607 Y119.46 E7.67278
G1 X97.079 Y119.044 E7.70576
G1 X96.604 Y118.568 E7.73874
G1 X96.188 Y118.039 E7.77176
G1 X95.839 Y117.465 E7.80471
G1 X95.56 Y116.853 E7.8377
G1 X95.355 Y116.212 E7.87072
G1 X95.228 Y115.552 E7.90369
G1 X95.171 Y114.829 E7.93926
G1 X95.172 Y108.824 E8.23383
G1 X95.195 Y107.208 E8.31311
G1 X95.224 Y106.208 E8.36219
G1 X95.215 Y102.893 E8.52481
G1 X95.172 Y100.701 E8.63235
G1 X95.172 Y95.755 E8.87498
G1 X95.183 Y95.09 E8.9076
G1 X95.234 Y94.42 E8.94057
G1 X95.364 Y93.76 E8.97356
G1 X95.572 Y93.121 E9.00653
G1 X95.854 Y92.511 E9.03949
G1 X96.206 Y91.938 E9.07248
G1 X96.624 Y91.411 E9.10548
M204 S3000
M205 X10 Y10
G0 F3375 X97.053 Y91.59
M204 S1800
M205 X8 Y8
G1 F2400 X97.526 Y91.15 E9.13717
G1 X98.05 Y90.772 E9.16886
G1 X98.616 Y90.462 E9.20052
G1 X99.216 Y90.223 E9.2322
G1 X99.841 Y90.061 E9.26387
G1 X100.79 Y89.956 E9.31071
G1 X108.466 Y89.956 E9.68725
G1 X109.239 Y89.967 E9.72518
G1 X109.883 Y90.016 E9.75686
G1 X110.516 Y90.144 E9.78854
G1 X111.128 Y90.35 E9.82022
G1 X111.71 Y90.629 E9.85188
G1 X112.253 Y90.979 E9.88357
G1 X112.749 Y91.392 E9.91523
G1 X113.19 Y91.864 E9.94692
G1 X113.57 Y92.387 E9.97863
G1 X113.881 Y92.953 E10.01031
G1 X114.121 Y93.552 E10.04196
G1 X114.285 Y94.177 E10.07366
G1 X114.392 Y95.137 E10.12104
G1 X114.392 Y114.154 E11.05391
G1 X114.383 Y114.881 E11.08958
G1 X114.335 Y115.525 E11.12126
G1 X114.208 Y116.158 E11.15293
G1 X114.003 Y116.771 E11.18464
G1 X113.725 Y117.353 E11.21628
G1 X113.376 Y117.897 E11.24798
G1 X112.964 Y118.394 E11.27965
G1 X112.493 Y118.836 E11.31133
G1 X111.971 Y119.216 E11.34301
G1 X111.406 Y119.529 E11.37469
G1 X110.806 Y119.77 E11.40641
G1 X110.182 Y119.935 E11.43807
G1 X109.212 Y120.044 E11.48595
G1 X101.467 Y120.044 E11.86588
G1 X100.769 Y120.035 E11.90012
G1 X100.125 Y119.986 E11.93181
G1 X99.492 Y119.859 E11.96348
G1 X98.879 Y119.654 E11.99518
G1 X98.296 Y119.375 E12.02689
G1 X97.753 Y119.027 E12.05853
G1 X97.256 Y118.614 E12.09023
G1 X96.815 Y118.143 E12.12188
G1 X96.434 Y117.62 E12.15362
G1 X96.122 Y117.055 E12.18528
G1 X95.881 Y116.456 E12.21695
G1 X95.717 Y115.831 E12.24865
G1 X95.608 Y114.858 E12.29668
G1 X95.609 Y108.83 E12.59238
G1 X95.632 Y107.22 E12.67136
G1 X95.661 Y106.218 E12.72054
G1 X95.652 Y102.884 E12.88409
G1 X95.608 Y100.59 E12.99664
G1 X95.609 Y95.763 E13.23342
G1 X95.62 Y95.098 E13.26605
G1 X95.67 Y94.454 E13.29774
G1 X95.8 Y93.821 E13.32944
G1 X96.007 Y93.209 E13.36113
G1 X96.288 Y92.628 E13.39279
G1 X96.638 Y92.085 E13.42448
G1 X97.053 Y91.59 E13.45616
M204 S3000
M205 X10 Y10
G1 F2400 E7.45616
G0 F3375 X100.174 Y98.878
G0 X101.2 Y99.698
M204 S1800
M205 X8 Y8
;TYPE:SUPPORT
G1 F2400 E13.45616
G1 F900 X101.2 Y114.963 E14.20498
M204 S3000
M205 X10 Y10
G1 F2400 E8.20498
G0 F3375 X100.689 Y110.4
M204 S1800
M205 X8 Y8
G1 F2400 E14.20498
G1 F900 X109.311 Y110.4 E14.62793
M204 S3000
M205 X10 Y10
G1 F2400 E8.62793
G0 F3375 X109.311 Y101.2
M204 S1800
M205 X8 Y8
G1 F2400 E14.62793
G1 F900 X100.689 Y101.2 E15.05088
M204 S3000
M205 X10 Y10
G1 F2400 E9.05088
;MESH:X_Hemera_BeltHolder_FL_V1.stl
G0 F3375 X101.271 Y98.891
G0 X101.271 Y97.781
G0 X101.919 Y96.267
M204 S1800
M205 X8 Y8
;TYPE:WALL-INNER
G1 F2400 E15.05088
G1 F900 X101.919 Y97.133 E15.09336
G1 X102.352 Y97.133 E15.1146
G1 X108.081 Y97.133 E15.39563
G1 X108.081 Y96.267 E15.43811
G1 X101.919 Y96.267 E15.74039
M204 S3000
M205 X10 Y10
G0 F3375 X102.352 Y96.7
M204 S1800
M205 X8 Y8
G1 F918.9 X107.648 Y96.7 E15.99483
M204 S3000
M205 X10 Y10
G0 F3375 X101.727 Y96.075
G0 X101.482 Y95.83
M204 S1800
M205 X8 Y8
G1 F900 X101.482 Y97.57 E16.08019
G1 X102.352 Y97.57 E16.12286
G1 X108.518 Y97.57 E16.42533
G1 X108.518 Y95.83 E16.51069
G1 X101.482 Y95.83 E16.85584
M204 S3000
M205 X10 Y10
G0 F3375 X101.045 Y95.393
M204 S1800
M205 X8 Y8
;TYPE:WALL-OUTER
G1 F900 X101.045 Y98.007 E16.98407
G1 X102.352 Y98.007 E17.04818
G1 X108.955 Y98.007 E17.37209
G1 X108.955 Y95.393 E17.50032
G1 X101.045 Y95.393 E17.88834
M204 S3000
M205 X10 Y10
G0 F3375 X101.045 Y95.993
G0 X102.094 Y96.314
G1 F2400 E11.88834
;MESH:NONMESH
G0 F600 X102.094 Y96.314 Z0.54
G0 F3375 X101.271 Y97.781
G0 X101.2 Y99.997
;TIME_ELAPSED:19.380102
;LAYER:1
M106 S127.5
G0 F6187.5 X100.988 Y99.996
M204 S1800
M205 X8 Y8
;TYPE:SUPPORT
G1 F2400 E17.88834
G1 F1350 X101.2 Y99.997 E17.89709
G1 X109.012 Y99.997 E18.2198
G1 X109.012 Y110.121 E18.63801
G1 X101.2 Y110.122 E18.96072
G1 X100.988 Y110.122 E18.96948
G1 X100.988 Y108.23 E19.04763
G1 X101.167 Y107.807 E19.06661
G1 X101.17 Y101.98 E19.30732
G1 X100.988 Y101.56 E19.32623
G1 X100.988 Y99.996 E19.39083
G1 X101.2 Y99.997
G1 X101.2 Y110.122 E19.80909
M204 S3000
M205 X10 Y10
G1 F2400 E13.80909
G0 F6187.5 X101.2 Y114.664
G0 X100.988 Y112.903
M204 S1800
M205 X8 Y8
G1 F2400 E19.80909
G1 F1350 X101.2 Y112.902 E19.81785
G1 X109.012 Y112.902 E20.14055
G1 X109.012 Y114.664 E20.21334
G1 X101.2 Y114.664 E20.53604
G1 X100.988 Y114.664 E20.5448
G1 X100.988 Y112.903 E20.61755
G1 X101.2 Y112.902
G1 X101.2 Y114.664 E20.69033
M204 S3000
M205 X10 Y10
G1 F2400 E14.69033
G0 F6187.5 X102.056 Y111.512
M204 S1800
M205 X8 Y8
;TYPE:SUPPORT-INTERFACE
G1 F2400 E20.69033
G1 F780.3 X107.944 Y111.512 E21.01763
M204 S3000
M205 X10 Y10
G0 F6187.5 X108.483 Y110.973
M204 S1800
M205 X8 Y8
G1 F1050 X101.517 Y110.973 E21.30539
G1 X101.517 Y112.052 E21.34997
G1 X108.483 Y112.051 E21.63773
G1 X108.483 Y111.512 E21.65999
G1 X108.483 Y110.973 E21.68226
M204 S3000
M205 X10 Y10
G0 F6187.5 X108.943 Y110.513
M204 S1800
M205 X8 Y8
G1 F1050 X101.057 Y110.513 E22.00802
G1 X101.057 Y112.512 E22.0906
G1 X108.943 Y112.511 E22.41636
G1 X108.943 Y111.512 E22.45763
G1 X108.943 Y110.513 E22.4989
M204 S3000
M205 X10 Y10
G1 F2400 E16.4989
;MESH:X_Hemera_BeltHolder_FL_V1.stl
G0 F6187.5 X108.729 Y99.161
G0 X108.729 Y98.052
G0 X101.977 Y96.325
M204 S1800
M205 X8 Y8
;TYPE:WALL-INNER
G1 F2400 E22.4989
G1 F1650 X101.977 Y97.345 E22.54103
G1 X108.023 Y97.345 E22.79079
G1 X108.023 Y96.835 E22.81185
G1 X108.023 Y96.325 E22.83292
G1 X101.977 Y96.325 E23.08268
M204 S3000
M205 X10 Y10
G0 F6187.5 X101.517 Y95.865
M204 S1800
M205 X8 Y8
G1 F1650 X101.517 Y97.805 E23.16282
G1 X108.483 Y97.805 E23.45057
G1 X108.483 Y96.835 E23.49064
G1 X108.483 Y95.865 E23.53071
G1 X101.517 Y95.865 E23.81847
M204 S3000
M205 X10 Y10
G0 F6187.5 X101.057 Y95.405
M204 S1800
M205 X8 Y8
;TYPE:WALL-OUTER
G1 F1200 X101.057 Y98.265 E23.93662
G1 X108.943 Y98.265 E24.26238
G1 X108.943 Y96.835 E24.32145
G1 X108.943 Y95.405 E24.38052
G1 X101.057 Y95.405 E24.70629
M204 S3000
M205 X10 Y10
G0 F6187.5 X101.057 Y96.005
G0 X101.727 Y96.075
G0 X102.487 Y96.835
M204 S1800
M205 X8 Y8
;TYPE:WALL-INNER
G1 F1355.4 X107.513 Y96.835 E24.95904
M204 S3000
M205 X10 Y10
G1 F2400 E18.95904
;MESH:NONMESH
G0 F600 X107.513 Y96.835 Z0.78
G0 F6187.5 X101.271 Y98.051
G0 X101.2 Y100.557
;TIME_ELAPSED:29.769548
;LAYER:2
M106 S255
G0 F9000 X100.988 Y100.556
M204 S1800
M205 X8 Y8
;TYPE:SUPPORT
G1 F2400 E24.95904
G1 F1800 X101.2 Y100.557 E24.9678
G1 X109.012 Y100.557 E25.29051
G1 X109.012 Y109.46 E25.65828
G1 X101.2 Y109.461 E25.98099
G1 X100.988 Y109.461 E25.98975
G1 X100.988 Y108.23 E26.0406
G1 X101.167 Y107.807 E26.05957
G1 X101.17 Y101.981 E26.30024
G1 X100.988 Y101.561 E26.31915
G1 X100.988 Y100.556 E26.36066
G1 X101.2 Y100.557
G1 X101.2 Y109.461 E26.72848
M204 S3000
M205 X10 Y10
G1 F2400 E20.72848
G0 F9000 X101.2 Y114.664
G0 X100.988 Y113.564
M204 S1800
M205 X8 Y8
G1 F2400 E26.72848
G1 F1800 X101.2 Y113.563 E26.73724
G1 X109.012 Y113.563 E27.05994
G1 X109.012 Y114.664 E27.10542
G1 X101.2 Y114.664 E27.42813
G1 X100.988 Y114.664 E27.43689
G1 X100.988 Y113.564 E27.48233
G1 X101.2 Y113.563
G1 X101.2 Y114.664 E27.52781
M204 S3000
M205 X10 Y10
G1 F2400 E21.52781
G0 F9000 X102.462 Y111.257
M204 S1800
M205 X8 Y8
;TYPE:SUPPORT-INTERFACE
G1 F2400 E27.52781
G1 F1080.2 X102.462 Y111.768 E27.55126
G1 F1082.4 X107.538 Y111.767 E27.78374
G1 X107.538 Y111.257 E27.80709
G1 X102.462 Y111.257 E28.03957
M204 S3000
M205 X10 Y10
G0 F9000 X101.977 Y110.772
M204 S1800
M205 X8 Y8
G1 F1200 X101.977 Y112.253 E28.10075
G1 X108.023 Y112.252 E28.3505
G1 X108.023 Y111.512 E28.38107
G1 X108.023 Y110.772 E28.41164
G1 X101.977 Y110.772 E28.6614
M204 S3000
M205 X10 Y10
G0 F9000 X101.517 Y110.312
M204 S1800
M205 X8 Y8
G1 F1200 X101.517 Y112.713 E28.76058
G1 X108.483 Y112.712 E29.04834
G1 X108.483 Y111.512 E29.09791
G1 X108.483 Y110.312 E29.14748
G1 X101.517 Y110.312 E29.43524
M204 S3000
M205 X10 Y10
G0 F9000 X101.057 Y109.852
M204 S1800
M205 X8 Y8
G1 F1200 X101.057 Y113.173 E29.57243
G1 X108.943 Y113.172 E29.89819
G1 X108.943 Y111.512 E29.96676
G1 X108.943 Y109.852 E30.03534
G1 X101.057 Y109.852 E30.3611
M204 S3000
M205 X10 Y10
G1 F2400 E24.3611
G0 F9000 X101.107 Y100.115
M204 S1800
M205 X8 Y8
G1 F2400 E30.3611
G1 F985.7 X108.893 Y100.116 E30.75265
M204 S3000
M205 X10 Y10
G1 F2400 E24.75265
;MESH:X_Hemera_BeltHolder_FL_V1.stl
G0 F9000 X108.729 Y98.292
G0 X102.407 Y96.755
M204 S1800
M205 X8 Y8
;TYPE:WALL-INNER
G1 F2400 E30.75265
G1 F2760 X102.407 Y97.155 E30.76702
G1 X107.593 Y97.155 E30.95331
G1 X107.593 Y96.955 E30.96049
G1 X107.593 Y96.755 E30.96767
G1 X102.407 Y96.755 E31.15396
M204 S3000
M205 X10 Y10
G0 F9000 X101.977 Y96.325
M204 S1800
M205 X8 Y8
G1 F2400 X101.977 Y97.585 E31.20601
G1 X108.023 Y97.585 E31.45576
G1 X108.023 Y96.955 E31.48179
G1 X108.023 Y96.325 E31.50781
G1 X101.977 Y96.325 E31.75757
M204 S3000
M205 X10 Y10
G0 F9000 X101.517 Y95.865
M204 S1800
M205 X8 Y8
G1 F2400 X101.517 Y98.045 E31.84762
G1 X108.483 Y98.045 E32.13538
G1 X108.483 Y96.955 E32.18041
G1 X108.483 Y95.865 E32.22544
G1 X101.517 Y95.865 E32.51319
M204 S3000
M205 X10 Y10
G0 F9000 X101.057 Y95.405
M204 S1800
M205 X8 Y8
;TYPE:WALL-OUTER
G1 F1500 X101.057 Y98.505 E32.64125
G1 X108.943 Y98.505 E32.96702
G1 X108.943 Y96.955 E33.03105
G1 X108.943 Y95.405 E33.09507
G1 X101.057 Y95.405 E33.42084
M204 S3000
M205 X10 Y10
G0 F9000 X101.057 Y96.005
G0 X102.117 Y96.33
G1 F2400 E27.42084
;MESH:NONMESH
G0 F600 X102.117 Y96.33 Z1.02
G0 F9000 X101.271 Y98.291
G0 X101.271 Y99.401
G0 X101.122 Y102.171
;TIME_ELAPSED:40.638885
;LAYER:3
M204 S1800
M205 X8 Y8
;TYPE:SUPPORT
G1 F2400 E33.42084
G1 F2268.5 X101.121 Y107.624 E33.59958
M204 S3000
M205 X10 Y10
G0 F9000 X101.058 Y108.24
M204 S1800
M205 X8 Y8
;TYPE:SUPPORT-INTERFACE
G1 F1200 X101.057 Y114.595 E33.86209
G1 X108.943 Y114.595 E34.18786
G1 X108.943 Y103.805 E34.63358
G1 X108.943 Y100.066 E34.78804
G1 X101.057 Y100.065 E35.1138
G1 X101.057 Y101.553 E35.17527
G1 X101.165 Y101.828 E35.18747
G1 X101.312 Y101.841 E35.19357
G1 X101.465 Y101.999 E35.20266
G1 X101.46 Y107.79 E35.44188
G1 X101.417 Y107.88 E35.446
G1 X101.31 Y107.956 E35.45142
G1 X101.163 Y107.968 E35.45751
G1 X101.058 Y108.24 E35.46956
M204 S3000
M205 X10 Y10
G0 F9000 X101.518 Y108.338
M204 S1800
M205 X8 Y8
G1 F1200 X101.517 Y114.135 E35.70902
G1 X108.483 Y114.135 E35.99678
G1 X108.483 Y103.805 E36.42351
G1 X108.483 Y100.526 E36.55896
G1 X101.517 Y100.525 E36.84672
G1 X101.518 Y101.448 E36.88485
G1 X101.708 Y101.551 E36.89377
G1 X101.859 Y101.771 E36.9048
G1 X101.922 Y102.018 E36.91533
G1 X101.921 Y107.846 E37.15608
G1 X101.81 Y108.116 E37.16814
G1 X101.716 Y108.222 E37.17399
G1 X101.518 Y108.338 E37.18347
M204 S3000
M205 X10 Y10
G0 F9000 X101.978 Y108.569
M204 S1800
M205 X8 Y8
G1 F1200 X101.977 Y113.675 E37.39439
G1 X108.023 Y113.675 E37.64415
G1 X108.023 Y103.805 E38.05187
G1 X108.023 Y100.986 E38.16832
G1 X101.978 Y100.985 E38.41803
G1 X101.978 Y101.181 E38.42613
