;FLAVOR:Marlin
;TIME:423
;Filament used: 0.411846m
;Layer height: 0.24
;MINX:95.268
;MINY:87.298
;MINZ:0.3
;MAXX:114.732
;MAXY:123.984
;MAXZ:6.54
;Generated with Cura_SteamEngine 5.2.1
M140 S80
M105
M190 S80
M104 S235
M105
M109 S235
M82 ;absolute extrusion mode
G21 ;metric values
G90 ;absolute positioning
M82 ;set extruder to absolute mode
M107 ;start with the fan off
G28 X0 Y0 ;move X/Y to min endstops
G28 Z0 ;move Z to min endstops
G1 Z15.0 F150.0 ;move the platform down 15mm
G92 E0 ;zero the extruded length
G1 F200 E3 ;extrude 3mm of feed stock
G92 E0 ;zero the extruded length again
G1 F150.0
G0 Y20 F150.0
M117 Printing...
G5
G92 E0
G92 E0
G1 F2400 E-6
;LAYER_COUNT:27
;LAYER:0
M107
M204 S3000
M205 X10 Y10
G1 F600 Z0.375
G0 F3375 X96.721 Y89.462 Z0.375
M204 S1800
M205 X8 Y8
;TYPE:SKIRT
G1 F600 Z0.3
G1 F2400 E0
G1 X97.202 Y88.957 E0.03801
G1 X97.737 Y88.509 E0.07605
G1 X98.321 Y88.126 E0.11411
G1 X98.944 Y87.811 E0.15216
G1 X99.599 Y87.57 E0.1902
G1 X100.277 Y87.406 E0.22822
G1 X101.305 Y87.298 E0.28456
G1 X107.932 Y87.298 E0.64577
G1 X108.717 Y87.309 E0.68856
G1 X109.413 Y87.359 E0.72659
G1 X110.099 Y87.488 E0.76464
G1 X110.766 Y87.695 E0.8027
G1 X111.404 Y87.976 E0.8407
G1 X112.006 Y88.329 E0.87874
G1 X112.564 Y88.748 E0.91677
G1 X113.07 Y89.229 E0.95482
G1 X113.518 Y89.764 E0.99286
G1 X113.902 Y90.347 E1.03091
G1 X114.217 Y90.97 E1.06896
G1 X114.458 Y91.625 E1.107
G1 X114.623 Y92.303 E1.14503
G1 X114.732 Y93.335 E1.20159
G1 X114.731 Y97.613 E1.43477
G1 X114.717 Y98.491 E1.48263
G1 X114.688 Y99.183 E1.52038
G1 X114.611 Y101.894 E1.6682
G1 X114.611 Y104.521 E1.81139
G1 X114.687 Y107.217 E1.95839
G1 X114.73 Y108.475 E2.027
G1 X114.732 Y117.154 E2.50005
G1 X114.721 Y117.966 E2.54431
G1 X114.672 Y118.662 E2.58234
G1 X114.543 Y119.348 E2.62038
G1 X114.337 Y120.014 E2.65838
G1 X114.055 Y120.653 E2.69645
G1 X113.703 Y121.255 E2.73446
G1 X113.284 Y121.814 E2.77254
G1 X112.804 Y122.32 E2.81055
G1 X112.269 Y122.768 E2.84859
G1 X111.686 Y123.152 E2.88664
G1 X111.063 Y123.468 E2.92471
G1 X110.409 Y123.709 E2.9627
G1 X109.731 Y123.875 E3.00075
G1 X108.695 Y123.984 E3.05752
G1 X101.989 Y123.983 E3.42304
G1 X101.291 Y123.974 E3.46108
G1 X100.595 Y123.926 E3.49911
G1 X99.909 Y123.797 E3.53715
G1 X99.242 Y123.591 E3.5752
G1 X98.604 Y123.311 E3.61318
G1 X98.001 Y122.959 E3.65124
G1 X97.442 Y122.54 E3.68931
G1 X96.936 Y122.061 E3.72729
G1 X96.487 Y121.526 E3.76536
G1 X96.102 Y120.944 E3.80339
G1 X95.787 Y120.321 E3.84144
G1 X95.544 Y119.667 E3.87947
G1 X95.378 Y118.989 E3.91752
G1 X95.268 Y117.942 E3.9749
G1 X95.269 Y93.973 E5.28133
G1 X95.279 Y93.308 E5.31758
G1 X95.329 Y92.612 E5.35561
G1 X95.459 Y91.927 E5.39362
G1 X95.666 Y91.26 E5.43168
G1 X95.948 Y90.622 E5.4697
G1 X96.301 Y90.02 E5.50774
G1 X96.721 Y89.462 E5.5458
M204 S3000
M205 X10 Y10
G0 F3375 X97.151 Y89.634
M204 S1800
M205 X8 Y8
G1 F2400 X97.628 Y89.159 E5.58249
G1 X98.158 Y88.745 E5.61915
G1 X98.733 Y88.397 E5.65578
G1 X99.345 Y88.119 E5.69242
G1 X99.986 Y87.916 E5.72907
G1 X100.647 Y87.791 E5.76574
G1 X101.35 Y87.735 E5.80417
G1 X107.932 Y87.735 E6.16293
G1 X108.711 Y87.746 E6.20539
G1 X109.382 Y87.795 E6.24206
G1 X110.041 Y87.924 E6.27866
G1 X110.681 Y88.13 E6.31531
G1 X111.292 Y88.411 E6.35196
G1 X111.866 Y88.762 E6.38863
G1 X112.393 Y89.179 E6.42526
G1 X112.868 Y89.655 E6.46192
G1 X113.282 Y90.185 E6.49857
G1 X113.631 Y90.759 E6.53519
G1 X113.909 Y91.372 E6.57187
G1 X114.113 Y92.012 E6.60849
G1 X114.239 Y92.673 E6.64516
G1 X114.295 Y93.382 E6.68393
G1 X114.294 Y97.607 E6.91421
G1 X114.28 Y98.472 E6.96136
G1 X114.252 Y99.125 E6.99699
G1 X114.174 Y101.882 E7.14732
G1 X114.174 Y104.533 E7.29181
G1 X114.25 Y107.234 E7.43909
G1 X114.293 Y108.475 E7.50677
G1 X114.295 Y117.154 E7.97982
G1 X114.284 Y117.96 E8.02375
G1 X114.235 Y118.63 E8.06037
G1 X114.107 Y119.29 E8.09701
G1 X113.901 Y119.93 E8.13366
G1 X113.621 Y120.542 E8.17034
G1 X113.27 Y121.115 E8.20697
G1 X112.853 Y121.643 E8.24364
G1 X112.377 Y122.118 E8.28029
G1 X111.848 Y122.533 E8.31694
G1 X111.273 Y122.882 E8.3536
G1 X110.661 Y123.16 E8.39024
G1 X110.021 Y123.364 E8.42685
G1 X109.36 Y123.491 E8.46354
G1 X108.648 Y123.547 E8.50246
G1 X101.995 Y123.547 E8.86509
G1 X101.297 Y123.538 E8.90313
G1 X100.626 Y123.489 E8.9398
G1 X99.966 Y123.361 E8.97645
G1 X99.326 Y123.156 E9.01308
G1 X98.715 Y122.876 E9.04971
G1 X98.141 Y122.526 E9.08635
G1 X97.613 Y122.11 E9.12299
G1 X97.138 Y121.634 E9.15964
G1 X96.722 Y121.105 E9.19632
G1 X96.373 Y120.531 E9.23294
G1 X96.094 Y119.919 E9.2696
G1 X95.889 Y119.278 E9.30628
G1 X95.762 Y118.618 E9.34291
G1 X95.705 Y117.895 E9.38244
G1 X95.706 Y93.98 E10.68593
G1 X95.716 Y93.315 E10.72218
G1 X95.766 Y92.644 E10.75885
G1 X95.895 Y91.985 E10.79545
G1 X96.102 Y91.345 E10.83212
G1 X96.383 Y90.734 E10.86877
G1 X96.734 Y90.161 E10.9054
G1 X97.151 Y89.634 E10.94203
M204 S3000
M205 X10 Y10
G0 F3375 X97.581 Y89.812
M204 S1800
M205 X8 Y8
G1 F2400 X98.053 Y89.371 E10.97723
G1 X98.576 Y88.992 E11.01244
G1 X99.142 Y88.681 E11.04764
G1 X99.742 Y88.442 E11.08284
G1 X100.367 Y88.279 E11.11805
G1 X101.322 Y88.172 E11.17042
G1 X107.932 Y88.172 E11.5307
G1 X108.705 Y88.183 E11.57284
G1 X109.349 Y88.232 E11.60804
G1 X109.982 Y88.36 E11.64324
G1 X110.594 Y88.566 E11.67844
G1 X111.176 Y88.845 E11.71362
G1 X111.719 Y89.195 E11.74883
G1 X112.215 Y89.608 E11.78401
G1 X112.656 Y90.08 E11.81922
G1 X113.036 Y90.603 E11.85445
G1 X113.347 Y91.169 E11.88965
G1 X113.587 Y91.768 E11.92482
G1 X113.751 Y92.393 E11.96004
G1 X113.858 Y93.354 E12.01275
G1 X113.857 Y97.601 E12.24423
G1 X113.843 Y98.454 E12.29073
G1 X113.815 Y99.113 E12.32668
G1 X113.737 Y101.87 E12.47701
G1 X113.737 Y104.545 E12.62281
G1 X113.815 Y107.3 E12.77303
G1 X113.856 Y108.475 E12.83711
G1 X113.858 Y117.227 E13.31414
G1 X113.848 Y117.954 E13.35377
G1 X113.799 Y118.598 E13.38897
G1 X113.671 Y119.231 E13.42417
G1 X113.465 Y119.843 E13.45937
G1 X113.186 Y120.426 E13.4946
G1 X112.837 Y120.969 E13.52978
G1 X112.424 Y121.465 E13.56496
G1 X111.952 Y121.906 E13.60017
G1 X111.43 Y122.286 E13.63536
G1 X110.864 Y122.598 E13.67059
G1 X110.265 Y122.838 E13.70576
G1 X109.64 Y123.002 E13.74098
G1 X108.678 Y123.11 E13.79374
G1 X102.001 Y123.11 E14.15767
G1 X101.303 Y123.101 E14.19572
G1 X100.659 Y123.052 E14.23092
G1 X100.026 Y122.925 E14.26611
G1 X99.413 Y122.72 E14.30134
G1 X98.83 Y122.441 E14.33657
G1 X98.287 Y122.093 E14.37172
G1 X97.79 Y121.68 E14.40694
G1 X97.349 Y121.209 E14.44211
G1 X96.968 Y120.686 E14.47738
G1 X96.656 Y120.121 E14.51256
G1 X96.415 Y119.522 E14.54775
G1 X96.251 Y118.897 E14.58297
G1 X96.142 Y117.925 E14.63628
G1 X96.143 Y93.987 E15.94102
G1 X96.153 Y93.322 E15.97727
G1 X96.202 Y92.678 E16.01247
G1 X96.331 Y92.045 E16.04768
G1 X96.537 Y91.433 E16.08288
G1 X96.817 Y90.851 E16.11808
G1 X97.167 Y90.308 E16.15329
G1 X97.581 Y89.812 E16.18851
M204 S3000
M205 X10 Y10
G1 F2400 E10.18851
G0 F3375 X101.591 Y93.621
M204 S1800
M205 X8 Y8
;TYPE:SUPPORT-INTERFACE
G1 F2400 E16.18851
G1 F900 X108.409 Y93.621 E16.56012
G1 X108.409 Y98.186 E16.80894
G1 X108.225 Y98.607 E16.83398
G1 X108.224 Y107.861 E17.33837
G1 X108.409 Y108.284 E17.36354
G1 X108.409 Y110.772 E17.49914
G1 X101.591 Y110.772 E17.87076
G1 X101.591 Y93.621 E18.80558
M204 S3000
M205 X10 Y10
G1 F2400 E12.80558
G0 F3375 X100.708 Y111.049
G0 X100.708 Y114.306
G0 X101.591 Y114.583
M204 S1800
M205 X8 Y8
G1 F2400 E18.80558
G1 F900 X108.409 Y114.583 E19.17719
G1 X108.409 Y117.661 E19.34496
G1 X101.591 Y117.661 E19.71657
G1 X101.591 Y114.583 E19.88434
M204 S3000
M205 X10 Y10
G0 F3375 X102.039 Y115.031
M204 S1800
M205 X8 Y8
G1 F900 X102.039 Y117.213 E20.00327
G1 X107.961 Y117.213 E20.32605
G1 X107.961 Y116.122 E20.38551
G1 X107.961 Y115.031 E20.44498
G1 X102.039 Y115.031 E20.76776
M204 S3000
M205 X10 Y10
G0 F3375 X102.475 Y115.467
M204 S1800
M205 X8 Y8
G1 F900 X102.475 Y116.777 E20.83916
G1 X107.525 Y116.777 E21.11441
G1 X107.525 Y116.122 E21.15011
G1 X107.525 Y115.467 E21.18581
G1 X102.475 Y115.467 E21.46106
M204 S3000
M205 X10 Y10
G0 F3375 X102.911 Y115.903
M204 S1800
M205 X8 Y8
G1 F900 X102.911 Y116.341 E21.48493
G1 X107.089 Y116.341 E21.71266
G1 X107.089 Y116.122 E21.72459
G1 X107.089 Y115.903 E21.73653
G1 X102.911 Y115.903 E21.96425
M204 S3000
M205 X10 Y10
G1 F2400 E15.96425
G0 F3375 X100.708 Y114.306
G0 X100.708 Y111.049
G0 X102.04 Y110.323
M204 S1800
M205 X8 Y8
G1 F2400 E21.96425
G1 F900 X107.961 Y110.324 E22.28698
G1 X107.961 Y108.714 E22.37473
G1 X107.961 Y108.378 E22.39304
G1 X107.776 Y107.909 E22.42052
G1 X107.777 Y98.512 E22.93271
G1 X107.961 Y98.093 E22.95765
G1 X107.961 Y94.069 E23.17698
G1 X102.039 Y94.069 E23.49976
G1 X102.04 Y110.323 E24.38568
M204 S3000
M205 X10 Y10
G0 F3375 X102.476 Y109.887
M204 S1800
M205 X8 Y8
G1 F900 X107.525 Y109.888 E24.66088
G1 X107.525 Y108.716 E24.72476
G1 X107.525 Y108.469 E24.73822
G1 X107.38 Y108.129 E24.75837
G1 X107.34 Y107.907 E24.77066
G1 X107.341 Y98.422 E25.28764
G1 X107.525 Y98.002 E25.31264
G1 X107.525 Y94.505 E25.50324
G1 X102.475 Y94.505 E25.77849
G1 X102.476 Y109.887 E26.61689
M204 S3000
M205 X10 Y10
G0 F3375 X102.912 Y109.451
M204 S1800
M205 X8 Y8
G1 F900 X107.089 Y109.451 E26.84455
G1 X107.089 Y108.706 E26.88516
G1 X107.089 Y108.559 E26.89317
G1 X106.95 Y108.21 E26.91365
G1 X106.906 Y107.941 E26.9285
G1 X106.908 Y98.432 E27.44679
G1 X106.948 Y98.23 E27.45802
G1 X107.089 Y97.911 E27.47703
G1 X107.089 Y94.941 E27.63891
G1 X102.911 Y94.941 E27.86663
G1 X102.912 Y109.451 E28.6575
M204 S3000
M205 X10 Y10
G0 F3375 X103.348 Y109.015
M204 S1800
M205 X8 Y8
G1 F900 X106.653 Y109.015 E28.83764
G1 X106.653 Y108.699 E28.85486
G1 X106.518 Y108.278 E28.87896
G1 X106.475 Y108.009 E28.89381
G1 X106.472 Y98.434 E29.41569
G1 X106.545 Y98.06 E29.43646
G1 X106.653 Y97.819 E29.45086
G1 X106.653 Y95.377 E29.58396
G1 X103.347 Y95.377 E29.76415
G1 X103.348 Y109.015 E30.50749
M204 S3000
M205 X10 Y10
G0 F3375 X103.784 Y108.579
M204 S1800
M205 X8 Y8
G1 F900 X106.166 Y108.578 E30.63732
G1 X106.096 Y108.386 E30.64846
G1 X106.038 Y108.008 E30.6693
G1 X106.037 Y98.39 E31.19353
G1 X106.134 Y97.91 E31.22022
G1 X106.217 Y97.726 E31.23123
G1 X106.217 Y95.813 E31.33549
G1 X103.783 Y95.813 E31.46816
G1 X103.784 Y108.579 E32.16397
M204 S3000
M205 X10 Y10
G0 F3375 X104.22 Y108.143
M204 S1800
M205 X8 Y8
G1 F900 X105.605 Y108.141 E32.23946
G1 X105.601 Y98.343 E32.7735
G1 X105.727 Y97.75 E32.80654
G1 X105.781 Y97.631 E32.81367
G1 X105.781 Y97.03 E32.84642
G1 X105.781 Y96.249 E32.88899
G1 X104.219 Y96.249 E32.97413
G1 X104.22 Y108.143 E33.62241
M204 S3000
M205 X10 Y10
G0 F3375 X104.675 Y107.688
M204 S1800
M205 X8 Y8
G1 F829.7 X105.149 Y107.687 E33.65044
G1 X105.146 Y98.297 E34.20557
G1 F766.7 X105.246 Y97.636 E34.24835
G1 F706.1 X105.282 Y97.532 E34.25599
G1 F698.6 X105.282 Y96.748 E34.31105
G1 X104.718 Y96.748 E34.35065
G1 X104.718 Y97.479 E34.40198
G1 F760.7 X104.672 Y98.345 E34.4579
G1 F833.3 X104.675 Y107.688 E35.00793
M204 S3000
M205 X10 Y10
G1 F2400 E29.00793
;MESH:Hemera_XYCarriage_HD9_BeltclampFL.stl
G0 F3375 X104.675 Y111.037
G0 X104.675 Y112.152
G0 X102.261 Y112.602
G1 F2400 E35.00793
G0 F3375 X102.068 Y112.409
M204 S1800
M205 X8 Y8
;TYPE:WALL-INNER
G1 F731 X102.068 Y112.947 E35.04403
G1 X107.933 Y112.947 E35.43758
G1 X107.933 Y112.678 E35.45564
G1 X107.933 Y112.409 E35.47369
G1 X102.068 Y112.409 E35.86724
M204 S3000
M205 X10 Y10
G0 F3375 X101.58 Y111.921
M204 S1800
M205 X8 Y8
;TYPE:WALL-OUTER
G1 F900 X101.58 Y113.435 E35.94976
G1 X108.421 Y113.435 E36.32263
G1 X108.421 Y112.678 E36.36389
G1 X108.421 Y111.921 E36.40515
G1 X101.58 Y111.921 E36.77802
M204 S3000
M205 X10 Y10
G0 F3375 X101.58 Y112.521
G1 F2400 E30.77802
;MESH:NONMESH
G0 F600 X101.58 Y112.521 Z0.54
G0 F3375 X102.261 Y112.602
G0 X108.161 Y112.152
G0 X108.161 Y111.037
G0 X108.161 Y98.528
;TIME_ELAPSED:39.835367
;LAYER:1
M106 S127.5
M204 S1800
M205 X8 Y8
;TYPE:SUPPORT-INTERFACE
G1 F2400 E36.77802
G1 F475 X108.162 Y107.864 E37.32763
G1 F466.3 X108.171 Y107.929 E37.33157
M204 S3000
M205 X10 Y10
G1 F2400 E31.33157
;MESH:Hemera_XYCarriage_HD9_BeltclampFL.stl
G0 F6187.5 X108.171 Y110.415
G0 X108.171 Y111.53
G0 X102.511 Y112.23
M204 S1800
M205 X8 Y8
;TYPE:WALL-INNER
G1 F2400 E37.33157
G1 F957.4 X102.511 Y113.125 E37.37265
G1 X107.489 Y113.125 E37.60113
G1 X107.489 Y112.23 E37.64221
G1 X102.959 Y112.23 E37.85014
G1 X102.511 Y112.23 E37.8707
M204 S3000
M205 X10 Y10
G0 F6187.5 X102.959 Y112.677
M204 S1800
M205 X8 Y8
G1 F1010.1 X107.041 Y112.677 E38.04828
M204 S3000
M205 X10 Y10
G0 F6187.5 X102.261 Y111.98
G0 X102.051 Y111.77
M204 S1800
M205 X8 Y8
G1 F957.4 X102.051 Y113.585 E38.13159
G1 X107.949 Y113.585 E38.4023
G1 X107.949 Y111.77 E38.48561
G1 X102.959 Y111.77 E38.71464
G1 X102.051 Y111.77 E38.75632
M204 S3000
M205 X10 Y10
G0 F6187.5 X101.591 Y111.31
M204 S1800
M205 X8 Y8
;TYPE:WALL-OUTER
G1 F696.3 X101.591 Y114.045 E38.88185
G1 X108.409 Y114.045 E39.19479
G1 X108.409 Y111.31 E39.32033
G1 X102.959 Y111.31 E39.57048
G1 X101.591 Y111.31 E39.63327
M204 S3000
M205 X10 Y10
G0 F6187.5 X101.591 Y111.91
G0 X102.651 Y112.235
G1 F2400 E33.63327
;MESH:NONMESH
G0 F600 X102.651 Y112.235 Z0.78
G0 F6187.5 X108.183 Y111.53
G0 X108.183 Y110.415
G0 X108.183 Y98.706
;TIME_ELAPSED:45.979338
;LAYER:2
M106 S255
M204 S1800
M205 X8 Y8
;TYPE:SUPPORT-INTERFACE
G1 F2400 E39.63327
G1 F1018.5 X108.183 Y107.763 E40.12308
M204 S3000
M205 X10 Y10
;MESH:Hemera_XYCarriage_HD9_BeltclampFL.stl
G0 F9000 X108.183 Y108.764
G0 X107.254 Y108.692
G0 X107.124 Y94.906
G0 X102.971 Y95.001
M204 S1800
M205 X8 Y8
;TYPE:WALL-INNER
G1 F2400 X102.971 Y116.281 E41.09981
G1 X107.029 Y116.281 E41.28607
G1 X107.029 Y109.648 E41.59052
G1 X106.856 Y109.599 E41.59877
G1 X106.512 Y109.308 E41.61945
G1 X106.297 Y109.004 E41.63654
G1 X106.152 Y108.638 E41.65461
G1 X106.102 Y108.234 E41.67329
G1 X106.101 Y98.234 E42.13228
G1 X106.144 Y97.86 E42.14956
G1 X106.269 Y97.516 E42.16636
G1 X106.639 Y97.032 E42.19432
G1 X107.029 Y96.883 E42.21349
G1 X107.029 Y95.001 E42.29987
G1 X102.971 Y95.001 E42.48613
M204 S3000
M205 X10 Y10
G0 F9000 X106.827 Y95.203
G0 X106.598 Y108.522
M204 S1800
M205 X8 Y8
G1 F2400 X106.562 Y108.234 E42.49945
G1 X106.561 Y98.234 E42.95844
G1 X106.592 Y97.967 E42.97078
G1 X106.681 Y97.721 E42.98278
G1 X106.945 Y97.375 E43.00276
G1 X107.489 Y97.168 E43.02948
G1 X107.489 Y94.541 E43.15005
G1 X102.511 Y94.541 E43.37854
G1 X102.511 Y116.741 E44.39749
G1 X107.489 Y116.741 E44.62598
G1 X107.489 Y109.32 E44.9666
G1 X107.1 Y109.209 E44.98516
G1 X106.854 Y109.001 E44.99995
G1 X106.701 Y108.784 E45.01214
G1 X106.598 Y108.522 E45.02506
M204 S3000
M205 X10 Y10
G0 F9000 X106.781 Y97.926
G0 X107.093 Y97.926
M204 S1800
M205 X8 Y8
G1 F2400 X107.251 Y97.718 E45.03705
G1 X107.711 Y97.544 E45.05962
G1 X107.949 Y97.544 E45.07054
G1 X107.949 Y94.081 E45.22949
G1 X102.051 Y94.081 E45.5002
G1 X102.051 Y117.201 E46.56139
G1 X107.949 Y117.201 E46.8321
G1 X107.949 Y109.161 E47.20113
G1 X107.949 Y108.924 E47.21201
G1 X107.712 Y108.924 E47.22289
G1 X107.345 Y108.819 E47.24041
G1 X107.197 Y108.694 E47.2493
G1 X107.022 Y108.368 E47.26628
G1 X107.021 Y98.122 E47.73656
G1 X107.093 Y97.926 E47.74615
M204 S3000
M205 X10 Y10
G0 F9000 X106.781 Y97.926
G0 X106.854 Y109.092
G0 X107.589 Y108.429
M204 S1800
M205 X8 Y8
;TYPE:WALL-OUTER
G1 F1500 X107.482 Y108.279 E47.7546
G1 X107.481 Y98.196 E48.2174
G1 X107.557 Y98.062 E48.22447
G1 X107.711 Y98.004 E48.23203
G1 X108.409 Y98.004 E48.26406
G1 X108.409 Y93.621 E48.46524
G1 X101.591 Y93.621 E48.77818
G1 X101.591 Y117.661 E49.88159
G1 X108.409 Y117.661 E50.19453
G1 X108.409 Y109.161 E50.58467
G1 X108.409 Y108.464 E50.61666
