;FLAVOR:Marlin
;TIME:498
;Filament used: 0.482291m
;Layer height: 0.24
;MINX:94.734
;MINY:86.682
;MINZ:0.3
;MAXX:115.266
;MAXY:123.318
;MAXZ:6.78
;Generated with Cura_SteamEngine 5.2.1
M140 S80
M105
M190 S80
M104 S235
M105
M109 S235
M82 ;absolute extrusion mode
G21 ;metric values
G90 ;absolute positioning
M82 ;set extruder to absolute mode
M107 ;start with the fan off
G28 X0 Y0 ;move X/Y to min endstops
G28 Z0 ;move Z to min endstops
G1 Z15.0 F150.0 ;move the platform down 15mm
G92 E0 ;zero the extruded length
G1 F200 E3 ;extrude 3mm of feed stock
G92 E0 ;zero the extruded length again
G1 F150.0
G0 Y20 F150.0
M117 Printing...
G5
G92 E0
G92 E0
G1 F2400 E-6
;LAYER_COUNT:28
;LAYER:0
M107
M204 S3000
M205 X10 Y10
G1 F600 Z0.375
G0 F3375 X96.18 Y88.853 Z0.375
M204 S1800
M205 X8 Y8
;TYPE:SKIRT
G1 F600 Z0.3
G1 F2400 E0
G1 X96.66 Y88.347 E0.03801
G1 X97.195 Y87.898 E0.07608
G1 X97.778 Y87.514 E0.11413
G1 X98.4 Y87.199 E0.15214
G1 X99.055 Y86.957 E0.19019
G1 X99.733 Y86.792 E0.22823
G1 X100.769 Y86.682 E0.28501
G1 X108.466 Y86.682 E0.70454
G1 X109.251 Y86.693 E0.74733
G1 X109.947 Y86.743 E0.78536
G1 X110.633 Y86.872 E0.82341
G1 X111.3 Y87.079 E0.86147
G1 X111.938 Y87.36 E0.89947
G1 X112.54 Y87.713 E0.93751
G1 X113.098 Y88.132 E0.97554
G1 X113.604 Y88.613 E1.01359
G1 X114.052 Y89.148 E1.05163
G1 X114.436 Y89.731 E1.08968
G1 X114.751 Y90.354 E1.12773
G1 X114.992 Y91.009 E1.16577
G1 X115.157 Y91.687 E1.2038
G1 X115.266 Y92.718 E1.26031
G1 X115.265 Y116.573 E2.56053
G1 X115.255 Y117.3 E2.60016
G1 X115.206 Y117.996 E2.63819
G1 X115.077 Y118.682 E2.67623
G1 X114.871 Y119.348 E2.71423
G1 X114.589 Y119.987 E2.7523
G1 X114.237 Y120.589 E2.79031
G1 X113.818 Y121.148 E2.82838
G1 X113.338 Y121.654 E2.8664
G1 X112.803 Y122.102 E2.90443
G1 X112.22 Y122.486 E2.94248
G1 X111.597 Y122.802 E2.98056
G1 X110.943 Y123.043 E3.01855
G1 X110.265 Y123.209 E3.05659
G1 X109.229 Y123.318 E3.11337
G1 X101.455 Y123.317 E3.53709
G1 X100.757 Y123.308 E3.57514
G1 X100.061 Y123.26 E3.61317
G1 X99.375 Y123.131 E3.65121
G1 X98.708 Y122.925 E3.68926
G1 X98.07 Y122.645 E3.72724
G1 X97.467 Y122.293 E3.7653
G1 X96.908 Y121.874 E3.80337
G1 X96.402 Y121.395 E3.84135
G1 X95.953 Y120.86 E3.87942
G1 X95.568 Y120.278 E3.91745
G1 X95.253 Y119.655 E3.9555
G1 X95.01 Y119.001 E3.99353
G1 X94.844 Y118.323 E4.03158
G1 X94.734 Y117.276 E4.08896
G1 X94.735 Y109.819 E4.4954
G1 X94.75 Y108.925 E4.54414
G1 X94.813 Y107.524 E4.62057
G1 X94.89 Y104.891 E4.76415
G1 X94.894 Y102.229 E4.90924
G1 X94.821 Y99.554 E5.0551
G1 X94.753 Y98.173 E5.13046
G1 X94.734 Y97.481 E5.16819
G1 X94.735 Y93.367 E5.39242
G1 X94.744 Y92.702 E5.42867
G1 X94.793 Y92.005 E5.46676
G1 X94.922 Y91.319 E5.5048
G1 X95.128 Y90.653 E5.5428
G1 X95.409 Y90.014 E5.58085
G1 X95.761 Y89.412 E5.61886
G1 X96.18 Y88.853 E5.65693
M204 S3000
M205 X10 Y10
G0 F3375 X96.611 Y89.024
M204 S1800
M205 X8 Y8
G1 F2400 X97.087 Y88.549 E5.69359
G1 X97.616 Y88.134 E5.73023
G1 X98.19 Y87.785 E5.76685
G1 X98.802 Y87.506 E5.80351
G1 X99.443 Y87.302 E5.84017
G1 X100.103 Y87.176 E5.8768
G1 X100.814 Y87.119 E5.91567
G1 X108.466 Y87.119 E6.33275
G1 X109.245 Y87.13 E6.37521
G1 X109.916 Y87.179 E6.41188
G1 X110.575 Y87.308 E6.44848
G1 X111.215 Y87.514 E6.48513
G1 X111.826 Y87.795 E6.52178
G1 X112.4 Y88.146 E6.55845
G1 X112.927 Y88.563 E6.59508
G1 X113.402 Y89.039 E6.63173
G1 X113.816 Y89.569 E6.66839
G1 X114.165 Y90.143 E6.70501
G1 X114.443 Y90.756 E6.74169
G1 X114.647 Y91.396 E6.7783
G1 X114.773 Y92.057 E6.81498
G1 X114.829 Y92.765 E6.85369
G1 X114.828 Y116.567 E8.15102
G1 X114.818 Y117.294 E8.19065
G1 X114.769 Y117.964 E8.22727
G1 X114.641 Y118.624 E8.26391
G1 X114.435 Y119.264 E8.30055
G1 X114.155 Y119.876 E8.33724
G1 X113.804 Y120.449 E8.37386
G1 X113.387 Y120.977 E8.41053
G1 X112.911 Y121.452 E8.44719
G1 X112.382 Y121.867 E8.48383
G1 X111.807 Y122.216 E8.52049
G1 X111.195 Y122.494 E8.55713
G1 X110.555 Y122.698 E8.59374
G1 X109.894 Y122.825 E8.63043
G1 X109.182 Y122.881 E8.66936
G1 X101.461 Y122.881 E9.09019
G1 X100.763 Y122.872 E9.12824
G1 X100.092 Y122.823 E9.16491
G1 X99.432 Y122.695 E9.20155
G1 X98.792 Y122.49 E9.23818
G1 X98.181 Y122.21 E9.27482
G1 X97.607 Y121.86 E9.31146
G1 X97.079 Y121.444 E9.3481
G1 X96.604 Y120.968 E9.38475
G1 X96.188 Y120.439 E9.42143
G1 X95.839 Y119.865 E9.45804
G1 X95.56 Y119.253 E9.4947
G1 X95.355 Y118.612 E9.53139
G1 X95.228 Y117.952 E9.56802
G1 X95.171 Y117.229 E9.60755
G1 X95.172 Y109.825 E10.0111
G1 X95.187 Y108.945 E10.05908
G1 X95.246 Y107.632 E10.13071
G1 X95.327 Y104.869 E10.28137
G1 X95.331 Y102.217 E10.42592
G1 X95.257 Y99.519 E10.57303
G1 X95.19 Y98.151 E10.64768
G1 X95.171 Y97.481 E10.68422
G1 X95.172 Y93.372 E10.90818
G1 X95.181 Y92.707 E10.94443
G1 X95.23 Y92.037 E10.98104
G1 X95.358 Y91.377 E11.01769
G1 X95.564 Y90.737 E11.05433
G1 X95.844 Y90.126 E11.09097
G1 X96.194 Y89.552 E11.12761
G1 X96.611 Y89.024 E11.16428
M204 S3000
M205 X10 Y10
G0 F3375 X97.041 Y89.202
M204 S1800
M205 X8 Y8
G1 F2400 X97.512 Y88.76 E11.19949
G1 X98.034 Y88.381 E11.23465
G1 X98.6 Y88.068 E11.2699
G1 X99.199 Y87.828 E11.30507
G1 X99.824 Y87.664 E11.34029
G1 X100.788 Y87.556 E11.39316
G1 X108.466 Y87.556 E11.81165
G1 X109.239 Y87.567 E11.85379
G1 X109.883 Y87.616 E11.88899
G1 X110.516 Y87.744 E11.92419
G1 X111.128 Y87.95 E11.95939
G1 X111.71 Y88.229 E11.99457
G1 X112.253 Y88.579 E12.02978
G1 X112.749 Y88.992 E12.06496
G1 X113.19 Y89.464 E12.10016
G1 X113.57 Y89.987 E12.1354
G1 X113.881 Y90.553 E12.1706
G1 X114.121 Y91.152 E12.20577
G1 X114.285 Y91.777 E12.24099
G1 X114.392 Y92.737 E12.29364
G1 X114.392 Y116.561 E13.59217
G1 X114.382 Y117.288 E13.6318
G1 X114.333 Y117.932 E13.667
G1 X114.205 Y118.565 E13.7022
G1 X113.999 Y119.177 E13.7374
G1 X113.72 Y119.76 E13.77262
G1 X113.371 Y120.303 E13.80781
G1 X112.958 Y120.799 E13.84299
G1 X112.486 Y121.24 E13.87819
G1 X111.964 Y121.62 E13.91339
G1 X111.398 Y121.932 E13.94861
G1 X110.799 Y122.172 E13.98378
G1 X110.174 Y122.336 E14.019
G1 X109.212 Y122.444 E14.07177
G1 X101.467 Y122.444 E14.49391
G1 X100.769 Y122.435 E14.53195
G1 X100.125 Y122.386 E14.56716
G1 X99.492 Y122.259 E14.60235
G1 X98.879 Y122.054 E14.63758
G1 X98.296 Y121.775 E14.6728
G1 X97.753 Y121.427 E14.70796
G1 X97.256 Y121.014 E14.74318
G1 X96.815 Y120.543 E14.77835
G1 X96.434 Y120.02 E14.81362
G1 X96.122 Y119.455 E14.84879
G1 X95.881 Y118.856 E14.88399
G1 X95.717 Y118.231 E14.9192
G1 X95.608 Y117.258 E14.97257
G1 X95.609 Y109.831 E15.37738
G1 X95.623 Y108.965 E15.42459
G1 X95.684 Y107.604 E15.49884
G1 X95.764 Y104.882 E15.64727
G1 X95.768 Y102.206 E15.79312
G1 X95.695 Y99.533 E15.93887
G1 X95.61 Y97.788 E16.0341
G1 X95.608 Y93.378 E16.27446
G1 X95.617 Y92.713 E16.31071
G1 X95.666 Y92.069 E16.34591
G1 X95.794 Y91.436 E16.38111
G1 X95.999 Y90.824 E16.41629
G1 X96.278 Y90.241 E16.45152
G1 X96.627 Y89.698 E16.4867
G1 X97.041 Y89.202 E16.52192
M204 S3000
M205 X10 Y10
G1 F2400 E10.52192
G0 F3375 X100.174 Y98.464
G0 X101.544 Y101.2
M204 S1800
M205 X8 Y8
;TYPE:SUPPORT
G1 F2400 E16.52192
G1 F900 X109.311 Y101.2 E16.94526
M204 S3000
M205 X10 Y10
G1 F2400 E10.94526
G0 F3375 X109.311 Y110.4
M204 S1800
M205 X8 Y8
G1 F2400 E16.94526
G1 F900 X100.689 Y110.4 E17.4152
M204 S3000
M205 X10 Y10
G0 F3375 X101.2 Y108.568
M204 S1800
M205 X8 Y8
G1 F900 X101.2 Y117.363 E17.89457
M204 S3000
M205 X10 Y10
G1 F2400 E11.89457
G0 F3375 X101.755 Y99.171
M204 S1800
M205 X8 Y8
;TYPE:SUPPORT-INTERFACE
G1 F2400 E17.89457
G1 F900 X108.943 Y99.171 E18.28635
G1 X108.943 Y99.271 E18.29181
G1 X101.855 Y99.271 E18.67814
G1 X101.755 Y99.171 E18.68585
M204 S3000
M205 X10 Y10
G1 F2400 E12.68585
;MESH:Hemera_XYCarriage_HD9_BeltclampFR.stl
G0 F3375 X101.755 Y97.361
G0 X102.356 Y94.304
M204 S1800
M205 X8 Y8
;TYPE:WALL-INNER
G1 F2400 E18.68585
G1 F900 X102.356 Y96.282 E18.79366
G1 X107.644 Y96.282 E19.08188
G1 X107.644 Y95.293 E19.13578
G1 X107.644 Y94.304 E19.18969
G1 X102.356 Y94.304 E19.47791
M204 S3000
M205 X10 Y10
G0 F3375 X101.919 Y93.867
M204 S1800
M205 X8 Y8
G1 F900 X101.919 Y96.719 E19.63336
G1 X108.081 Y96.719 E19.96922
G1 X108.081 Y95.293 E20.04695
G1 X108.081 Y93.867 E20.12467
G1 X101.919 Y93.867 E20.46053
M204 S3000
M205 X10 Y10
G0 F3375 X101.482 Y93.43
M204 S1800
M205 X8 Y8
G1 F900 X101.482 Y97.156 E20.66362
G1 X108.518 Y97.156 E21.04711
G1 X108.518 Y95.293 E21.14866
G1 X108.518 Y93.43 E21.2502
G1 X101.482 Y93.43 E21.6337
M204 S3000
M205 X10 Y10
G0 F3375 X101.045 Y92.993
M204 S1800
M205 X8 Y8
;TYPE:WALL-OUTER
G1 F900 X101.045 Y97.593 E21.88442
G1 X108.955 Y97.593 E22.31555
G1 X108.955 Y95.293 E22.44092
G1 X108.955 Y92.993 E22.56628
G1 X101.045 Y92.993 E22.99741
M204 S3000
M205 X10 Y10
G0 F3375 X101.045 Y93.593
G0 X101.727 Y93.675
G0 X102.474 Y94.648
G0 X102.7 Y94.648
M204 S1800
M205 X8 Y8
;TYPE:SKIN
G1 F900 X102.7 Y95.938 E23.06772
G1 X107.3 Y95.938 E23.31845
G1 X107.3 Y95.293 E23.3536
G1 X107.3 Y94.648 E23.38876
G1 X102.7 Y94.648 E23.63948
M204 S3000
M205 X10 Y10
G0 F3375 X102.474 Y94.648
G0 X102.546 Y96.092
G0 X103.135 Y95.719
M204 S1800
M205 X8 Y8
G1 F900 X102.917 Y95.501 E23.65629
M204 S3000
M205 X10 Y10
G0 F3375 X102.917 Y94.883
M204 S1800
M205 X8 Y8
G1 F900 X103.753 Y95.719 E23.72073
M204 S3000
M205 X10 Y10
G0 F3375 X104.371 Y95.719
M204 S1800
M205 X8 Y8
G1 F900 X103.518 Y94.866 E23.78648
M204 S3000
M205 X10 Y10
G0 F3375 X104.136 Y94.866
M204 S1800
M205 X8 Y8
G1 F900 X104.989 Y95.719 E23.85223
M204 S3000
M205 X10 Y10
G0 F3375 X105.607 Y95.719
M204 S1800
M205 X8 Y8
G1 F900 X104.754 Y94.866 E23.91798
M204 S3000
M205 X10 Y10
G0 F3375 X105.372 Y94.866
M204 S1800
M205 X8 Y8
G1 F900 X106.225 Y95.719 E23.98373
M204 S3000
M205 X10 Y10
G0 F3375 X106.843 Y95.719
M204 S1800
M205 X8 Y8
G1 F900 X105.99 Y94.866 E24.04948
M204 S3000
M205 X10 Y10
G0 F3375 X106.608 Y94.866
M204 S1800
M205 X8 Y8
G1 F900 X107.081 Y95.339 E24.08594
M204 S3000
M205 X10 Y10
G0 F3375 X107.863 Y95.339
G1 F2400 E18.08594
;MESH:NONMESH
G0 F600 X107.863 Y95.339 Z0.54
G0 F3375 X101.271 Y97.367
G0 X101.249 Y99.02
;TIME_ELAPSED:23.995287
;LAYER:1
M106 S127.5
M204 S1800
M205 X8 Y8
;TYPE:SUPPORT-INTERFACE
G1 F2400 E24.08594
G1 F1420.6 X101.357 Y99.02 E24.0896
M204 S3000
M205 X10 Y10
G0 F6187.5 X101.757 Y99.172
M204 S1800
M205 X8 Y8
G1 F1050 X101.846 Y99.259 E24.09532
G1 X101.912 Y99.423 E24.10343
G1 X101.91 Y108.282 E24.51005
G1 X101.858 Y108.383 E24.51526
G1 X101.057 Y109.286 E24.57067
G1 X101.057 Y116.995 E24.9245
G1 X108.943 Y116.995 E25.28646
G1 X108.943 Y102.686 E25.94323
G1 X108.943 Y99.171 E26.10456
G1 X101.757 Y99.172 E26.43439
M204 S3000
M205 X10 Y10
G0 F6187.5 X102.373 Y99.631
M204 S1800
M205 X8 Y8
G1 F1050 X102.371 Y108.339 E26.83408
G1 X102.233 Y108.65 E26.8497
G1 X101.517 Y109.461 E26.89936
G1 X101.517 Y116.535 E27.22404
G1 X108.483 Y116.535 E27.54378
G1 X108.483 Y102.686 E28.17943
G1 X108.483 Y99.631 E28.31965
G1 X102.373 Y99.631 E28.6001
M204 S3000
M205 X10 Y10
G0 F6187.5 X102.833 Y100.091
M204 S1800
M205 X8 Y8
G1 F1050 X102.832 Y108.391 E28.98106
G1 X102.615 Y108.911 E29.00692
G1 X101.978 Y109.635 E29.05118
G1 X101.977 Y116.075 E29.34677
G1 X108.023 Y116.075 E29.62428
G1 X108.023 Y102.686 E30.23882
G1 X108.023 Y100.091 E30.35793
G1 X102.833 Y100.091 E30.59614
M204 S3000
M205 X10 Y10
G0 F6187.5 X103.293 Y100.551
M204 S1800
M205 X8 Y8
G1 F1050 X103.292 Y108.511 E30.9615
G1 X102.976 Y109.196 E30.99612
G1 X102.439 Y109.809 E31.03353
G1 X102.437 Y115.615 E31.30002
G1 X107.563 Y115.615 E31.5353
G1 X107.563 Y102.686 E32.12872
G1 X107.563 Y100.551 E32.22672
G1 X103.293 Y100.551 E32.42271
M204 S3000
M205 X10 Y10
G0 F6187.5 X103.753 Y101.011
M204 S1800
M205 X8 Y8
G1 F1050 X103.752 Y108.612 E32.77159
G1 X103.368 Y109.444 E32.81364
G1 X102.899 Y109.983 E32.84644
G1 X102.899 Y110.766 E32.88238
G1 X102.897 Y115.155 E33.08383
G1 X107.103 Y115.155 E33.27688
G1 X107.103 Y101.011 E33.92607
G1 X103.753 Y101.011 E34.07984
M204 S3000
M205 X10 Y10
G0 F6187.5 X104.213 Y101.471
M204 S1800
M205 X8 Y8
G1 F1050 X104.212 Y108.715 E34.41233
G1 X103.758 Y109.699 E34.46207
G1 X103.359 Y110.156 E34.48991
G1 X103.357 Y114.695 E34.69825
G1 X106.643 Y114.695 E34.84907
G1 X106.643 Y102.686 E35.40027
G1 X106.643 Y101.471 E35.45604
G1 X104.213 Y101.471 E35.56758
M204 S3000
M205 X10 Y10
G0 F6187.5 X104.673 Y101.931
M204 S1800
M205 X8 Y8
G1 F1050 X104.672 Y108.818 E35.88368
G1 X104.148 Y109.953 E35.94106
G1 X103.819 Y110.329 E35.96399
G1 X103.817 Y114.235 E36.14328
G1 X106.183 Y114.235 E36.25187
G1 X106.183 Y102.686 E36.78196
G1 X106.183 Y101.931 E36.81661
G1 X104.673 Y101.931 E36.88592
M204 S3000
M205 X10 Y10
G0 F6187.5 X105.165 Y102.423
M204 S1800
M205 X8 Y8
G1 F918.3 X105.166 Y108.907 E37.22623
G1 F979.7 X104.551 Y110.162 E37.29498
G1 F1050 X104.279 Y110.499 E37.31486
G1 X104.277 Y113.775 E37.46522
G1 X105.723 Y113.775 E37.53159
G1 X105.723 Y110.365 E37.68811
G1 F1000 X105.701 Y109.091 E37.74952
G1 F936 X105.69 Y108.952 E37.7567
G1 F918.3 X105.691 Y102.686 E38.08556
G1 F920 X105.691 Y102.423 E38.09934
G1 X105.165 Y102.423 E38.12689
M204 S3000
M205 X10 Y10
G1 F2400 E32.12689
G0 F6187.5 X104.755 Y110.668
M204 S1800
M205 X8 Y8
G1 F2400 E38.12689
G1 F979.7 X104.754 Y113.299 E38.25632
G1 X105.248 Y113.299 E38.28062
G1 X105.248 Y110.371 E38.42465
G1 X105.23 Y109.879 E38.44887
G1 X104.976 Y110.383 E38.47663
G1 X104.755 Y110.668 E38.49437
M204 S3000
M205 X10 Y10
G1 F2400 E32.49437
;MESH:Hemera_XYCarriage_HD9_BeltclampFR.stl
G0 F6187.5 X104.755 Y98.746
G0 X104.755 Y97.631
G0 X102.897 Y94.845
M204 S1800
M205 X8 Y8
;TYPE:WALL-INNER
G1 F2400 E38.49437
G1 F1650 X102.897 Y96.011 E38.54789
G1 X107.103 Y96.011 E38.74094
G1 X107.103 Y95.428 E38.7677
G1 X107.103 Y94.845 E38.79446
G1 X102.897 Y94.845 E38.98751
M204 S3000
M205 X10 Y10
G0 F6187.5 X102.437 Y94.385
M204 S1800
M205 X8 Y8
G1 F1650 X102.437 Y96.471 E39.08326
G1 X107.563 Y96.471 E39.31854
G1 X107.563 Y95.428 E39.36641
G1 X107.563 Y94.385 E39.41428
G1 X102.437 Y94.385 E39.64956
M204 S3000
M205 X10 Y10
G0 F6187.5 X101.977 Y93.925
M204 S1800
M205 X8 Y8
G1 F1650 X101.977 Y96.931 E39.78753
G1 X108.023 Y96.931 E40.06504
G1 X108.023 Y95.428 E40.13402
G1 X108.023 Y93.925 E40.20301
G1 X101.977 Y93.925 E40.48052
M204 S3000
M205 X10 Y10
G0 F6187.5 X101.517 Y93.465
M204 S1800
M205 X8 Y8
G1 F1650 X101.517 Y97.391 E40.66072
G1 X108.483 Y97.391 E40.98045
G1 X108.483 Y95.428 E41.07055
G1 X108.483 Y93.465 E41.16065
G1 X101.517 Y93.465 E41.48038
M204 S3000
M205 X10 Y10
G0 F6187.5 X101.057 Y93.005
M204 S1800
M205 X8 Y8
;TYPE:WALL-OUTER
G1 F1200 X101.057 Y97.851 E41.70281
G1 X108.943 Y97.851 E42.06477
G1 X108.943 Y95.428 E42.17598
G1 X108.943 Y93.005 E42.28719
G1 X101.057 Y93.005 E42.64915
M204 S3000
M205 X10 Y10
G0 F6187.5 X101.057 Y93.605
G0 X101.727 Y93.675
G0 X103.257 Y95.205
M204 S1800
M205 X8 Y8
;TYPE:SKIN
G1 F961.3 X103.257 Y95.651 E42.66895
G1 X106.743 Y95.651 E42.82374
G1 X106.743 Y95.205 E42.84354
G1 X103.257 Y95.205 E42.99833
M204 S3000
M205 X10 Y10
G1 F2400 E36.99833
;MESH:NONMESH
G0 F600 X103.257 Y95.205 Z0.78
G0 F6187.5 X101.835 Y97.631
G0 X101.835 Y99.251
;TIME_ELAPSED:48.314511
;LAYER:2
M106 S255
M204 S1800
M205 X8 Y8
;TYPE:SUPPORT-INTERFACE
G1 F2400 E42.99833
G1 F1200 X101.912 Y99.423 E43.00698
G1 X101.91 Y108.282 E43.4136
G1 X101.858 Y108.383 E43.41881
G1 X101.057 Y109.286 E43.47422
G1 X101.057 Y116.995 E43.82805
G1 X108.943 Y116.995 E44.19001
G1 X108.943 Y102.766 E44.84311
G1 X108.943 Y99.251 E45.00444
G1 X101.835 Y99.251 E45.33069
M204 S3000
M205 X10 Y10
G0 F9000 X102.373 Y99.711
M204 S1800
M205 X8 Y8
G1 F1200 X102.371 Y108.339 E45.72671
G1 X102.233 Y108.65 E45.74233
G1 X101.517 Y109.461 E45.79198
