;FLAVOR:Marlin
;TIME:2134
;Filament used: 2.28127m
;Layer height: 0.24
;MINX:91.608
;MINY:90.407
;MINZ:0.3
;MAXX:123.832
;MAXY:119.567
;MAXZ:40.14
;Generated with Cura_SteamEngine 5.2.1
M140 S80
M105
M190 S80
M104 S235
M105
M109 S235
M82 ;absolute extrusion mode
G21 ;metric values
G90 ;absolute positioning
M82 ;set extruder to absolute mode
M107 ;start with the fan off
G28 X0 Y0 ;move X/Y to min endstops
G28 Z0 ;move Z to min endstops
G1 Z15.0 F150.0 ;move the platform down 15mm
G92 E0 ;zero the extruded length
G1 F200 E3 ;extrude 3mm of feed stock
G92 E0 ;zero the extruded length again
G1 F150.0
G0 Y20 F150.0
M117 Printing...
G5
G92 E0
G92 E0
G1 F2400 E-6
;LAYER_COUNT:167
;LAYER:0
M107
M204 S3000
M205 X10 Y10
G1 F600 Z0.375
G0 F3375 X97.614 Y92.578 Z0.375
M204 S1800
M205 X8 Y8
;TYPE:SKIRT
G1 F600 Z0.3
G1 F2400 E0
G1 X98.094 Y92.072 E0.03801
G1 X98.629 Y91.623 E0.07608
G1 X99.212 Y91.239 E0.11413
G1 X99.834 Y90.924 E0.15214
G1 X100.489 Y90.682 E0.19019
G1 X101.167 Y90.517 E0.22823
G1 X102.203 Y90.407 E0.28501
G1 X117.032 Y90.407 E1.09327
G1 X117.817 Y90.418 E1.13606
G1 X118.513 Y90.468 E1.17409
G1 X119.199 Y90.597 E1.21214
G1 X119.866 Y90.804 E1.2502
G1 X120.504 Y91.085 E1.2882
G1 X121.106 Y91.438 E1.32624
G1 X121.664 Y91.857 E1.36427
G1 X122.17 Y92.338 E1.40232
G1 X122.618 Y92.873 E1.44036
G1 X123.002 Y93.456 E1.47841
G1 X123.317 Y94.079 E1.51646
G1 X123.558 Y94.734 E1.5545
G1 X123.723 Y95.412 E1.59253
G1 X123.832 Y96.443 E1.64904
G1 X123.831 Y105.548 E2.14531
G1 X123.812 Y106.647 E2.20522
G1 X123.762 Y107.471 E2.25021
G1 X123.663 Y108.443 E2.30347
G1 X123.532 Y109.223 E2.34657
G1 X123.336 Y110.055 E2.39316
G1 X123.037 Y110.986 E2.44646
G1 X122.815 Y111.549 E2.47945
G1 X122.521 Y112.198 E2.51828
G1 X122.154 Y112.874 E2.56021
G1 X121.771 Y113.537 E2.60194
G1 X121.148 Y114.414 E2.66057
G1 X120.582 Y115.123 E2.71002
G1 X119.93 Y115.816 E2.76188
G1 X119.216 Y116.456 E2.81415
G1 X118.286 Y117.179 E2.87835
G1 X117.575 Y117.637 E2.92445
G1 X117.032 Y117.954 E2.95872
G1 X116.484 Y118.247 E2.99259
G1 X115.74 Y118.591 E3.03727
G1 X115.192 Y118.803 E3.06929
G1 X114.571 Y119.01 E3.10497
G1 X113.953 Y119.181 E3.13992
G1 X113.184 Y119.35 E3.18283
G1 X112.015 Y119.51 E3.24714
G1 X111.059 Y119.563 E3.29933
G1 X110.466 Y119.567 E3.33165
G1 X109.844 Y119.541 E3.36559
G1 X108.735 Y119.43 E3.42633
G1 X107.742 Y119.226 E3.48159
G1 X106.822 Y118.993 E3.53332
G1 X105.925 Y118.66 E3.58547
G1 X105.223 Y118.359 E3.6271
G1 X104.73 Y118.121 E3.65694
G1 X104.2 Y117.835 E3.68976
G1 X103.725 Y117.55 E3.71995
G1 X103.196 Y117.199 E3.75456
G1 X102.602 Y116.75 E3.79514
G1 X102.087 Y116.309 E3.8321
G1 X101.719 Y115.967 E3.85948
G1 X101.243 Y115.486 E3.89636
G1 X100.626 Y114.784 E3.9473
G1 X100.21 Y114.254 E3.98403
G1 X99.811 Y113.689 E4.02173
G1 X99.52 Y113.22 E4.05181
G1 X99.212 Y112.67 E4.08617
G1 X98.857 Y111.98 E4.12846
G1 X98.503 Y111.128 E4.17875
G1 X98.262 Y110.417 E4.21967
G1 X98.1 Y109.853 E4.25165
G1 X97.366 Y106.728 E4.42662
G1 X96.387 Y103.083 E4.63233
G1 X96.245 Y102.4 E4.67035
G1 X96.181 Y101.685 E4.70948
G1 X96.168 Y101.17 E4.73756
G1 X96.169 Y97.092 E4.95983
G1 X96.178 Y96.427 E4.99608
G1 X96.227 Y95.73 E5.03416
G1 X96.356 Y95.044 E5.07221
G1 X96.562 Y94.378 E5.11021
G1 X96.843 Y93.739 E5.14825
G1 X97.195 Y93.137 E5.18626
G1 X97.614 Y92.578 E5.22434
M204 S3000
M205 X10 Y10
G0 F3375 X98.045 Y92.749
M204 S1800
M205 X8 Y8
G1 F2400 X98.521 Y92.274 E5.26099
G1 X99.05 Y91.859 E5.29764
G1 X99.624 Y91.51 E5.33425
G1 X100.236 Y91.231 E5.37091
G1 X100.877 Y91.027 E5.40758
G1 X101.537 Y90.901 E5.4442
G1 X102.248 Y90.844 E5.48308
G1 X117.032 Y90.844 E6.28888
G1 X117.811 Y90.855 E6.33135
G1 X118.482 Y90.904 E6.36802
G1 X119.141 Y91.033 E6.40462
G1 X119.781 Y91.239 E6.44126
G1 X120.392 Y91.52 E6.47792
G1 X120.966 Y91.871 E6.51459
G1 X121.493 Y92.288 E6.55122
G1 X121.968 Y92.764 E6.58787
G1 X122.382 Y93.294 E6.62453
G1 X122.731 Y93.868 E6.66114
G1 X123.009 Y94.481 E6.69783
G1 X123.213 Y95.121 E6.73444
G1 X123.339 Y95.782 E6.77112
G1 X123.395 Y96.491 E6.80988
G1 X123.394 Y105.542 E7.30321
G1 X123.382 Y106.41 E7.35052
G1 X123.342 Y107.283 E7.39816
G1 X123.228 Y108.399 E7.4593
G1 X123.106 Y109.122 E7.49926
G1 X122.909 Y109.958 E7.54608
G1 X122.623 Y110.846 E7.59693
G1 X122.417 Y111.369 E7.62756
G1 X122.129 Y112.005 E7.66562
G1 X121.77 Y112.666 E7.70662
G1 X121.516 Y113.105 E7.73426
G1 X121.033 Y113.834 E7.78193
G1 X120.528 Y114.493 E7.82718
G1 X120.149 Y114.945 E7.85933
G1 X119.631 Y115.5 E7.90071
G1 X118.938 Y116.119 E7.95135
G1 X118.039 Y116.817 E8.01339
G1 X117.355 Y117.26 E8.05781
G1 X116.812 Y117.577 E8.09208
G1 X116.282 Y117.86 E8.12482
G1 X115.562 Y118.192 E8.16804
G1 X115.054 Y118.389 E8.19774
G1 X114.433 Y118.596 E8.23342
G1 X113.859 Y118.754 E8.26587
G1 X113.104 Y118.92 E8.308
G1 X111.981 Y119.073 E8.36977
G1 X111.035 Y119.126 E8.42142
G1 X110.484 Y119.13 E8.45145
G1 X109.862 Y119.104 E8.48538
G1 X108.798 Y118.997 E8.54367
G1 X107.829 Y118.798 E8.59759
G1 X106.943 Y118.572 E8.64742
G1 X106.097 Y118.258 E8.69661
G1 X105.395 Y117.957 E8.73824
G1 X104.938 Y117.737 E8.76588
G1 X104.408 Y117.451 E8.79871
G1 X103.967 Y117.186 E8.82675
G1 X103.438 Y116.835 E8.86135
G1 X102.886 Y116.418 E8.89906
G1 X102.199 Y115.829 E8.94838
G1 X101.554 Y115.178 E8.99833
G1 X100.959 Y114.502 E9.04742
G1 X100.556 Y113.988 E9.08302
G1 X100.172 Y113.442 E9.1194
G1 X99.901 Y113.007 E9.14734
G1 X99.593 Y112.457 E9.18169
G1 X99.329 Y111.942 E9.21324
G1 X98.921 Y110.998 E9.26929
G1 X98.676 Y110.277 E9.3108
G1 X98.526 Y109.753 E9.3405
G1 X97.791 Y106.624 E9.51569
G1 X96.809 Y102.97 E9.72192
G1 X96.673 Y102.311 E9.7586
G1 X96.618 Y101.672 E9.79355
G1 X96.605 Y101.17 E9.82092
G1 X96.606 Y97.097 E10.04292
G1 X96.615 Y96.432 E10.07917
G1 X96.664 Y95.762 E10.11579
G1 X96.792 Y95.102 E10.15243
G1 X96.998 Y94.462 E10.18908
G1 X97.278 Y93.851 E10.22571
G1 X97.628 Y93.277 E10.26235
G1 X98.045 Y92.749 E10.29903
M204 S3000
M205 X10 Y10
G0 F3375 X98.475 Y92.927
M204 S1800
M205 X8 Y8
G1 F2400 X98.946 Y92.485 E10.33423
G1 X99.468 Y92.106 E10.36939
G1 X100.034 Y91.793 E10.40464
G1 X100.633 Y91.553 E10.43982
G1 X101.258 Y91.389 E10.47503
G1 X102.222 Y91.281 E10.52791
G1 X117.032 Y91.281 E11.33513
G1 X117.805 Y91.292 E11.37726
G1 X118.449 Y91.341 E11.41246
G1 X119.082 Y91.469 E11.44766
G1 X119.694 Y91.675 E11.48286
G1 X120.276 Y91.954 E11.51804
G1 X120.819 Y92.304 E11.55325
G1 X121.315 Y92.717 E11.58843
G1 X121.756 Y93.189 E11.62364
G1 X122.136 Y93.712 E11.65887
G1 X122.447 Y94.278 E11.69407
G1 X122.687 Y94.877 E11.72925
G1 X122.851 Y95.502 E11.76447
G1 X122.958 Y96.462 E11.81711
G1 X122.958 Y105.536 E12.31169
G1 X122.946 Y106.404 E12.35901
G1 X122.906 Y107.241 E12.40468
G1 X122.793 Y108.355 E12.46571
G1 X122.681 Y109.022 E12.50257
G1 X122.49 Y109.834 E12.54804
G1 X122.209 Y110.706 E12.59798
G1 X122.018 Y111.189 E12.62629
G1 X121.644 Y111.982 E12.67407
G1 X121.242 Y112.721 E12.71993
G1 X120.94 Y113.197 E12.75065
G1 X120.462 Y113.872 E12.79573
G1 X119.918 Y114.554 E12.84328
G1 X119.325 Y115.187 E12.89056
G1 X118.662 Y115.78 E12.93904
G1 X117.784 Y116.462 E12.99964
G1 X117.134 Y116.882 E13.04182
G1 X116.591 Y117.199 E13.07609
G1 X116.08 Y117.472 E13.10767
G1 X115.385 Y117.792 E13.14937
G1 X114.915 Y117.974 E13.17684
G1 X114.294 Y118.181 E13.21252
G1 X113.765 Y118.327 E13.24243
G1 X113.025 Y118.49 E13.28373
G1 X111.935 Y118.638 E13.34369
G1 X111.01 Y118.69 E13.39419
G1 X110.502 Y118.693 E13.42187
G1 X109.88 Y118.667 E13.45581
G1 X108.862 Y118.564 E13.51158
G1 X107.917 Y118.37 E13.56416
G1 X107.086 Y118.158 E13.6109
G1 X106.269 Y117.857 E13.65836
G1 X105.358 Y117.466 E13.71239
G1 X104.407 Y116.953 E13.77129
G1 X103.68 Y116.471 E13.81883
G1 X103.17 Y116.086 E13.85366
G1 X102.49 Y115.504 E13.90244
G1 X101.709 Y114.714 E13.96299
G1 X101.009 Y113.873 E14.02263
G1 X100.41 Y113.022 E14.07935
G1 X99.974 Y112.243 E14.12801
G1 X99.635 Y111.579 E14.16865
G1 X99.263 Y110.647 E14.22334
G1 X99.09 Y110.137 E14.2527
G1 X98.951 Y109.653 E14.28014
G1 X98.216 Y106.521 E14.45549
G1 X97.231 Y102.856 E14.66234
G1 X97.102 Y102.223 E14.69755
G1 X97.042 Y101.518 E14.73612
G1 X97.042 Y97.103 E14.97676
G1 X97.051 Y96.438 E15.013
G1 X97.1 Y95.794 E15.04821
G1 X97.228 Y95.161 E15.08341
G1 X97.433 Y94.549 E15.11859
G1 X97.712 Y93.966 E15.15381
G1 X98.061 Y93.423 E15.189
G1 X98.475 Y92.927 E15.22421
M204 S3000
M205 X10 Y10
G1 F2400 E9.22421
G0 F3375 X101.608 Y102.153
G0 X110.4 Y102.165
G0 X110.4 Y102.062
M204 S1800
M205 X8 Y8
;TYPE:SUPPORT
G1 F2400 E15.22421
G1 F900 X110.4 Y113.617 E15.85402
M204 S3000
M205 X10 Y10
G1 F2400 E9.85402
G0 F3375 X104.767 Y110.4
M204 S1800
M205 X8 Y8
G1 F2400 E15.85402
G1 F900 X116.707 Y110.4 E16.50481
M204 S3000
M205 X10 Y10
G1 F2400 E10.50481
;MESH:Hemera_XYCarriage_HD9_EndstopMount.stl
G0 F3375 X116.707 Y102.165
G0 X116.707 Y101.05
G0 X103.98 Y99.781
G0 X103.79 Y98.029
M204 S1800
M205 X8 Y8
;TYPE:WALL-INNER
G1 F2400 E16.50481
G1 F900 X103.79 Y99.971 E16.61066
G1 X116.21 Y99.971 E17.28761
G1 X116.21 Y99 E17.34053
G1 X116.21 Y98.029 E17.39346
G1 X103.79 Y98.029 E18.07041
M204 S3000
M205 X10 Y10
G0 F3375 X103.353 Y97.592
M204 S1800
M205 X8 Y8
G1 F900 X103.353 Y100.408 E18.2239
G1 X116.647 Y100.408 E18.94849
G1 X116.647 Y99 E19.02523
G1 X116.647 Y97.592 E19.10197
G1 X103.353 Y97.592 E19.82656
M204 S3000
M205 X10 Y10
G0 F3375 X102.916 Y97.155
M204 S1800
M205 X8 Y8
G1 F900 X102.916 Y100.845 E20.02769
G1 X117.084 Y100.845 E20.79991
G1 X117.084 Y99 E20.90047
G1 X117.084 Y97.155 E21.00104
G1 X102.916 Y97.155 E21.77326
M204 S3000
M205 X10 Y10
G0 F3375 X102.479 Y96.718
M204 S1800
M205 X8 Y8
;TYPE:WALL-OUTER
G1 F900 X102.479 Y101.282 E22.02203
G1 X117.521 Y101.282 E22.84189
G1 X117.521 Y99 E22.96627
G1 X117.521 Y96.718 E23.09065
G1 X102.479 Y96.718 E23.91052
M204 S3000
M205 X10 Y10
G0 F3375 X102.479 Y97.318
G0 X103.161 Y97.4
G0 X103.908 Y98.373
G0 X104.134 Y98.373
M204 S1800
M205 X8 Y8
;TYPE:SKIN
G1 F900 X104.134 Y99.627 E23.97887
G1 X115.866 Y99.627 E24.61832
G1 X115.866 Y98.373 E24.68667
G1 X104.761 Y98.373 E25.29195
G1 X104.134 Y98.373 E25.32612
M204 S3000
M205 X10 Y10
G0 F3375 X103.908 Y98.373
G0 X103.98 Y99.781
G0 X104.97 Y99.853
G0 X104.97 Y99.408
M204 S1800
M205 X8 Y8
G1 F900 X104.351 Y98.789 E25.37383
M204 S3000
M205 X10 Y10
G0 F3375 X104.771 Y98.591
M204 S1800
M205 X8 Y8
G1 F900 X105.588 Y99.408 E25.43681
M204 S3000
M205 X10 Y10
G0 F3375 X106.206 Y99.408
M204 S1800
M205 X8 Y8
G1 F900 X105.389 Y98.591 E25.49979
M204 S3000
M205 X10 Y10
G0 F3375 X106.007 Y98.591
M204 S1800
M205 X8 Y8
G1 F900 X106.824 Y99.408 E25.56276
M204 S3000
M205 X10 Y10
G0 F3375 X107.442 Y99.408
M204 S1800
M205 X8 Y8
G1 F900 X106.625 Y98.591 E25.62574
M204 S3000
M205 X10 Y10
G0 F3375 X107.243 Y98.591
M204 S1800
M205 X8 Y8
G1 F900 X108.06 Y99.408 E25.68871
M204 S3000
M205 X10 Y10
G0 F3375 X108.678 Y99.408
M204 S1800
M205 X8 Y8
G1 F900 X107.861 Y98.591 E25.75169
M204 S3000
M205 X10 Y10
G0 F3375 X108.479 Y98.591
M204 S1800
M205 X8 Y8
G1 F900 X109.296 Y99.408 E25.81467
M204 S3000
M205 X10 Y10
G0 F3375 X109.914 Y99.408
M204 S1800
M205 X8 Y8
G1 F900 X109.097 Y98.591 E25.87764
M204 S3000
M205 X10 Y10
G0 F3375 X109.715 Y98.591
M204 S1800
M205 X8 Y8
G1 F900 X110.532 Y99.408 E25.94062
M204 S3000
M205 X10 Y10
G0 F3375 X111.15 Y99.408
M204 S1800
M205 X8 Y8
G1 F900 X110.333 Y98.591 E26.00359
M204 S3000
M205 X10 Y10
G0 F3375 X110.951 Y98.591
M204 S1800
M205 X8 Y8
G1 F900 X111.768 Y99.408 E26.06657
M204 S3000
M205 X10 Y10
G0 F3375 X112.386 Y99.408
M204 S1800
M205 X8 Y8
G1 F900 X111.569 Y98.591 E26.12954
M204 S3000
M205 X10 Y10
G0 F3375 X112.187 Y98.591
M204 S1800
M205 X8 Y8
G1 F900 X113.004 Y99.408 E26.19252
M204 S3000
M205 X10 Y10
G0 F3375 X113.622 Y99.408
M204 S1800
M205 X8 Y8
G1 F900 X112.805 Y98.591 E26.2555
M204 S3000
M205 X10 Y10
G0 F3375 X113.423 Y98.591
M204 S1800
M205 X8 Y8
G1 F900 X114.24 Y99.408 E26.31847
M204 S3000
M205 X10 Y10
G0 F3375 X114.858 Y99.408
M204 S1800
M205 X8 Y8
G1 F900 X114.041 Y98.591 E26.38145
M204 S3000
M205 X10 Y10
G0 F3375 X114.659 Y98.591
M204 S1800
M205 X8 Y8
G1 F900 X115.476 Y99.408 E26.44442
M204 S3000
M205 X10 Y10
G0 F3375 X115.647 Y98.961
M204 S1800
M205 X8 Y8
G1 F900 X115.277 Y98.591 E26.47294
M204 S3000
M205 X10 Y10
G0 F3375 X115.277 Y97.81
G1 F2400 E20.47294
;MESH:NONMESH
G0 F600 X115.277 Y97.81 Z0.54
G0 F3375 X116.02 Y99.781
G0 X110.4 Y101.05
G0 X110.4 Y102.165
G0 X110.4 Y113.318
;TIME_ELAPSED:28.230552
;LAYER:1
M106 S127.5
G0 F6187.5 X106.142 Y111.561
M204 S1800
M205 X8 Y8
;TYPE:SUPPORT
G1 F2400 E26.47294
G1 F1350 X105.641 Y111.05 E26.50579
G1 X105.301 Y110.637 E26.53034
G1 X104.911 Y110.085 E26.56137
G1 X104.593 Y109.489 E26.59237
G1 X104.373 Y108.986 E26.61757
G1 X104.169 Y108.397 E26.64618
G1 X104.028 Y107.746 E26.67675
G1 X103.9 Y106.812 E26.72002
G1 X103.9 Y102.396 E26.92271
G1 X107.842 Y102.396 E27.10365
G1 X107.877 Y102.361 E27.10592
G1 X110.4 Y102.361 E27.22172
G1 X111.648 Y102.361 E27.27901
G1 X111.683 Y102.396 E27.28128
G1 X117.578 Y102.396 E27.55185
G1 X117.578 Y106.172 E27.72517
G1 X117.53 Y107.142 E27.76974
G1 X117.45 Y107.814 E27.8008
G1 X117.311 Y108.398 E27.82836
G1 X117.123 Y108.977 E27.8563
G1 X116.895 Y109.482 E27.88173
G1 X116.52 Y110.143 E27.91661
G1 X116.237 Y110.561 E27.93978
G1 X115.791 Y111.107 E27.97214
G1 X115.399 Y111.498 E27.99755
G1 X114.809 Y111.978 E28.03246
G1 X114.322 Y112.315 E28.05965
G1 X113.773 Y112.621 E28.0885
G1 X113.202 Y112.885 E28.11737
G1 X112.612 Y113.082 E28.14592
G1 X112.08 Y113.199 E28.17092
G1 X111.306 Y113.302 E28.20676
G1 X110.612 Y113.33 E28.23864
G1 X110.4 Y113.318 E28.24839
G1 X110.108 Y113.302 E28.26181
G1 X109.531 Y113.229 E28.2885
G1 X108.872 Y113.081 E28.3195
G1 X108.282 Y112.883 E28.34807
G1 X107.637 Y112.599 E28.38042
G1 X107.078 Y112.289 E28.40976
G1 X106.672 Y112.013 E28.43229
G1 X106.142 Y111.561 E28.46426
M204 S3000
M205 X10 Y10
G1 F2400 E22.46426
G0 F6187.5 X110.4 Y113.318
M204 S1800
M205 X8 Y8
G1 F2400 E28.46426
G1 F1350 X110.4 Y102.361 E28.96718
M204 S3000
M205 X10 Y10
G1 F2400 E22.96718
;MESH:Hemera_XYCarriage_HD9_EndstopMount.stl
G0 F6187.5 X110.4 Y101.05
G0 X104.431 Y98.67
M204 S1800
M205 X8 Y8
;TYPE:WALL-INNER
G1 F2400 E28.96718
G1 F1150 X104.431 Y99.33 E29.01064
G1 X115.569 Y99.33 E29.74413
G1 X115.569 Y99 E29.76587
G1 X115.569 Y98.67 E29.7876
G1 X104.431 Y98.67 E30.52109
M204 S3000
M205 X10 Y10
G0 F6187.5 X103.871 Y98.11
M204 S1800
M205 X8 Y8
G1 F1650 X103.871 Y99.89 E30.60279
G1 X116.129 Y99.89 E31.16542
G1 X116.129 Y99 E31.20627
G1 X116.129 Y98.11 E31.24712
G1 X103.871 Y98.11 E31.80975
M204 S3000
M205 X10 Y10
G0 F6187.5 X103.411 Y97.65
M204 S1800
M205 X8 Y8
G1 F1650 X103.411 Y100.35 E31.93368
G1 X116.589 Y100.35 E32.53854
G1 X116.589 Y99 E32.6005
G1 X116.589 Y97.65 E32.66246
G1 X103.411 Y97.65 E33.26732
M204 S3000
M205 X10 Y10
G0 F6187.5 X102.951 Y97.19
M204 S1800
M205 X8 Y8
G1 F1650 X102.951 Y100.81 E33.43347
G1 X117.049 Y100.81 E34.08056
G1 X117.049 Y99 E34.16364
G1 X117.049 Y97.19 E34.24671
G1 X102.951 Y97.19 E34.8938
M204 S3000
M205 X10 Y10
G0 F6187.5 X102.491 Y96.73
M204 S1800
M205 X8 Y8
;TYPE:WALL-OUTER
G1 F1200 X102.491 Y101.27 E35.10218
G1 X117.509 Y101.27 E35.79149
G1 X117.509 Y99 E35.89568
G1 X117.509 Y96.73 E35.99987
G1 X102.491 Y96.73 E36.68918
M204 S3000
M205 X10 Y10
G0 F6187.5 X102.491 Y97.33
G0 X103.551 Y97.655
G1 F2400 E30.68918
;MESH:NONMESH
G0 F600 X103.551 Y97.655 Z0.78
G0 F6187.5 X110.4 Y101.05
G0 X110.4 Y102.165
G0 X110.4 Y113.318
;TIME_ELAPSED:39.250049
;LAYER:2
M106 S255
G0 F9000 X106.127 Y111.545
M204 S1800
M205 X8 Y8
;TYPE:SUPPORT
