;FLAVOR:Marlin
;TIME:4713
;Filament used: 5.71221m
;Layer height: 0.24
;MINX:70.12
;MINY:88.692
;MINZ:0.3
;MAXX:136.029
;MAXY:121.287
;MAXZ:46.86
;Generated with Cura_SteamEngine 5.2.1
M140 S80
M105
M190 S80
M104 S235
M105
M109 S235
M82 ;absolute extrusion mode
G21 ;metric values
G90 ;absolute positioning
M82 ;set extruder to absolute mode
M107 ;start with the fan off
G28 X0 Y0 ;move X/Y to min endstops
G28 Z0 ;move Z to min endstops
G1 Z15.0 F150.0 ;move the platform down 15mm
G92 E0 ;zero the extruded length
G1 F200 E3 ;extrude 3mm of feed stock
G92 E0 ;zero the extruded length again
G1 F150.0
G0 Y20 F150.0
M117 Printing...
G5
G92 E0
G92 E0
G1 F2400 E-6
;LAYER_COUNT:195
;LAYER:0
M107
M204 S3000
M205 X10 Y10
G1 F600 Z0.375
G0 F3375 X72.589 Y89.903 Z0.375
M204 S1800
M205 X8 Y8
;TYPE:SKIRT
G1 F600 Z0.3
G1 F2400 E0
G1 X73.173 Y89.52 E0.03807
G1 X73.796 Y89.205 E0.07612
G1 X74.451 Y88.964 E0.11416
G1 X75.129 Y88.8 E0.15218
G1 X76.157 Y88.692 E0.20852
G1 X129.229 Y88.692 E3.10121
G1 X130.014 Y88.703 E3.144
G1 X130.71 Y88.753 E3.18203
G1 X131.396 Y88.882 E3.22008
G1 X132.063 Y89.089 E3.25814
G1 X132.701 Y89.37 E3.29614
G1 X133.303 Y89.723 E3.33418
G1 X133.861 Y90.142 E3.37221
G1 X134.367 Y90.623 E3.41026
G1 X134.815 Y91.158 E3.4483
G1 X135.199 Y91.741 E3.48635
G1 X135.514 Y92.364 E3.5244
G1 X135.755 Y93.019 E3.56244
G1 X135.92 Y93.697 E3.60047
G1 X136.029 Y94.728 E3.65698
G1 X136.029 Y99.172 E3.8992
G1 X136.02 Y99.856 E3.93648
G1 X135.971 Y100.552 E3.97451
G1 X135.843 Y101.238 E4.01255
G1 X135.637 Y101.905 E4.0506
G1 X135.356 Y102.544 E4.08865
G1 X135.004 Y103.146 E4.12666
G1 X134.585 Y103.705 E4.16473
G1 X134.105 Y104.212 E4.20279
G1 X133.571 Y104.66 E4.24078
G1 X132.988 Y105.045 E4.27886
G1 X132.366 Y105.36 E4.31686
G1 X131.711 Y105.602 E4.35492
G1 X130.919 Y105.796 E4.39937
G1 X129.753 Y105.928 E4.46332
G1 X128.5 Y106.055 E4.53197
G1 X125.864 Y106.398 E4.67686
G1 X123.263 Y106.812 E4.82041
G1 X120.651 Y107.303 E4.96527
G1 X118.048 Y107.867 E5.11044
G1 X115.469 Y108.506 E5.25526
G1 X112.916 Y109.214 E5.39966
G1 X110.349 Y110.005 E5.54607
G1 X107.872 Y110.846 E5.68864
G1 X105.363 Y111.778 E5.83453
G1 X102.908 Y112.769 E5.97883
G1 X100.463 Y113.839 E6.1243
G1 X98.043 Y114.979 E6.2701
G1 X95.712 Y116.16 E6.41253
G1 X93.343 Y117.444 E6.5594
G1 X91.061 Y118.768 E6.7032
G1 X90.435 Y119.15 E6.74317
G1 X89.783 Y119.534 E6.78441
G1 X89.167 Y119.868 E6.8226
G1 X88.673 Y120.102 E6.8524
G1 X88.102 Y120.342 E6.88616
G1 X87.551 Y120.543 E6.91812
G1 X86.799 Y120.777 E6.96105
G1 X86.302 Y120.915 E6.98916
G1 X85.771 Y121.033 E7.01881
G1 X85.005 Y121.167 E7.0612
G1 X84.504 Y121.233 E7.08874
G1 X83.675 Y121.287 E7.13402
G1 X83.109 Y121.287 E7.16487
G1 X82.311 Y121.25 E7.20841
G1 X81.719 Y121.194 E7.24082
G1 X80.829 Y121.065 E7.28984
G1 X80.013 Y120.899 E7.33523
G1 X78.889 Y120.572 E7.39903
G1 X78.19 Y120.289 E7.44013
G1 X77.522 Y119.982 E7.4802
G1 X76.603 Y119.51 E7.53651
G1 X75.847 Y119.045 E7.58489
G1 X75.036 Y118.427 E7.64047
G1 X74.593 Y118.051 E7.67214
G1 X74.161 Y117.657 E7.704
G1 X73.756 Y117.251 E7.73526
G1 X73.311 Y116.761 E7.77134
G1 X72.875 Y116.221 E7.80917
G1 X72.401 Y115.557 E7.85363
G1 X71.93 Y114.831 E7.9008
G1 X71.539 Y114.102 E7.94589
G1 X71.279 Y113.554 E7.97895
G1 X71.022 Y112.934 E8.01553
G1 X70.772 Y112.242 E8.05564
G1 X70.434 Y111.019 E8.12479
G1 X70.249 Y109.959 E8.18344
G1 X70.191 Y109.458 E8.21093
G1 X70.152 Y108.895 E8.24169
G1 X70.132 Y108.372 E8.27022
G1 X70.12 Y107.519 E8.31672
G1 X70.121 Y95.367 E8.97906
G1 X70.131 Y94.702 E9.01531
G1 X70.181 Y94.006 E9.05335
G1 X70.311 Y93.321 E9.09135
G1 X70.518 Y92.654 E9.12941
G1 X70.8 Y92.016 E9.16743
G1 X71.153 Y91.414 E9.20547
G1 X71.573 Y90.856 E9.24354
G1 X72.054 Y90.351 E9.28155
G1 X72.589 Y89.903 E9.31958
M204 S3000
M205 X10 Y10
G0 F3375 X73.01 Y90.139
M204 S1800
M205 X8 Y8
G1 F2400 X73.585 Y89.791 E9.35622
G1 X74.197 Y89.513 E9.39285
G1 X74.838 Y89.31 E9.4295
G1 X75.499 Y89.185 E9.46617
G1 X76.202 Y89.129 E9.50461
G1 X129.229 Y89.129 E12.39485
G1 X130.008 Y89.14 E12.43731
G1 X130.679 Y89.189 E12.47398
G1 X131.338 Y89.318 E12.51058
G1 X131.978 Y89.524 E12.54723
G1 X132.589 Y89.805 E12.58388
G1 X133.163 Y90.156 E12.62055
G1 X133.69 Y90.573 E12.65718
G1 X134.165 Y91.049 E12.69383
G1 X134.579 Y91.579 E12.73049
G1 X134.928 Y92.153 E12.76711
G1 X135.206 Y92.766 E12.80379
G1 X135.41 Y93.406 E12.8404
G1 X135.536 Y94.067 E12.87708
G1 X135.592 Y94.774 E12.91574
G1 X135.593 Y99.166 E13.15512
G1 X135.584 Y99.85 E13.19241
G1 X135.535 Y100.521 E13.22908
G1 X135.407 Y101.181 E13.26572
G1 X135.201 Y101.821 E13.30237
G1 X134.921 Y102.433 E13.33905
G1 X134.571 Y103.006 E13.37565
G1 X134.155 Y103.534 E13.41228
G1 X133.679 Y104.009 E13.44894
G1 X133.15 Y104.425 E13.48562
G1 X132.575 Y104.774 E13.52228
G1 X131.964 Y105.053 E13.55889
G1 X131.323 Y105.257 E13.59555
G1 X130.568 Y105.396 E13.6374
G1 X129.709 Y105.493 E13.68451
G1 X128.472 Y105.618 E13.75228
G1 X125.806 Y105.965 E13.89882
G1 X123.185 Y106.382 E14.04347
G1 X120.549 Y106.878 E14.18967
G1 X117.956 Y107.44 E14.33428
G1 X115.353 Y108.085 E14.48045
G1 X112.777 Y108.8 E14.62616
G1 X110.261 Y109.575 E14.76965
G1 X107.687 Y110.449 E14.91782
G1 X105.216 Y111.366 E15.06147
G1 X102.72 Y112.374 E15.20819
G1 X100.283 Y113.44 E15.35317
G1 X97.898 Y114.564 E15.49688
G1 X95.488 Y115.785 E15.64414
G1 X93.125 Y117.065 E15.79061
G1 X90.858 Y118.381 E15.93349
G1 X90.213 Y118.774 E15.97465
G1 X89.561 Y119.158 E16.0159
G1 X88.962 Y119.482 E16.05301
G1 X88.504 Y119.699 E16.08064
G1 X87.933 Y119.939 E16.1144
G1 X87.421 Y120.126 E16.14411
G1 X86.374 Y120.452 E16.20388
G1 X85.696 Y120.602 E16.24172
G1 X84.642 Y120.786 E16.30004
G1 X83.655 Y120.851 E16.35396
G1 X83.129 Y120.851 E16.38262
G1 X82.331 Y120.814 E16.42617
G1 X81.782 Y120.762 E16.45622
G1 X80.892 Y120.633 E16.50524
G1 X80.26 Y120.504 E16.5404
G1 X79.425 Y120.28 E16.58752
G1 X78.842 Y120.081 E16.62109
G1 X78.367 Y119.89 E16.649
G1 X77.721 Y119.593 E16.68775
G1 X76.816 Y119.128 E16.74321
G1 X76.107 Y118.694 E16.78852
G1 X75.316 Y118.091 E16.84273
G1 X74.888 Y117.728 E16.87332
G1 X74.456 Y117.334 E16.90519
G1 X74.08 Y116.958 E16.93417
G1 X73.635 Y116.468 E16.97025
G1 X73.229 Y115.966 E17.00544
G1 X72.866 Y115.461 E17.03934
G1 X72.579 Y115.039 E17.06715
G1 X72.295 Y114.587 E17.09625
G1 X71.924 Y113.895 E17.13905
G1 X71.683 Y113.387 E17.16969
G1 X71.426 Y112.767 E17.20627
G1 X71.249 Y112.275 E17.23477
G1 X71.065 Y111.673 E17.26908
G1 X70.923 Y111.151 E17.29857
G1 X70.784 Y110.519 E17.33384
G1 X70.644 Y109.662 E17.38117
G1 X70.576 Y108.703 E17.43357
G1 X70.557 Y107.519 E17.49811
G1 X70.558 Y95.374 E18.16008
G1 X70.568 Y94.709 E18.19633
G1 X70.618 Y94.038 E18.233
G1 X70.747 Y93.379 E18.2696
G1 X70.954 Y92.739 E18.30626
G1 X71.235 Y92.128 E18.34292
G1 X71.586 Y91.555 E18.37954
G1 X72.003 Y91.028 E18.41617
G1 X72.48 Y90.553 E18.45286
G1 X73.01 Y90.139 E18.48952
M204 S3000
M205 X10 Y10
G0 F3375 X73.428 Y90.386
M204 S1800
M205 X8 Y8
G1 F2400 X73.994 Y90.075 E18.52472
G1 X74.594 Y89.836 E18.55992
G1 X75.219 Y89.673 E18.59513
G1 X76.174 Y89.566 E18.64751
G1 X129.229 Y89.566 E21.53927
G1 X130.002 Y89.577 E21.58141
G1 X130.646 Y89.626 E21.61661
G1 X131.279 Y89.754 E21.65181
G1 X131.891 Y89.96 E21.68701
G1 X132.473 Y90.239 E21.72219
G1 X133.016 Y90.589 E21.7574
G1 X133.512 Y91.002 E21.79258
G1 X133.953 Y91.474 E21.82778
G1 X134.333 Y91.997 E21.86302
G1 X134.644 Y92.563 E21.89822
G1 X134.884 Y93.162 E21.93339
G1 X135.048 Y93.787 E21.96861
G1 X135.155 Y94.747 E22.02126
G1 X135.156 Y99.161 E22.26185
G1 X135.147 Y99.845 E22.29913
G1 X135.098 Y100.489 E22.33433
G1 X134.97 Y101.122 E22.36953
G1 X134.766 Y101.734 E22.40469
G1 X134.487 Y102.317 E22.43992
G1 X134.138 Y102.86 E22.4751
G1 X133.725 Y103.357 E22.51033
G1 X133.253 Y103.798 E22.54553
G1 X132.731 Y104.178 E22.58073
G1 X132.166 Y104.491 E22.61593
G1 X131.567 Y104.731 E22.6511
G1 X130.829 Y104.926 E22.69271
G1 X129.665 Y105.058 E22.75656
G1 X128.404 Y105.186 E22.82564
G1 X125.757 Y105.53 E22.97113
G1 X123.108 Y105.952 E23.11733
G1 X120.483 Y106.445 E23.26291
G1 X117.857 Y107.015 E23.40938
G1 X115.237 Y107.664 E23.55649
G1 X112.68 Y108.373 E23.70112
G1 X110.088 Y109.172 E23.84896
G1 X107.543 Y110.036 E23.99545
G1 X105.051 Y110.961 E24.14033
G1 X102.58 Y111.959 E24.28558
G1 X100.102 Y113.042 E24.43298
G1 X97.681 Y114.183 E24.57886
G1 X95.278 Y115.401 E24.7257
G1 X92.934 Y116.671 E24.87101
G1 X90.623 Y118.012 E25.01664
G1 X89.992 Y118.397 E25.05693
G1 X89.34 Y118.781 E25.09817
G1 X88.572 Y119.196 E25.14575
G1 X87.763 Y119.536 E25.19358
G1 X87.292 Y119.708 E25.22091
G1 X86.251 Y120.032 E25.28034
G1 X85.62 Y120.172 E25.31557
G1 X84.588 Y120.352 E25.37266
G1 X83.432 Y120.427 E25.4358
G1 X82.351 Y120.377 E25.49479
G1 X81.844 Y120.329 E25.52254
G1 X80.954 Y120.2 E25.57156
G1 X80.372 Y120.081 E25.60394
G1 X79.555 Y119.863 E25.65003
G1 X78.783 Y119.6 E25.69448
G1 X77.921 Y119.205 E25.74616
G1 X77.03 Y118.747 E25.80077
G1 X76.353 Y118.331 E25.84408
G1 X75.595 Y117.755 E25.89597
G1 X75.182 Y117.405 E25.92547
G1 X74.564 Y116.842 E25.97104
G1 X73.958 Y116.174 E26.0202
G1 X73.584 Y115.711 E26.05264
G1 X73.126 Y115.07 E26.09558
G1 X72.689 Y114.397 E26.13931
G1 X72.309 Y113.689 E26.18311
G1 X72.087 Y113.219 E26.21144
G1 X71.732 Y112.362 E26.262
G1 X71.487 Y111.558 E26.30781
G1 X71.285 Y110.817 E26.34968
G1 X71.112 Y109.822 E26.40472
G1 X71.045 Y109.247 E26.43627
G1 X71.01 Y108.512 E26.47638
G1 X70.994 Y107.519 E26.53051
G1 X70.995 Y95.381 E27.19209
G1 X71.005 Y94.716 E27.22834
G1 X71.054 Y94.072 E27.26355
G1 X71.183 Y93.439 E27.29876
G1 X71.389 Y92.827 E27.33395
G1 X71.669 Y92.245 E27.36916
G1 X72.019 Y91.702 E27.40437
G1 X72.433 Y91.206 E27.43958
G1 X72.905 Y90.765 E27.47479
G1 X73.428 Y90.386 E27.50999
M204 S3000
M205 X10 Y10
G1 F2400 E21.50999
G0 F3375 X76.075 Y101.2
M204 S1800
M205 X8 Y8
;TYPE:SUPPORT
G1 F2400 E27.50999
G1 F900 X93.993 Y101.2 E28.48662
M204 S3000
M205 X10 Y10
G1 F2400 E22.48662
G0 F3375 X92 Y100.347
M204 S1800
M205 X8 Y8
G1 F2400 E28.48662
G1 F900 X92 Y103.194 E28.64179
M204 S3000
M205 X10 Y10
G1 F2400 E22.64179
G0 F3375 X89.997 Y110.4
M204 S1800
M205 X8 Y8
G1 F2400 E28.64179
G1 F900 X76.439 Y110.4 E29.38077
M204 S3000
M205 X10 Y10
G1 F2400 E23.38077
G0 F3375 X82.8 Y115.323
M204 S1800
M205 X8 Y8
G1 F2400 E29.38077
G1 F900 X82.8 Y98.777 E30.28261
M204 S3000
M205 X10 Y10
G1 F2400 E24.28261
G0 F3375 X82.8 Y98.88
G0 X89.56 Y100.438
G0 X100.349 Y101.2
M204 S1800
M205 X8 Y8
G1 F2400 E30.28261
G1 F900 X105.625 Y101.2 E30.57018
M204 S3000
M205 X10 Y10
G1 F2400 E24.57018
G0 F3375 X101.2 Y100.45
G0 X101.2 Y100.347
M204 S1800
M205 X8 Y8
G1 F2400 E30.57018
G1 F900 X101.2 Y102.879 E30.70819
M204 S3000
M205 X10 Y10
G1 F2400 E24.70819
;MESH:Hemera_XYCarriage_HD9_Top.stl
G0 F3375 X101.2 Y100.45
G0 X101.2 Y99.335
G0 X91.901 Y98.068
G0 X90.87 Y96.833
M204 S1800
M205 X8 Y8
;TYPE:WALL-INNER
G1 F2400 E30.70819
G1 F900 X91.36 Y97.203 E30.74165
G1 X91.633 Y97.646 E30.77002
G1 X91.75 Y98.256 E30.80387
G1 X128.408 Y98.256 E32.80192
G1 X128.408 Y97.285 E32.85484
G1 X128.407 Y96.314 E32.90776
G1 X90.987 Y96.314 E34.94734
G1 F936.4 X90.213 Y96.297 E34.9879
G1 F973.5 X77.725 Y96.297 E35.61716
G1 X77.725 Y96.703 E35.63762
G1 X90.213 Y96.703 E36.26687
G1 F936.4 X90.87 Y96.833 E36.30196
M204 S3000
M205 X10 Y10
G0 F3375 X90.683 Y97.228
M204 S1800
M205 X8 Y8
G1 F900 X91.032 Y97.492 E36.32581
G1 X91.227 Y97.808 E36.34605
G1 X91.305 Y98.215 E36.36864
G1 X91.305 Y98.693 E36.39469
G1 X128.845 Y98.693 E38.44081
G1 X128.845 Y97.285 E38.51755
G1 X128.844 Y95.877 E38.5943
G1 X77.305 Y95.877 E41.40343
G1 X77.305 Y97.123 E41.47134
G1 X90.213 Y97.123 E42.1749
G1 X90.683 Y97.228 E42.20114
M204 S3000
M205 X10 Y10
G0 F3375 X90.705 Y97.781
M204 S1800
M205 X8 Y8
G1 F900 X90.822 Y97.971 E42.21331
G1 X90.868 Y98.215 E42.22684
G1 X90.868 Y99.13 E42.27671
G1 X129.282 Y99.13 E44.37047
G1 X129.282 Y97.285 E44.47103
G1 X129.281 Y95.44 E44.57159
G1 X76.868 Y95.44 E47.42837
G1 X76.868 Y97.56 E47.54392
G1 X90.213 Y97.56 E48.27129
G1 X90.495 Y97.623 E48.28704
G1 X90.705 Y97.781 E48.30136
M204 S3000
M205 X10 Y10
G0 F3375 X90.288 Y97.997
M204 S1800
M205 X8 Y8
;TYPE:WALL-OUTER
G1 F900 X90.431 Y98.157 E48.31306
G1 X90.431 Y99.567 E48.38991
G1 X129.719 Y99.567 E50.5313
G1 X129.719 Y97.285 E50.65568
G1 X129.718 Y95.003 E50.78006
G1 X76.431 Y95.003 E53.68447
G1 X76.431 Y97.997 E53.84766
G1 X90.288 Y97.997 E54.60294
M204 S3000
M205 X10 Y10
G0 F3375 X90.431 Y98.157
G0 X90.431 Y98.543
G0 X91.143 Y98.543
G0 X91.086 Y97.583
G0 X90.992 Y96.589
M204 S1800
M205 X8 Y8
;TYPE:SKIN
G1 F1156.8 X90.213 Y96.5 E54.63619
M204 S3000
M205 X10 Y10
G0 F3375 X90.114 Y96.489
G0 X91.682 Y96.432
G0 X91.682 Y96.659
M204 S1800
M205 X8 Y8
G1 F954.6 X91.024 Y96.598 E54.67015
G1 X91.615 Y96.963 E54.70584
G1 F900 X91.934 Y97.484 E54.73914
G1 X92.03 Y97.912 E54.76305
G1 X128.064 Y97.912 E56.72708
G1 X128.064 Y97.285 E56.76125
G1 X128.063 Y96.659 E56.79537
G1 X91.682 Y96.659 E58.77832
M204 S3000
M205 X10 Y10
G0 F3375 X91.933 Y96.877
M204 S1800
M205 X8 Y8
G1 F900 X92.749 Y97.693 E58.84122
M204 S3000
M205 X10 Y10
G0 F3375 X93.367 Y97.693
M204 S1800
M205 X8 Y8
G1 F900 X92.551 Y96.877 E58.90412
M204 S3000
M205 X10 Y10
G0 F3375 X93.169 Y96.877
M204 S1800
M205 X8 Y8
G1 F900 X93.985 Y97.693 E58.96702
M204 S3000
M205 X10 Y10
G0 F3375 X94.603 Y97.693
M204 S1800
M205 X8 Y8
G1 F900 X93.787 Y96.877 E59.02992
M204 S3000
M205 X10 Y10
G0 F3375 X94.405 Y96.877
M204 S1800
M205 X8 Y8
G1 F900 X95.221 Y97.693 E59.09282
M204 S3000
M205 X10 Y10
G0 F3375 X95.839 Y97.693
M204 S1800
M205 X8 Y8
G1 F900 X95.023 Y96.877 E59.15572
M204 S3000
M205 X10 Y10
G0 F3375 X95.641 Y96.877
M204 S1800
M205 X8 Y8
G1 F900 X96.457 Y97.693 E59.21861
M204 S3000
M205 X10 Y10
G0 F3375 X97.075 Y97.693
M204 S1800
M205 X8 Y8
G1 F900 X96.259 Y96.877 E59.28151
M204 S3000
M205 X10 Y10
G0 F3375 X96.877 Y96.877
M204 S1800
M205 X8 Y8
G1 F900 X97.693 Y97.693 E59.34441
M204 S3000
M205 X10 Y10
G0 F3375 X98.311 Y97.693
M204 S1800
M205 X8 Y8
G1 F900 X97.495 Y96.877 E59.40731
M204 S3000
M205 X10 Y10
G0 F3375 X98.113 Y96.877
M204 S1800
M205 X8 Y8
G1 F900 X98.929 Y97.693 E59.47021
M204 S3000
M205 X10 Y10
G0 F3375 X99.547 Y97.693
M204 S1800
M205 X8 Y8
G1 F900 X98.731 Y96.877 E59.53311
M204 S3000
M205 X10 Y10
G0 F3375 X99.349 Y96.877
M204 S1800
M205 X8 Y8
G1 F900 X100.165 Y97.693 E59.59601
M204 S3000
M205 X10 Y10
G0 F3375 X100.783 Y97.693
M204 S1800
M205 X8 Y8
G1 F900 X99.967 Y96.877 E59.65891
M204 S3000
M205 X10 Y10
G0 F3375 X100.585 Y96.877
M204 S1800
M205 X8 Y8
G1 F900 X101.401 Y97.693 E59.7218
M204 S3000
M205 X10 Y10
G0 F3375 X102.019 Y97.693
M204 S1800
M205 X8 Y8
G1 F900 X101.203 Y96.877 E59.7847
M204 S3000
M205 X10 Y10
G0 F3375 X101.821 Y96.877
M204 S1800
M205 X8 Y8
G1 F900 X102.637 Y97.693 E59.8476
M204 S3000
M205 X10 Y10
G0 F3375 X103.255 Y97.693
M204 S1800
M205 X8 Y8
G1 F900 X102.439 Y96.877 E59.9105
M204 S3000
M205 X10 Y10
G0 F3375 X103.057 Y96.877
M204 S1800
M205 X8 Y8
G1 F900 X103.873 Y97.693 E59.9734
M204 S3000
M205 X10 Y10
G0 F3375 X104.491 Y97.693
M204 S1800
M205 X8 Y8
G1 F900 X103.675 Y96.877 E60.0363
M204 S3000
M205 X10 Y10
G0 F3375 X104.293 Y96.877
M204 S1800
M205 X8 Y8
G1 F900 X105.109 Y97.693 E60.0992
M204 S3000
M205 X10 Y10
G0 F3375 X105.727 Y97.693
M204 S1800
M205 X8 Y8
G1 F900 X104.911 Y96.877 E60.16209
M204 S3000
M205 X10 Y10
G0 F3375 X105.529 Y96.877
M204 S1800
M205 X8 Y8
G1 F900 X106.345 Y97.693 E60.22499
M204 S3000
M205 X10 Y10
G0 F3375 X106.963 Y97.693
M204 S1800
M205 X8 Y8
G1 F900 X106.147 Y96.877 E60.28789
M204 S3000
