;FLAVOR:Marlin
;TIME:186
;Filament used: 0.161259m
;Layer height: 0.24
;MINX:94.991
;MINY:93.408
;MINZ:0.3
;MAXX:112.446
;MAXY:116.592
;MAXZ:7.26
;Generated with Cura_SteamEngine 5.2.1
M140 S80
M105
M190 S80
M104 S235
M105
M109 S235
M82 ;absolute extrusion mode
G21 ;metric values
G90 ;absolute positioning
M82 ;set extruder to absolute mode
M107 ;start with the fan off
G28 X0 Y0 ;move X/Y to min endstops
G28 Z0 ;move Z to min endstops
G1 Z15.0 F150.0 ;move the platform down 15mm
G92 E0 ;zero the extruded length
G1 F200 E3 ;extrude 3mm of feed stock
G92 E0 ;zero the extruded length again
G1 F150.0
G0 Y20 F150.0
M117 Printing...
G5
G92 E0
G92 E0
G1 F2400 E-6
;LAYER_COUNT:30
;LAYER:0
M107
M204 S3000
M205 X10 Y10
G1 F600 Z0.375
G0 F3375 X96.935 Y95.566 Z0.375
M204 S1800
M205 X8 Y8
;TYPE:SKIRT
G1 F600 Z0.3
G1 F2400 E0
G1 X97.479 Y95.055 E0.04068
G1 X98.075 Y94.605 E0.08139
G1 X98.715 Y94.222 E0.12204
G1 X99.393 Y93.91 E0.16272
G1 X100.1 Y93.672 E0.20338
G1 X100.829 Y93.511 E0.24407
G1 X101.772 Y93.42 E0.29571
G1 X102.288 Y93.408 E0.32384
G1 X104.772 Y93.408 E0.45923
G1 X105.57 Y93.419 E0.50273
G1 X106.314 Y93.469 E0.54337
G1 X107.049 Y93.599 E0.58405
G1 X107.766 Y93.807 E0.62475
G1 X108.456 Y94.091 E0.66541
G1 X109.113 Y94.446 E0.70612
G1 X109.727 Y94.87 E0.74679
G1 X110.292 Y95.357 E0.78744
G1 X110.803 Y95.901 E0.82812
G1 X111.252 Y96.498 E0.86884
G1 X111.634 Y97.138 E0.90946
G1 X111.946 Y97.816 E0.95014
G1 X112.184 Y98.524 E0.99086
G1 X112.344 Y99.253 E1.03154
G1 X112.434 Y100.189 E1.08279
G1 X112.446 Y100.705 E1.11092
G1 X112.445 Y108.971 E1.56146
G1 X112.437 Y109.692 E1.60076
G1 X112.388 Y110.437 E1.64145
G1 X112.261 Y111.172 E1.68211
G1 X112.055 Y111.89 E1.72282
G1 X111.774 Y112.581 E1.76348
G1 X111.421 Y113.238 E1.80413
G1 X110.999 Y113.854 E1.84483
G1 X110.514 Y114.421 E1.8855
G1 X109.971 Y114.933 E1.92617
G1 X109.376 Y115.384 E1.96687
G1 X108.737 Y115.769 E2.00753
G1 X108.06 Y116.083 E2.04821
G1 X107.353 Y116.323 E2.0889
G1 X106.625 Y116.486 E2.12956
G1 X105.679 Y116.579 E2.18137
G1 X105.137 Y116.592 E2.21092
G1 X102.575 Y116.591 E2.35057
G1 X101.877 Y116.582 E2.38861
G1 X101.133 Y116.533 E2.42925
G1 X100.397 Y116.404 E2.46998
G1 X99.68 Y116.197 E2.51066
G1 X98.99 Y115.915 E2.55128
G1 X98.333 Y115.56 E2.59199
G1 X97.718 Y115.137 E2.63267
G1 X97.152 Y114.651 E2.67333
G1 X96.641 Y114.107 E2.71401
G1 X96.191 Y113.512 E2.75468
G1 X95.807 Y112.871 E2.7954
G1 X95.494 Y112.194 E2.83606
G1 X95.256 Y111.487 E2.87672
G1 X95.094 Y110.758 E2.91742
G1 X95.003 Y109.804 E2.96965
G1 X94.991 Y109.283 E2.99806
G1 X94.992 Y100.955 E3.45198
G1 X95.001 Y100.29 E3.48822
G1 X95.051 Y99.545 E3.52892
G1 X95.18 Y98.81 E3.5696
G1 X95.387 Y98.093 E3.61027
G1 X95.67 Y97.403 E3.65092
G1 X96.025 Y96.746 E3.69162
G1 X96.448 Y96.131 E3.73231
G1 X96.935 Y95.566 E3.77296
M204 S3000
M205 X10 Y10
G0 F3375 X97.364 Y95.753
M204 S1800
M205 X8 Y8
G1 F2400 X97.903 Y95.272 E3.81234
G1 X98.493 Y94.855 E3.85172
G1 X99.125 Y94.505 E3.8911
G1 X99.792 Y94.227 E3.93048
G1 X100.485 Y94.024 E3.96984
G1 X101.197 Y93.9 E4.00923
G1 X101.784 Y93.857 E4.04131
G1 X102.288 Y93.845 E4.06879
G1 X104.772 Y93.845 E4.20418
G1 X105.564 Y93.856 E4.24735
G1 X106.284 Y93.906 E4.28669
G1 X106.995 Y94.036 E4.32609
G1 X107.687 Y94.243 E4.36546
G1 X108.352 Y94.525 E4.40483
G1 X108.982 Y94.88 E4.44424
G1 X109.568 Y95.301 E4.48357
G1 X110.105 Y95.785 E4.52297
G1 X110.585 Y96.325 E4.56235
G1 X111.002 Y96.915 E4.60173
G1 X111.351 Y97.548 E4.64113
G1 X111.629 Y98.215 E4.68052
G1 X111.831 Y98.909 E4.71991
G1 X111.955 Y99.62 E4.75925
G1 X111.997 Y100.201 E4.791
G1 X112.009 Y100.705 E4.81848
G1 X112.008 Y108.966 E5.26874
G1 X112 Y109.687 E5.30805
G1 X111.952 Y110.408 E5.34743
G1 X111.824 Y111.12 E5.38686
G1 X111.619 Y111.812 E5.4262
G1 X111.339 Y112.478 E5.46558
G1 X110.987 Y113.109 E5.50496
G1 X110.567 Y113.697 E5.54434
G1 X110.085 Y114.235 E5.58371
G1 X109.546 Y114.717 E5.62313
G1 X108.957 Y115.136 E5.66252
G1 X108.326 Y115.487 E5.70188
G1 X107.66 Y115.767 E5.74126
G1 X106.967 Y115.971 E5.78063
G1 X106.256 Y116.098 E5.82
G1 X105.666 Y116.142 E5.85225
G1 X105.137 Y116.155 E5.88109
G1 X102.581 Y116.154 E6.0204
G1 X101.883 Y116.145 E6.05845
G1 X101.162 Y116.096 E6.09784
G1 X100.451 Y115.968 E6.13721
G1 X99.759 Y115.761 E6.17658
G1 X99.093 Y115.48 E6.21598
G1 X98.463 Y115.126 E6.25537
G1 X97.876 Y114.705 E6.29474
G1 X97.339 Y114.222 E6.33411
G1 X96.858 Y113.683 E6.37348
G1 X96.44 Y113.094 E6.41285
G1 X96.09 Y112.462 E6.45223
G1 X95.811 Y111.795 E6.49164
G1 X95.608 Y111.102 E6.53099
G1 X95.483 Y110.39 E6.5704
G1 X95.439 Y109.792 E6.60308
G1 X95.428 Y109.283 E6.63083
G1 X95.429 Y100.961 E7.08442
G1 X95.438 Y100.296 E7.12067
G1 X95.487 Y99.575 E7.16006
G1 X95.616 Y98.864 E7.19944
G1 X95.823 Y98.172 E7.23881
G1 X96.105 Y97.507 E7.27818
G1 X96.459 Y96.877 E7.31757
G1 X96.88 Y96.29 E7.35694
G1 X97.364 Y95.753 E7.39634
M204 S3000
M205 X10 Y10
G0 F3375 X97.791 Y95.947
M204 S1800
M205 X8 Y8
G1 F2400 X98.326 Y95.498 E7.43441
G1 X98.909 Y95.114 E7.47246
G1 X99.531 Y94.799 E7.51046
G1 X100.186 Y94.557 E7.54852
G1 X100.864 Y94.392 E7.58656
G1 X101.9 Y94.282 E7.64334
G1 X104.772 Y94.282 E7.79988
G1 X105.557 Y94.293 E7.84267
G1 X106.253 Y94.343 E7.8807
G1 X106.939 Y94.472 E7.91875
G1 X107.606 Y94.679 E7.95682
G1 X108.244 Y94.96 E7.99481
G1 X108.846 Y95.313 E8.03285
G1 X109.404 Y95.732 E8.07088
G1 X109.91 Y96.213 E8.10894
G1 X110.358 Y96.748 E8.14697
G1 X110.742 Y97.331 E8.18502
G1 X111.057 Y97.954 E8.22307
G1 X111.298 Y98.609 E8.26111
G1 X111.463 Y99.287 E8.29914
G1 X111.572 Y100.317 E8.3556
G1 X111.571 Y108.962 E8.82679
G1 X111.563 Y109.683 E8.86609
G1 X111.515 Y110.379 E8.90412
G1 X111.388 Y111.065 E8.94215
G1 X111.183 Y111.732 E8.98018
G1 X110.904 Y112.372 E9.01823
G1 X110.553 Y112.975 E9.05626
G1 X110.135 Y113.534 E9.09431
G1 X109.657 Y114.042 E9.13233
G1 X109.123 Y114.492 E9.17039
G1 X108.541 Y114.877 E9.20842
G1 X107.919 Y115.194 E9.24647
G1 X107.265 Y115.438 E9.28452
G1 X106.588 Y115.605 E9.32253
G1 X105.653 Y115.705 E9.37378
G1 X105.137 Y115.718 E9.40191
G1 X102.586 Y115.717 E9.54095
G1 X101.888 Y115.708 E9.579
G1 X101.192 Y115.66 E9.61703
G1 X100.506 Y115.531 E9.65507
G1 X99.839 Y115.325 E9.69312
G1 X99.201 Y115.045 E9.7311
G1 X98.598 Y114.693 E9.76916
G1 X98.039 Y114.274 E9.80723
G1 X97.533 Y113.795 E9.84521
G1 X97.084 Y113.26 E9.88328
G1 X96.699 Y112.678 E9.92131
G1 X96.384 Y112.055 E9.95936
G1 X96.141 Y111.401 E9.99739
G1 X95.975 Y110.723 E10.03544
G1 X95.865 Y109.676 E10.09282
G1 X95.866 Y100.967 E10.5675
G1 X95.875 Y100.302 E10.60375
G1 X95.924 Y99.605 E10.64183
G1 X96.053 Y98.919 E10.67988
G1 X96.259 Y98.253 E10.71788
G1 X96.54 Y97.614 E10.75593
G1 X96.892 Y97.012 E10.79393
G1 X97.311 Y96.453 E10.83201
G1 X97.791 Y95.947 E10.87003
M204 S3000
M205 X10 Y10
G0 F3375 X98.218 Y96.149
M204 S1800
M205 X8 Y8
G1 F2400 X98.747 Y95.734 E10.90667
G1 X99.321 Y95.385 E10.94329
G1 X99.933 Y95.106 E10.97995
G1 X100.574 Y94.902 E11.01661
G1 X101.234 Y94.776 E11.05324
G1 X101.945 Y94.719 E11.09211
G1 X104.772 Y94.719 E11.2462
G1 X105.551 Y94.73 E11.28866
G1 X106.222 Y94.779 E11.32533
G1 X106.881 Y94.908 E11.36193
G1 X107.521 Y95.114 E11.39858
G1 X108.132 Y95.395 E11.43523
G1 X108.706 Y95.746 E11.47191
G1 X109.233 Y96.163 E11.50854
G1 X109.708 Y96.639 E11.54519
G1 X110.122 Y97.169 E11.58184
G1 X110.471 Y97.743 E11.61846
G1 X110.749 Y98.356 E11.65515
G1 X110.953 Y98.996 E11.69176
G1 X111.079 Y99.657 E11.72843
G1 X111.135 Y100.364 E11.76709
G1 X111.134 Y108.957 E12.23545
G1 X111.126 Y109.678 E12.27475
G1 X111.078 Y110.348 E12.31136
G1 X110.952 Y111.009 E12.34804
G1 X110.747 Y111.649 E12.38467
G1 X110.469 Y112.261 E12.42131
G1 X110.119 Y112.836 E12.458
G1 X109.704 Y113.365 E12.49464
G1 X109.229 Y113.841 E12.5313
G1 X108.701 Y114.257 E12.56793
G1 X108.128 Y114.608 E12.60456
G1 X107.517 Y114.888 E12.64119
G1 X106.876 Y115.093 E12.67787
G1 X106.216 Y115.222 E12.71453
G1 X105.64 Y115.268 E12.74602
G1 X105.137 Y115.281 E12.77345
G1 X102.592 Y115.281 E12.91216
G1 X101.894 Y115.272 E12.95021
G1 X101.223 Y115.223 E12.98688
G1 X100.563 Y115.095 E13.02352
G1 X99.923 Y114.89 E13.06015
G1 X99.312 Y114.61 E13.09679
G1 X98.738 Y114.26 E13.13343
G1 X98.21 Y113.844 E13.17007
G1 X97.735 Y113.368 E13.20672
G1 X97.319 Y112.839 E13.2434
G1 X96.97 Y112.265 E13.28002
G1 X96.691 Y111.653 E13.31668
G1 X96.486 Y111.012 E13.35336
G1 X96.359 Y110.352 E13.38999
G1 X96.302 Y109.629 E13.42952
G1 X96.303 Y100.972 E13.90137
G1 X96.312 Y100.307 E13.93762
G1 X96.361 Y99.637 E13.97423
G1 X96.489 Y98.977 E14.01088
G1 X96.695 Y98.337 E14.04752
G1 X96.975 Y97.726 E14.08416
G1 X97.325 Y97.152 E14.1208
G1 X97.742 Y96.624 E14.15747
G1 X98.218 Y96.149 E14.19412
M204 S3000
M205 X10 Y10
G0 F3375 X98.643 Y96.36
M204 S1800
M205 X8 Y8
G1 F2400 X99.165 Y95.981 E14.22928
G1 X99.731 Y95.668 E14.26454
G1 X100.33 Y95.428 E14.29971
G1 X100.955 Y95.264 E14.33493
G1 X101.919 Y95.156 E14.3878
G1 X104.772 Y95.156 E14.5433
G1 X105.545 Y95.167 E14.58544
G1 X106.189 Y95.216 E14.62064
G1 X106.822 Y95.344 E14.65584
G1 X107.434 Y95.55 E14.69104
G1 X108.016 Y95.829 E14.72622
G1 X108.559 Y96.179 E14.76143
G1 X109.055 Y96.592 E14.79661
G1 X109.496 Y97.064 E14.83182
G1 X109.876 Y97.587 E14.86705
G1 X110.187 Y98.153 E14.90225
G1 X110.427 Y98.752 E14.93742
G1 X110.591 Y99.377 E14.97264
G1 X110.698 Y100.337 E15.02529
G1 X110.697 Y108.952 E15.49485
G1 X110.689 Y109.673 E15.53415
G1 X110.642 Y110.317 E15.56935
G1 X110.515 Y110.95 E15.60454
G1 X110.312 Y111.563 E15.63973
G1 X110.034 Y112.146 E15.67494
G1 X109.686 Y112.691 E15.71018
G1 X109.274 Y113.188 E15.74537
G1 X108.804 Y113.63 E15.78053
G1 X108.282 Y114.011 E15.81576
G1 X107.718 Y114.325 E15.85094
G1 X107.119 Y114.567 E15.88615
G1 X106.495 Y114.732 E15.92133
G1 X105.523 Y114.844 E15.97466
G1 X102.598 Y114.844 E16.13409
G1 X101.9 Y114.835 E16.17214
G1 X101.256 Y114.786 E16.20734
G1 X100.623 Y114.659 E16.24253
G1 X100.01 Y114.454 E16.27776
G1 X99.427 Y114.175 E16.31299
G1 X98.884 Y113.827 E16.34814
G1 X98.387 Y113.414 E16.38336
G1 X97.946 Y112.943 E16.41853
G1 X97.565 Y112.42 E16.4538
G1 X97.253 Y111.855 E16.48898
G1 X97.012 Y111.256 E16.52417
G1 X96.848 Y110.631 E16.55939
G1 X96.739 Y109.659 E16.6127
G1 X96.739 Y100.978 E17.08586
G1 X96.748 Y100.313 E17.12211
G1 X96.797 Y99.669 E17.15731
G1 X96.925 Y99.036 E17.19251
G1 X97.13 Y98.424 E17.22769
G1 X97.409 Y97.841 E17.26292
G1 X97.758 Y97.298 E17.2981
G1 X98.172 Y96.802 E17.33331
G1 X98.643 Y96.36 E17.36852
M204 S3000
M205 X10 Y10
G1 F2400 E11.36852
;MESH:Hemera_XYCarriage_HD9_BeltTensioner.stl
G0 F3375 X102.402 Y99.71
G0 X102.402 Y100.819
G0 X103.493 Y101.91
M204 S1800
M205 X8 Y8
;TYPE:WALL-INNER
G1 F2400 E17.36852
G1 F875.9 X103.493 Y102.135 E17.38112
G1 X103.493 Y108.09 E17.71461
G1 X103.943 Y108.09 E17.73981
G1 X103.943 Y101.91 E18.0859
G1 X103.493 Y101.91 E18.1111
M204 S3000
M205 X10 Y10
G0 F3375 X103.05 Y101.467
M204 S1800
M205 X8 Y8
G1 F900 X103.05 Y102.135 E18.14751
G1 X103.05 Y108.533 E18.49623
G1 X104.386 Y108.533 E18.56905
G1 X104.386 Y101.467 E18.95419
G1 X103.05 Y101.467 E19.027
M204 S3000
M205 X10 Y10
G0 F3375 X102.613 Y101.03
M204 S1800
M205 X8 Y8
G1 F900 X102.613 Y102.135 E19.08723
G1 X102.613 Y108.97 E19.45977
G1 X104.823 Y108.97 E19.58023
G1 X104.823 Y101.03 E20.013
G1 X102.613 Y101.03 E20.13346
M204 S3000
M205 X10 Y10
G0 F3375 X102.176 Y100.593
M204 S1800
M205 X8 Y8
;TYPE:WALL-OUTER
G1 F900 X102.176 Y102.135 E20.2175
G1 X102.176 Y109.407 E20.61386
G1 X105.26 Y109.407 E20.78196
G1 X105.26 Y100.593 E21.26237
G1 X102.176 Y100.593 E21.43046
M204 S3000
M205 X10 Y10
G0 F3375 X102.176 Y101.193
G0 X103.225 Y101.514
;MESH:NONMESH
G0 F600 X103.225 Y101.514 Z0.54
G0 F3375 X103.569 Y101.986
;TIME_ELAPSED:17.833607
;LAYER:1
M106 S127.5
M204 S1800
M205 X8 Y8
;TYPE:WALL-INNER
;MESH:Hemera_XYCarriage_HD9_BeltTensioner.stl
G1 F1121.3 X103.569 Y108.014 E21.70714
G1 X104.529 Y108.014 E21.7512
G1 X104.529 Y102.466 E22.00585
G1 X104.529 Y101.986 E22.02788
G1 X103.569 Y101.986 E22.07194
M204 S3000
M205 X10 Y10
G0 F6187.5 X103.109 Y101.526
M204 S1800
M205 X8 Y8
G1 F1121.3 X103.109 Y108.474 E22.39085
G1 X104.989 Y108.474 E22.47714
G1 X104.989 Y102.466 E22.7529
G1 X104.989 Y101.526 E22.79605
G1 X103.109 Y101.526 E22.88234
M204 S3000
M205 X10 Y10
G0 F6187.5 X102.649 Y101.066
M204 S1800
M205 X8 Y8
G1 F1121.3 X102.649 Y108.934 E23.24347
G1 X105.449 Y108.934 E23.37199
G1 X105.449 Y102.466 E23.66886
G1 X105.449 Y101.066 E23.73312
G1 X102.649 Y101.066 E23.86164
M204 S3000
M205 X10 Y10
G0 F6187.5 X102.189 Y100.606
M204 S1800
M205 X8 Y8
;TYPE:WALL-OUTER
G1 F815.5 X102.189 Y109.394 E24.265
G1 X105.909 Y109.394 E24.43574
G1 X105.909 Y102.466 E24.75373
G1 X105.909 Y100.606 E24.8391
G1 X102.189 Y100.606 E25.00985
M204 S3000
M205 X10 Y10
G0 F6187.5 X102.189 Y101.206
G0 X102.888 Y101.206
G0 X104.049 Y102.466
M204 S1800
M205 X8 Y8
;TYPE:WALL-INNER
G1 F1031.6 X104.049 Y107.534 E25.26269
M204 S3000
M205 X10 Y10
;MESH:NONMESH
G0 F600 X104.049 Y107.534 Z0.78
G0 F6187.5 X103.568 Y101.985
;TIME_ELAPSED:23.207932
;LAYER:2
M106 S255
M204 S1800
M205 X8 Y8
;TYPE:WALL-INNER
;MESH:Hemera_XYCarriage_HD9_BeltTensioner.stl
G1 F1525.8 X103.568 Y108.015 E25.53946
G1 X104.92 Y108.015 E25.60152
G1 X104.92 Y102.661 E25.84726
G1 X104.92 Y101.985 E25.87829
G1 X103.568 Y101.985 E25.94034
M204 S3000
M205 X10 Y10
G0 F9000 X103.108 Y101.525
M204 S1800
M205 X8 Y8
G1 F1525.8 X103.108 Y108.475 E26.25934
G1 X105.38 Y108.475 E26.36362
G1 X105.38 Y102.661 E26.63048
G1 X105.38 Y101.525 E26.68262
G1 X103.108 Y101.525 E26.7869
M204 S3000
M205 X10 Y10
G0 F9000 X102.648 Y101.065
M204 S1800
M205 X8 Y8
G1 F1525.8 X102.648 Y108.935 E27.14813
G1 X105.84 Y108.935 E27.29464
G1 X105.84 Y102.661 E27.58261
G1 X105.84 Y101.065 E27.65586
G1 X102.648 Y101.065 E27.80237
M204 S3000
M205 X10 Y10
G0 F9000 X102.188 Y100.605
M204 S1800
M205 X8 Y8
;TYPE:WALL-OUTER
G1 F953.6 X102.188 Y109.395 E28.20582
G1 X106.3 Y109.395 E28.39456
G1 X106.3 Y102.661 E28.70364
G1 X106.3 Y100.605 E28.79801
G1 X102.188 Y100.605 E28.98675
M204 S3000
M205 X10 Y10
G0 F9000 X102.188 Y101.205
G0 X102.858 Y101.275
G0 X103.975 Y102.392
M204 S1800
M205 X8 Y8
;TYPE:SKIN
G1 F521.8 X103.975 Y107.608 E29.26675
G1 X104.513 Y107.608 E29.29563
G1 X104.513 Y102.661 E29.5612
G1 X104.513 Y102.392 E29.57564
G1 X103.975 Y102.392 E29.60452
M204 S3000
M205 X10 Y10
;MESH:NONMESH
G0 F600 X103.975 Y102.392 Z1.02
G0 F9000 X104.096 Y102.513
;TIME_ELAPSED:28.698049
;LAYER:3
M204 S1800
M205 X8 Y8
;TYPE:WALL-INNER
;MESH:Hemera_XYCarriage_HD9_BeltTensioner.stl
G1 F1029.9 X104.096 Y107.487 E29.90032
G1 X104.692 Y107.487 E29.93576
G1 X104.692 Y102.811 E30.21384
G1 X104.692 Y102.513 E30.23156
G1 X104.096 Y102.513 E30.26701
M204 S3000
M205 X10 Y10
G0 F9000 X103.568 Y101.985
M204 S1800
M205 X8 Y8
G1 F1334.4 X103.568 Y108.015 E30.54378
G1 X105.22 Y108.015 E30.6196
G1 X105.22 Y102.811 E30.85846
G1 X105.22 Y101.985 E30.89637
G1 X103.568 Y101.985 E30.9722
M204 S3000
M205 X10 Y10
G0 F9000 X103.108 Y101.525
M204 S1800
M205 X8 Y8
G1 F1334.4 X103.108 Y108.475 E31.2912
G1 X105.68 Y108.475 E31.40925
G1 X105.68 Y102.811 E31.66922
G1 X105.68 Y101.525 E31.72825
G1 X103.108 Y101.525 E31.8463
M204 S3000
M205 X10 Y10
G0 F9000 X102.648 Y101.065
M204 S1800
M205 X8 Y8
G1 F1334.4 X102.648 Y108.935 E32.20752
G1 X106.14 Y108.935 E32.3678
G1 X106.14 Y102.811 E32.64889
G1 X106.14 Y101.065 E32.72903
G1 X102.648 Y101.065 E32.88931
M204 S3000
M205 X10 Y10
G0 F9000 X102.188 Y100.605
M204 S1800
M205 X8 Y8
;TYPE:WALL-OUTER
G1 F834 X102.188 Y109.395 E33.29276
G1 X106.6 Y109.395 E33.49526
G1 X106.6 Y102.811 E33.79746
