;FLAVOR:Marlin
;TIME:506
;Filament used: 0.529422m
;Layer height: 0.24
;MINX:89.921
;MINY:86.054
;MINZ:0.3
;MAXX:120.43
;MAXY:123.958
;MAXZ:5.82
;Generated with Cura_SteamEngine 5.2.1
M140 S80
M105
M190 S80
M104 S235
M105
M109 S235
M82 ;absolute extrusion mode
G21 ;metric values
G90 ;absolute positioning
M82 ;set extruder to absolute mode
M107 ;start with the fan off
G28 X0 Y0 ;move X/Y to min endstops
G28 Z0 ;move Z to min endstops
G1 Z15.0 F150.0 ;move the platform down 15mm
G92 E0 ;zero the extruded length
G1 F200 E3 ;extrude 3mm of feed stock
G92 E0 ;zero the extruded length again
G1 F150.0
G0 Y20 F150.0
M117 Printing...
G5
G92 E0
G92 E0
G1 F2400 E-6
;LAYER_COUNT:24
;LAYER:0
M107
M204 S3000
M205 X10 Y10
G1 F600 Z0.375
G0 F3375 X94.436 Y87.988 Z0.375
M204 S1800
M205 X8 Y8
;TYPE:SKIRT
G1 F600 Z0.3
G1 F2400 E0
G1 X94.942 Y87.507 E0.03805
G1 X95.5 Y87.088 E0.07609
G1 X96.102 Y86.734 E0.11415
G1 X96.74 Y86.452 E0.15217
G1 X97.406 Y86.245 E0.19018
G1 X98.092 Y86.115 E0.22824
G1 X98.699 Y86.067 E0.26143
G1 X99.217 Y86.054 E0.28967
G1 X103.065 Y86.054 E0.49941
G1 X103.855 Y86.065 E0.54247
G1 X104.551 Y86.114 E0.5805
G1 X105.237 Y86.244 E0.61855
G1 X105.903 Y86.45 E0.65655
G1 X106.542 Y86.732 E0.69462
G1 X107.144 Y87.085 E0.73266
G1 X107.796 Y87.586 E0.77747
G1 X108.991 Y88.639 E0.86429
G1 X111.057 Y90.398 E1.01218
G1 X113.14 Y92.072 E1.15783
G1 X115.262 Y93.679 E1.30292
G1 X117.257 Y95.109 E1.4367
G1 X117.812 Y95.496 E1.47358
G1 X118.361 Y95.927 E1.51162
G1 X118.856 Y96.419 E1.54966
G1 X119.293 Y96.963 E1.5877
G1 X119.664 Y97.554 E1.62573
G1 X119.965 Y98.184 E1.66379
G1 X120.192 Y98.844 E1.70183
G1 X120.342 Y99.525 E1.73984
G1 X120.417 Y100.306 E1.7826
G1 X120.43 Y100.818 E1.81052
G1 X120.429 Y101.991 E1.87445
G1 X120.417 Y102.91 E1.92454
G1 X120.316 Y104.338 E2.00257
G1 X120.168 Y106.954 E2.14539
G1 X120.081 Y111.053 E2.36885
G1 X120.08 Y112.665 E2.45671
G1 X120.07 Y113.383 E2.49585
G1 X120.021 Y114.079 E2.53388
G1 X119.892 Y114.765 E2.57193
G1 X119.64 Y115.575 E2.61816
G1 X119.162 Y116.596 E2.67961
G1 X118.599 Y117.755 E2.74984
G1 X118.317 Y118.377 E2.78706
G1 X117.845 Y119.383 E2.84763
G1 X117.513 Y119.997 E2.88568
G1 X117.113 Y120.569 E2.92372
G1 X116.65 Y121.091 E2.96175
G1 X115.967 Y121.683 E3.01102
G1 X115.521 Y122.015 E3.04132
G1 X114.893 Y122.424 E3.08217
G1 X114.426 Y122.683 E3.11128
G1 X113.899 Y122.952 E3.14353
G1 X113.107 Y123.288 E3.19042
G1 X112.562 Y123.468 E3.2217
G1 X112.006 Y123.63 E3.25327
G1 X111.078 Y123.84 E3.30513
G1 X110.112 Y123.937 E3.35804
G1 X109.544 Y123.955 E3.38902
G1 X109.043 Y123.958 E3.41632
G1 X108.068 Y123.902 E3.46955
G1 X107.176 Y123.74 E3.51897
G1 X106.324 Y123.529 E3.56681
G1 X105.53 Y123.254 E3.61261
G1 X104.951 Y123.016 E3.64673
G1 X104.46 Y122.789 E3.67621
G1 X102.868 Y121.954 E3.7742
G1 X100.474 Y120.754 E3.92016
G1 X98.082 Y119.638 E4.06402
G1 X96.734 Y119.063 E4.1439
G1 X96.61 Y119.001 E4.15146
G1 X95.379 Y118.465 E4.22464
G1 X94.756 Y118.15 E4.26269
G1 X94.174 Y117.766 E4.30069
G1 X93.58 Y117.261 E4.34319
G1 X93.089 Y116.786 E4.38042
G1 X92.142 Y115.836 E4.45354
G1 X91.654 Y115.334 E4.4917
G1 X91.197 Y114.807 E4.52972
G1 X90.803 Y114.23 E4.5678
G1 X90.478 Y113.613 E4.60581
G1 X90.226 Y112.962 E4.64386
G1 X90.049 Y112.287 E4.68189
G1 X89.937 Y111.495 E4.72549
G1 X89.921 Y110.698 E4.76894
G1 X89.921 Y101.2 E5.28663
G1 X89.932 Y100.494 E5.32511
G1 X89.983 Y99.798 E5.36315
G1 X90.113 Y99.112 E5.4012
G1 X90.306 Y98.485 E5.43696
G1 X90.732 Y97.327 E5.50421
G1 X90.967 Y96.716 E5.53989
G1 X91.842 Y94.226 E5.68375
G1 X92.654 Y91.689 E5.82894
G1 X93.05 Y90.385 E5.90322
G1 X93.291 Y89.73 E5.94126
G1 X93.605 Y89.107 E5.97928
G1 X93.989 Y88.524 E6.01733
G1 X94.436 Y87.988 E6.05537
M204 S3000
M205 X10 Y10
G0 F3375 X94.823 Y88.216
M204 S1800
M205 X8 Y8
G1 F2400 X95.319 Y87.763 E6.09199
G1 X95.866 Y87.371 E6.12867
G1 X96.455 Y87.047 E6.16531
G1 X97.079 Y86.796 E6.20197
G1 X97.728 Y86.62 E6.23862
G1 X98.712 Y86.503 E6.29263
G1 X99.217 Y86.491 E6.32016
G1 X103.065 Y86.491 E6.5299
G1 X103.848 Y86.502 E6.57258
G1 X104.519 Y86.551 E6.60925
G1 X105.179 Y86.68 E6.6459
G1 X105.819 Y86.886 E6.68255
G1 X106.43 Y87.167 E6.7192
G1 X107.003 Y87.518 E6.75583
G1 X107.507 Y87.913 E6.79073
G1 X108.732 Y88.993 E6.87974
G1 X110.79 Y90.744 E7.02702
G1 X112.853 Y92.403 E7.17131
G1 X114.994 Y94.024 E7.31768
G1 X117.066 Y95.509 E7.45663
G1 X117.562 Y95.855 E7.48959
G1 X118.09 Y96.271 E7.52623
G1 X118.564 Y96.748 E7.56288
G1 X118.979 Y97.277 E7.59953
G1 X119.328 Y97.852 E7.63619
G1 X119.606 Y98.464 E7.67283
G1 X119.81 Y99.105 E7.70949
G1 X119.936 Y99.765 E7.74611
G1 X119.993 Y100.488 E7.78564
G1 X119.992 Y101.985 E7.86724
G1 X119.98 Y102.892 E7.91668
G1 X119.885 Y104.23 E7.98979
G1 X119.731 Y106.948 E8.13817
G1 X119.644 Y111.044 E8.36147
G1 X119.643 Y112.659 E8.4495
G1 X119.633 Y113.377 E8.48864
G1 X119.584 Y114.047 E8.52525
G1 X119.456 Y114.707 E8.5619
G1 X119.219 Y115.444 E8.60409
G1 X118.731 Y116.483 E8.66666
G1 X118.205 Y117.565 E8.73223
G1 X117.956 Y118.117 E8.76524
G1 X117.449 Y119.197 E8.83027
G1 X117.128 Y119.788 E8.86693
G1 X116.739 Y120.336 E8.90356
G1 X116.288 Y120.835 E8.94022
G1 X115.706 Y121.332 E8.98193
G1 X115.26 Y121.664 E9.01224
G1 X114.677 Y122.044 E9.05017
G1 X114.227 Y122.294 E9.07822
G1 X113.7 Y122.563 E9.11047
G1 X112.965 Y122.875 E9.15399
G1 X112.44 Y123.048 E9.18412
G1 X111.884 Y123.21 E9.21569
G1 X111.008 Y123.41 E9.26466
G1 X110.096 Y123.5 E9.31461
G1 X109.542 Y123.518 E9.34483
G1 X109.041 Y123.521 E9.37213
G1 X108.121 Y123.468 E9.42236
G1 X107.277 Y123.315 E9.46911
G1 X106.444 Y123.11 E9.51587
G1 X105.696 Y122.85 E9.55903
G1 X105.117 Y122.612 E9.59315
G1 X104.662 Y122.401 E9.62049
G1 X103.511 Y121.803 E9.69119
G1 X103.061 Y121.561 E9.71904
G1 X100.674 Y120.365 E9.86456
G1 X98.266 Y119.242 E10.00938
G1 X96.905 Y118.661 E10.09003
G1 X96.772 Y118.595 E10.09813
G1 X95.554 Y118.064 E10.17055
G1 X94.954 Y117.759 E10.20723
G1 X94.395 Y117.386 E10.24386
G1 X93.883 Y116.947 E10.28062
G1 X93.398 Y116.477 E10.31743
G1 X92.455 Y115.531 E10.39024
G1 X91.967 Y115.029 E10.4284
G1 X91.528 Y114.52 E10.46503
G1 X91.153 Y113.963 E10.50163
G1 X90.846 Y113.364 E10.53832
G1 X90.612 Y112.734 E10.57495
G1 X90.455 Y112.08 E10.61161
G1 X90.368 Y111.198 E10.65991
G1 X90.357 Y110.578 E10.69371
G1 X90.358 Y101.207 E11.20448
G1 X90.369 Y100.501 E11.24297
G1 X90.419 Y99.83 E11.27964
G1 X90.549 Y99.171 E11.31625
G1 X90.716 Y98.636 E11.3468
G1 X91.14 Y97.484 E11.41371
G1 X91.376 Y96.868 E11.44966
G1 X92.256 Y94.366 E11.59422
G1 X93.073 Y91.811 E11.74043
G1 X93.468 Y90.512 E11.81443
G1 X93.702 Y89.882 E11.85106
G1 X94.008 Y89.283 E11.88772
G1 X94.384 Y88.725 E11.9244
G1 X94.823 Y88.216 E11.96103
M204 S3000
M205 X10 Y10
G0 F3375 X95.208 Y88.448
M204 S1800
M205 X8 Y8
G1 F2400 X95.694 Y88.023 E11.99622
G1 X96.229 Y87.661 E12.03143
G1 X96.805 Y87.368 E12.06666
G1 X97.412 Y87.149 E12.10183
G1 X98.042 Y87.006 E12.13704
G1 X98.849 Y86.928 E12.18123
G1 X103.065 Y86.928 E12.41102
G1 X103.842 Y86.939 E12.45338
G1 X104.486 Y86.988 E12.48858
G1 X105.119 Y87.116 E12.52378
G1 X105.731 Y87.321 E12.55896
G1 X106.314 Y87.601 E12.59421
G1 X106.971 Y88.023 E12.63677
G1 X108.44 Y89.318 E12.74351
G1 X110.524 Y91.091 E12.89264
G1 X112.588 Y92.752 E13.03705
G1 X114.719 Y94.365 E13.18272
G1 X116.793 Y95.851 E13.32178
G1 X117.312 Y96.213 E13.35627
G1 X117.818 Y96.614 E13.39146
G1 X118.27 Y97.075 E13.42665
G1 X118.663 Y97.589 E13.46192
G1 X118.988 Y98.146 E13.49707
G1 X119.242 Y98.74 E13.53228
G1 X119.421 Y99.361 E13.5675
G1 X119.522 Y99.998 E13.60266
G1 X119.556 Y100.818 E13.64739
G1 X119.556 Y101.979 E13.71067
G1 X119.544 Y102.855 E13.75842
G1 X119.449 Y104.205 E13.83219
G1 X119.294 Y106.942 E13.9816
G1 X119.207 Y111.035 E14.20474
G1 X119.206 Y112.653 E14.29293
G1 X119.196 Y113.371 E14.33207
G1 X119.148 Y114.015 E14.36727
G1 X119.019 Y114.648 E14.40248
G1 X118.704 Y115.512 E14.45261
G1 X118.338 Y116.292 E14.49957
G1 X117.812 Y117.375 E14.56519
G1 X117.526 Y118.006 E14.60295
G1 X117.054 Y119.012 E14.66352
G1 X116.744 Y119.578 E14.69869
G1 X116.366 Y120.102 E14.73391
G1 X115.927 Y120.576 E14.76912
G1 X115.445 Y120.981 E14.80344
G1 X114.999 Y121.313 E14.83374
G1 X114.329 Y121.751 E14.87737
G1 X113.502 Y122.173 E14.92798
G1 X112.823 Y122.461 E14.96818
G1 X112.318 Y122.629 E14.99718
G1 X111.762 Y122.791 E15.02875
G1 X110.935 Y122.978 E15.07496
G1 X110.08 Y123.063 E15.12179
G1 X109.539 Y123.081 E15.1513
G1 X109.038 Y123.084 E15.17861
G1 X108.174 Y123.034 E15.22578
G1 X107.379 Y122.89 E15.26981
G1 X106.564 Y122.689 E15.31557
G1 X105.862 Y122.446 E15.35606
G1 X105.061 Y122.117 E15.40325
G1 X103.239 Y121.162 E15.51538
G1 X100.874 Y119.976 E15.65958
G1 X98.44 Y118.84 E15.80598
G1 X97.077 Y118.259 E15.88674
G1 X96.968 Y118.204 E15.8934
G1 X95.728 Y117.664 E15.96711
G1 X95.153 Y117.369 E16.00234
G1 X94.619 Y117.006 E16.03753
G1 X94.187 Y116.633 E16.06864
G1 X93.707 Y116.168 E16.10507
G1 X92.769 Y115.227 E16.17749
G1 X92.281 Y114.725 E16.21564
G1 X91.86 Y114.235 E16.25086
G1 X91.503 Y113.697 E16.28605
G1 X91.216 Y113.118 E16.32127
G1 X91.001 Y112.509 E16.35647
G1 X90.864 Y111.878 E16.39167
G1 X90.805 Y111.19 E16.4293
G1 X90.794 Y110.578 E16.46267
G1 X90.795 Y101.214 E16.97305
G1 X90.806 Y100.508 E17.01154
G1 X90.856 Y99.864 E17.04674
G1 X91.013 Y99.095 E17.08952
G1 X91.548 Y97.64 E17.17402
G1 X91.782 Y97.031 E17.20958
G1 X92.673 Y94.496 E17.35603
G1 X93.509 Y91.883 E17.50557
G1 X93.887 Y90.639 E17.57643
G1 X94.112 Y90.034 E17.61162
G1 X94.411 Y89.461 E17.64684
G1 X94.778 Y88.93 E17.68203
G1 X95.208 Y88.448 E17.71723
M204 S3000
M205 X10 Y10
G1 F2400 E11.71723
G0 F3375 X101.2 Y92.009
M204 S1800
M205 X8 Y8
;TYPE:SUPPORT
G1 F2400 E17.71723
G1 F900 X101.2 Y99.876 E18.14602
M204 S3000
M205 X10 Y10
G1 F2400 E12.14602
G0 F3375 X107.981 Y99.926
G0 X109.187 Y101.127
G0 X109.115 Y101.2
M204 S1800
M205 X8 Y8
G1 F2400 E18.14602
G1 F900 X114.475 Y101.2 E18.43817
M204 S3000
M205 X10 Y10
G1 F2400 E12.43817
G0 F3375 X110.4 Y100.35
M204 S1800
M205 X8 Y8
G1 F2400 E18.43817
G1 F900 X110.4 Y102.486 E18.55459
M204 S3000
M205 X10 Y10
G1 F2400 E12.55459
;MESH:Hemera_XYCarriage_HD9_BeltclampR.stl
G0 F3375 X110.304 Y103.818
G0 X110.295 Y105.295
G0 X112.268 Y106.556
G0 X112.459 Y112.25
M204 S1800
M205 X8 Y8
;TYPE:WALL-INNER
G1 F2400 E18.55459
G1 F900 X112.459 Y108.072 E18.78231
G1 X112.458 Y106.367 E18.87525
G1 X110.645 Y106.363 E18.97406
G1 X110.34 Y106.31 E18.99094
G1 X109.901 Y106.108 E19.01728
G1 X109.718 Y105.964 E19.02997
G1 X109.469 Y105.668 E19.05105
G1 X109.356 Y105.46 E19.06395
G1 X109.224 Y105.064 E19.0867
G1 X109.223 Y104.268 E19.13009
G1 X107.072 Y102.117 E19.29589
G1 X97.542 Y102.117 E19.81533
G1 X97.542 Y110.457 E20.2699
G1 X98.443 Y111.359 E20.33939
G1 X104.835 Y111.359 E20.68778
G1 X105.103 Y111.408 E20.70263
G1 X105.497 Y111.572 E20.72589
G1 X105.735 Y111.747 E20.742
G1 X105.997 Y112.05 E20.76383
G1 X106.155 Y112.368 E20.78318
G1 F902.1 X106.245 Y112.888 E20.81188
G1 X106.423 Y112.13 E20.85422
G1 F900 X106.834 Y111.34 E20.90276
G1 X107.515 Y110.691 E20.95403
G1 X108.102 Y110.363 E20.99069
G1 X108.971 Y110.111 E21.04
G1 X109.778 Y110.144 E21.08402
G1 X110.097 Y110.196 E21.10164
G1 X110.692 Y110.421 E21.13631
G1 X111.027 Y110.598 E21.15696
G1 X111.508 Y110.985 E21.19061
G1 X111.848 Y111.367 E21.21849
G1 X112.108 Y111.78 E21.24509
G1 X112.339 Y112.317 E21.27695
G1 X112.459 Y112.25 E21.28444
M204 S3000
M205 X10 Y10
G0 F3375 X110.559 Y111.077
G0 X109.054 Y110.775
G0 X106.237 Y112.071
G0 X105.444 Y112.073
M204 S1800
M205 X8 Y8
G1 F900 X105.631 Y112.29 E21.30005
G1 F902.1 X105.808 Y112.755 E21.32711
G1 X105.808 Y113.52 E21.36871
G1 F900 X105.923 Y114.175 E21.40496
G1 X106.153 Y114.786 E21.44054
G1 X106.509 Y115.371 E21.47787
G1 X106.682 Y115.583 E21.49278
G1 X107.185 Y116.054 E21.53034
G1 X107.752 Y116.411 E21.56686
G1 X108.132 Y116.573 E21.58938
G1 X108.802 Y116.748 E21.62712
G1 X109.078 Y116.781 E21.64227
G1 X109.78 Y116.768 E21.68054
G1 X110.056 Y116.722 E21.69579
G1 X110.714 Y116.519 E21.73332
G1 X111.023 Y116.356 E21.75236
G1 X110.938 Y115.992 E21.77274
G1 X110.946 Y115.386 E21.80577
G1 X110.588 Y115.627 E21.82929
G1 X109.883 Y115.891 E21.87032
G1 X109.031 Y115.921 E21.91679
G1 X108.271 Y115.708 E21.95981
G1 X107.731 Y115.384 E21.99414
G1 X107.194 Y114.874 E22.0345
G1 X106.82 Y114.162 E22.07834
G1 X106.68 Y113.625 E22.10858
G1 X106.681 Y112.914 E22.14734
G1 X106.827 Y112.302 E22.18163
G1 X107.189 Y111.606 E22.22439
G1 X107.767 Y111.054 E22.26795
G1 X108.26 Y110.773 E22.29888
G1 X109.022 Y110.549 E22.34217
G1 X109.892 Y110.586 E22.38964
G1 X110.69 Y110.887 E22.43612
G1 X111.182 Y111.275 E22.47027
G1 X111.521 Y111.657 E22.49811
G1 X111.707 Y111.952 E22.51712
G1 X111.96 Y112.541 E22.55206
G1 X112.038 Y113.09 E22.58228
G1 X112.426 Y112.774 E22.60956
G1 X112.896 Y112.519 E22.6387
G1 X112.896 Y108.072 E22.88109
G1 X112.895 Y105.93 E22.99784
G1 X110.676 Y105.927 E23.11878
G1 X110.458 Y105.889 E23.13084
G1 X110.144 Y105.745 E23.14967
G1 X109.836 Y105.431 E23.17365
G1 X109.661 Y105.014 E23.19829
G1 X109.66 Y104.087 E23.24882
G1 X107.253 Y101.68 E23.43436
G1 X97.105 Y101.68 E23.98747
G1 X97.105 Y110.638 E24.47573
G1 X98.262 Y111.796 E24.56495
G1 X104.75 Y111.796 E24.91858
G1 X104.992 Y111.831 E24.93191
G1 X105.274 Y111.948 E24.94855
G1 X105.444 Y112.073 E24.96005
M204 S3000
M205 X10 Y10
G0 F3375 X105.444 Y111.958
G0 X106.245 Y112.888
M204 S1800
M205 X8 Y8
G1 F904.1 X106.244 Y113.482 E24.99228
G1 F912.5 X106.342 Y114.061 E25.02385
G1 F904.1 X106.55 Y114.593 E25.05484
G1 F908.3 X106.904 Y115.197 E25.09265
G1 F925.4 X107.45 Y115.711 E25.1324
G1 X107.952 Y116.028 E25.16387
G1 F918.9 X108.273 Y116.16 E25.1824
G1 F914.7 X108.964 Y116.353 E25.22087
G1 F921.1 X109.855 Y116.329 E25.26834
G1 F912.5 X110.52 Y116.121 E25.3058
M204 S3000
M205 X10 Y10
G0 F3375 X108.323 Y115.488
G0 X107.369 Y114.728
G0 X106.903 Y113.599
G0 X107.015 Y112.421
G0 X107.917 Y111.221
G0 X109.054 Y110.775
G0 X110.559 Y111.077
G0 X111.467 Y111.841
G0 X111.262 Y112.023
M204 S1800
M205 X8 Y8
G1 F900 X111.537 Y112.664 E25.34382
G1 X111.602 Y113.098 E25.36774
G1 F921.1 X111.541 Y113.749 E25.40256
G1 F971.1 X111.24 Y114.427 E25.44003
G1 F950 X110.964 Y114.808 E25.46432
G1 F900 X110.488 Y115.197 E25.49783
G1 X109.815 Y115.45 E25.53702
G1 X109.133 Y115.481 E25.57423
G1 X108.992 Y115.46 E25.582
G1 X108.409 Y115.286 E25.61516
G1 X108.015 Y115.052 E25.64014
G1 X107.539 Y114.599 E25.67595
G1 X107.22 Y113.973 E25.71425
G1 X107.117 Y113.576 E25.7366
G1 X107.117 Y112.94 E25.77127
G1 X107.213 Y112.506 E25.7955
G1 X107.532 Y111.892 E25.83321
G1 X108.043 Y111.394 E25.8721
G1 X108.403 Y111.192 E25.8946
G1 X109.075 Y110.989 E25.93286
G1 X109.79 Y111.019 E25.97187
G1 X110.468 Y111.27 E26.01127
G1 X110.855 Y111.565 E26.0378
G1 X111.262 Y112.023 E26.07119
M204 S3000
M205 X10 Y10
G0 F3375 X111.467 Y111.841
G0 X112.268 Y106.556
G0 X110.387 Y105.767
G0 X110.388 Y105.382
M204 S1800
M205 X8 Y8
G1 F900 X110.202 Y105.193 E26.08564
G1 X110.098 Y104.943 E26.1004
G1 X110.097 Y103.906 E26.15692
G1 X107.434 Y101.243 E26.36219
G1 X96.668 Y101.243 E26.94899
G1 X96.668 Y110.819 E27.47093
G1 X98.081 Y112.233 E27.57989
G1 X104.765 Y112.234 E27.9442
G1 X105.051 Y112.324 E27.96054
G1 X105.265 Y112.529 E27.9767
G1 F902.1 X105.371 Y112.806 E27.99282
G1 X105.371 Y113.558 E28.03372
G1 F900 X105.5 Y114.29 E28.07423
G1 X105.758 Y114.977 E28.11423
G1 X106.151 Y115.623 E28.15544
G1 X106.362 Y115.882 E28.17365
G1 X106.917 Y116.402 E28.21511
G1 X107.548 Y116.799 E28.25574
G1 X107.99 Y116.988 E28.28194
G1 X108.72 Y117.179 E28.32307
G1 X109.057 Y117.219 E28.34157
